(G-CODE GENERATED BY FLATCAM v8.994 - www.flatcam.org - Version Date: 2020/11/7)

(Name: copper_bottom.gbr_ncc_cnc)
(Type: G-code from Geometry)
(Units: MM)

(Created on Wednesday, 09 August 2023 at 20:50)

(This preprocessor is the default preprocessor used by FlatCAM.)
(It is made to work with MACH3 compatible motion controllers.)

(TOOL DIAMETER: 0.5 mm)
(Feedrate_XY: 60.0 mm/min)
(Feedrate_Z: 60.0 mm/min)
(Feedrate rapids 1500.0 mm/min)

(Z_Cut: -0.1 mm)
(Z_Move: 3.0 mm)
(Z Start: None mm)
(Z End: 15.0 mm)
(X,Y End: None mm)
(Steps per circle: 64)
(Preprocessor Geometry: default)

(X range:   20.2661 ...   89.8889  mm)
(Y range:   21.0611 ...   89.7339  mm)

(Spindle Speed: 0.0 RPM)
G21
G90
G94

G01 F60.00

M5
G00 Z15.0000
G00 X0.0000 Y0.0000
T2
M6    
(MSG, Change to Tool Dia = 0.5000)
M0
G00 Z15.0000

M03
G01 F60.00
G00 X20.8176 Y21.1696
G01 F60.00
G01 Z-0.1000
G01 F60.00
G01 X20.2707 Y21.9667
G01 X20.2661 Y22.5140
G01 X20.3971 Y22.3127
G01 X21.2239 Y21.1076
G01 X21.2574 Y21.0612
G00 Z3.0000
G00 X21.2646 Y21.0611
G01 F60.00
G01 Z-0.1000
G01 F60.00
G01 X21.2193 Y21.0618
G01 X21.1152 Y21.0724
G01 X21.0435 Y21.0864
G01 X20.9416 Y21.1155
G01 X20.8726 Y21.1425
G01 X20.7834 Y21.1864
G01 X20.7198 Y21.2242
G01 X20.6325 Y21.2887
G01 X20.5782 Y21.3366
G01 X20.5043 Y21.4144
G01 X20.4589 Y21.4725
G01 X20.4008 Y21.5609
G01 X20.3666 Y21.6260
G01 X20.3258 Y21.7215
G01 X20.3036 Y21.7913
G01 X20.2801 Y21.8930
G01 X20.2710 Y21.9617
G01 X20.2661 Y22.0422
G01 X20.2661 Y88.7354
G01 X20.2668 Y88.7807
G01 X20.2774 Y88.8848
G01 X20.2914 Y88.9565
G01 X20.3205 Y89.0584
G01 X20.3475 Y89.1274
G01 X20.3914 Y89.2166
G01 X20.4292 Y89.2802
G01 X20.4937 Y89.3675
G01 X20.5416 Y89.4218
G01 X20.6194 Y89.4957
G01 X20.6775 Y89.5411
G01 X20.7659 Y89.5992
G01 X20.8310 Y89.6334
G01 X20.9265 Y89.6742
G01 X20.9963 Y89.6964
G01 X21.0980 Y89.7199
G01 X21.1667 Y89.7290
G01 X21.2472 Y89.7339
G01 X88.8904 Y89.7339
G01 X88.9357 Y89.7332
G01 X89.0398 Y89.7226
G01 X89.1115 Y89.7086
G01 X89.2134 Y89.6795
G01 X89.2824 Y89.6525
G01 X89.3716 Y89.6086
G01 X89.4352 Y89.5708
G01 X89.5225 Y89.5063
G01 X89.5768 Y89.4584
G01 X89.6507 Y89.3806
G01 X89.6961 Y89.3225
G01 X89.7542 Y89.2341
G01 X89.7884 Y89.1690
G01 X89.8292 Y89.0735
G01 X89.8514 Y89.0037
G01 X89.8749 Y88.9020
G01 X89.8840 Y88.8333
G01 X89.8889 Y88.7528
G01 X89.8889 Y22.0596
G01 X89.8882 Y22.0143
G01 X89.8776 Y21.9102
G01 X89.8636 Y21.8385
G01 X89.8345 Y21.7366
G01 X89.8075 Y21.6676
G01 X89.7636 Y21.5784
G01 X89.7258 Y21.5148
G01 X89.6613 Y21.4275
G01 X89.6134 Y21.3732
G01 X89.5356 Y21.2993
G01 X89.4775 Y21.2539
G01 X89.3891 Y21.1958
G01 X89.3240 Y21.1616
G01 X89.2285 Y21.1208
G01 X89.1587 Y21.0986
G01 X89.0570 Y21.0751
G01 X88.9883 Y21.0660
G01 X88.9078 Y21.0611
G01 X21.2646 Y21.0611
G01 X21.6276 Y21.0611
G01 X21.4692 Y21.2803
G01 X21.2765 Y21.5611
G01 X21.6403 Y21.5611
G01 X21.7145 Y21.4530
G01 X21.9978 Y21.0611
G01 X22.3679 Y21.0611
G01 X22.0065 Y21.5611
G01 X22.3766 Y21.5611
G01 X22.7380 Y21.0611
G01 X23.1082 Y21.0611
G01 X22.7468 Y21.5611
G01 X23.1169 Y21.5611
G01 X23.4783 Y21.0611
G01 X23.8527 Y21.0611
G01 X23.7668 Y21.1740
G01 X23.4870 Y21.5611
G01 X23.8572 Y21.5611
G01 X24.0078 Y21.3527
G01 X24.2297 Y21.0611
G01 X24.6066 Y21.0611
G01 X24.2487 Y21.5314
G01 X24.2273 Y21.5611
G01 X24.6031 Y21.5611
G01 X24.9835 Y21.0611
G01 X25.3605 Y21.0611
G01 X24.9800 Y21.5611
G01 X25.3570 Y21.5611
G01 X25.7374 Y21.0611
G01 X26.1182 Y21.0611
G01 X26.0396 Y21.1593
G01 X25.7339 Y21.5611
G01 X26.1108 Y21.5611
G01 X26.2761 Y21.3439
G01 X26.5024 Y21.0611
G01 X26.8866 Y21.0611
G01 X26.5126 Y21.5284
G01 X26.4878 Y21.5611
G01 X26.8707 Y21.5611
G01 X27.2709 Y21.0611
G01 X27.6551 Y21.0611
G01 X27.2549 Y21.5611
G01 X27.6391 Y21.5611
G01 X28.0393 Y21.0611
G01 X28.4307 Y21.0611
G01 X28.2845 Y21.2349
G01 X28.0234 Y21.5611
G01 X28.4076 Y21.5611
G01 X28.5164 Y21.4252
G01 X28.8227 Y21.0611
G01 X29.2148 Y21.0611
G01 X28.7940 Y21.5611
G01 X29.1861 Y21.5611
G01 X29.6068 Y21.0611
G01 X29.9988 Y21.0611
G01 X29.5781 Y21.5611
G01 X29.9702 Y21.5611
G01 X30.2712 Y21.2033
G01 X30.3970 Y21.0611
G01 X30.7974 Y21.0611
G01 X30.4984 Y21.3993
G01 X30.3622 Y21.5611
G01 X30.7557 Y21.5611
G01 X31.1978 Y21.0611
G01 X31.5983 Y21.0611
G01 X31.1561 Y21.5611
G01 X31.5566 Y21.5611
G01 X31.9987 Y21.0611
G01 X32.4075 Y21.0611
G01 X32.2337 Y21.2482
G01 X31.9570 Y21.5611
G01 X32.3574 Y21.5611
G01 X32.4560 Y21.4496
G01 X32.8169 Y21.0611
G01 X33.2264 Y21.0611
G01 X32.7619 Y21.5611
G01 X33.1713 Y21.5611
G01 X33.6358 Y21.0611
G01 X34.0499 Y21.0611
G01 X33.9522 Y21.1612
G01 X33.5808 Y21.5611
G01 X33.9902 Y21.5611
G01 X34.1695 Y21.3681
G01 X34.4691 Y21.0611
G01 X34.8882 Y21.0611
G01 X34.4003 Y21.5611
G01 X34.8194 Y21.5611
G01 X35.3073 Y21.0611
G01 X35.7302 Y21.0611
G01 X35.6518 Y21.1376
G01 X35.2385 Y21.5611
G01 X35.6577 Y21.5611
G01 X35.8639 Y21.3497
G01 X36.1597 Y21.0611
G01 X36.5892 Y21.0611
G01 X36.0768 Y21.5611
G01 X36.5064 Y21.5611
G01 X37.0188 Y21.0611
G01 X37.4543 Y21.0611
G01 X37.3303 Y21.1763
G01 X36.9359 Y21.5611
G01 X37.3654 Y21.5611
G01 X37.5372 Y21.3935
G01 X37.8950 Y21.0611
G01 X38.3358 Y21.0611
G01 X37.7975 Y21.5611
G01 X38.2383 Y21.5611
G01 X38.7765 Y21.0611
G01 X39.2290 Y21.0611
G01 X38.9858 Y21.2761
G01 X38.6790 Y21.5611
G01 X39.1198 Y21.5611
G01 X39.1873 Y21.4984
G01 X39.6818 Y21.0611
G01 X40.1347 Y21.0611
G01 X39.5692 Y21.5611
G01 X40.0221 Y21.5611
G01 X40.4203 Y21.2090
G01 X40.5960 Y21.0611
G01 X41.0620 Y21.0611
G01 X40.6163 Y21.4361
G01 X40.4749 Y21.5611
G01 X40.9337 Y21.5611
G01 X41.5279 Y21.0611
G01 X42.0018 Y21.0611
G01 X41.8392 Y21.1912
G01 X41.3996 Y21.5611
G01 X41.8655 Y21.5611
G01 X42.0295 Y21.4231
G01 X42.4818 Y21.0611
G01 X42.9619 Y21.0611
G01 X42.3372 Y21.5611
G01 X42.8172 Y21.5611
G01 X43.2408 Y21.2221
G01 X43.4524 Y21.0611
G01 X43.9478 Y21.0611
G01 X43.4254 Y21.4586
G01 X43.2973 Y21.5611
G01 X43.7861 Y21.5611
G01 X44.4432 Y21.0611
G01 X44.9552 Y21.0611
G01 X44.6237 Y21.3008
G01 X44.2815 Y21.5611
G01 X44.7769 Y21.5611
G01 X44.8024 Y21.5417
G01 X45.4673 Y21.0611
G01 X45.9883 Y21.0611
G01 X45.8135 Y21.1810
G01 X45.2877 Y21.5611
G01 X45.7997 Y21.5611
G01 X45.9863 Y21.4263
G01 X46.5185 Y21.0611
G01 X47.0518 Y21.0611
G01 X46.9938 Y21.0988
G01 X46.3200 Y21.5611
G01 X46.8502 Y21.5611
G01 X47.1605 Y21.3483
G01 X47.6019 Y21.0611
G01 X47.3834 Y21.5611
G01 X48.1520 Y21.0611
G01 X47.9335 Y21.5611
G01 X48.3239 Y21.3071
G01 X48.7231 Y21.0611
G01 X48.4836 Y21.5611
G01 X48.4844 Y21.5605
G01 X49.2950 Y21.0611
G01 X49.0554 Y21.5611
G01 X49.4755 Y21.3022
G01 X49.8892 Y21.0611
G01 X49.6272 Y21.5611
G01 X50.4663 Y21.0720
G01 X50.4861 Y21.0611
G01 X50.2228 Y21.5611
G01 X50.6141 Y21.3330
G01 X51.1082 Y21.0611
G01 X50.8219 Y21.5611
G01 X51.5973 Y21.1343
G01 X51.7384 Y21.0611
G01 X51.4440 Y21.5611
G01 X51.7387 Y21.3989
G01 X52.3898 Y21.0611
G01 X52.0774 Y21.5611
G01 X52.7135 Y21.2311
G01 X53.0618 Y21.0611
G01 X52.7288 Y21.5611
G01 X52.8483 Y21.4991
G01 X53.6854 Y21.0905
G01 X53.7496 Y21.0611
G01 X53.4052 Y21.5611
G01 X53.8136 Y21.3617
G01 X54.4700 Y21.0611
G01 X54.8191 Y21.5611
G01 X54.8969 Y21.5255
G01 X55.7327 Y21.1672
G01 X55.9980 Y21.0611
G01 X56.3634 Y21.5611
G01 X56.7929 Y21.3893
G01 X57.6315 Y21.0777
G01 X57.6796 Y21.0611
G01 X58.0704 Y21.5611
G01 X58.6656 Y21.3563
G01 X59.5044 Y21.0906
G01 X59.6062 Y21.0611
G01 X60.0361 Y21.5611
G01 X60.5095 Y21.4238
G01 X61.3460 Y21.2033
G01 X61.9449 Y21.0611
G01 X62.4503 Y21.5611
G01 X63.1512 Y21.4127
G01 X63.9873 Y21.2571
G01 X64.8269 Y21.1220
G01 X65.2750 Y21.0611
G01 X66.1209 Y21.5611
G01 X66.5736 Y21.5109
G01 X67.4062 Y21.4392
G01 X68.2403 Y21.3879
G01 X69.0755 Y21.3572
G01 X69.9111 Y21.3469
G01 X70.7467 Y21.3572
G01 X71.5818 Y21.3879
G01 X72.4160 Y21.4392
G01 X73.2486 Y21.5109
G01 X73.7013 Y21.5611
G01 X74.5472 Y21.0611
G01 X74.9953 Y21.1220
G01 X75.8349 Y21.2571
G01 X76.6710 Y21.4127
G01 X77.3718 Y21.5611
G01 X77.8772 Y21.0611
G01 X78.4761 Y21.2033
G01 X79.3127 Y21.4238
G01 X79.7861 Y21.5611
G01 X80.2160 Y21.0611
G01 X80.3178 Y21.0906
G01 X81.1566 Y21.3563
G01 X81.7518 Y21.5611
G01 X82.1426 Y21.0611
G01 X82.1907 Y21.0777
G01 X83.0293 Y21.3893
G01 X83.4587 Y21.5611
G01 X83.8242 Y21.0611
G01 X84.0895 Y21.1672
G01 X84.9253 Y21.5255
G01 X85.0031 Y21.5611
G01 X85.3522 Y21.0611
G01 X86.0085 Y21.3617
G01 X86.4170 Y21.5611
G01 X86.7604 Y21.0611
G01 X87.1087 Y21.2311
G01 X87.7448 Y21.5611
G01 X87.4324 Y21.0611
G01 X88.0834 Y21.3989
G01 X88.3782 Y21.5611
G01 X88.0838 Y21.0611
G01 X88.2248 Y21.1343
G01 X89.0521 Y21.5896
G00 Z3.0000
G00 X89.2145 Y21.6840
G01 F60.00
G01 Z-0.1000
G01 F60.00
G01 X89.8889 Y22.0772
G01 X89.8889 Y22.4296
G01 X89.7297 Y22.3315
G01 X89.3889 Y22.1328
G01 X89.3889 Y22.4800
G01 X89.5755 Y22.5888
G01 X89.8889 Y22.7819
G01 X89.8889 Y23.1343
G01 X89.4213 Y22.8461
G01 X89.3889 Y22.8273
G01 X89.3889 Y23.1785
G01 X89.8889 Y23.4866
G01 X89.8889 Y23.8390
G01 X89.3889 Y23.5309
G01 X89.3889 Y23.8832
G01 X89.7327 Y24.0951
G01 X89.8889 Y24.1967
G01 X89.8889 Y24.5546
G01 X89.5722 Y24.3486
G01 X89.3889 Y24.2356
G01 X89.3889 Y24.5879
G01 X89.4117 Y24.6020
G01 X89.8889 Y24.9124
G01 X89.8889 Y25.2703
G01 X89.3889 Y24.9450
G01 X89.3889 Y25.3029
G01 X89.8283 Y25.5887
G01 X89.8889 Y25.6303
G01 X89.8889 Y25.9941
G01 X89.6616 Y25.8382
G01 X89.3889 Y25.6608
G01 X89.3889 Y26.0186
G01 X89.4949 Y26.0876
G01 X89.8889 Y26.3579
G01 X89.8889 Y26.7217
G01 X89.3889 Y26.3787
G01 X89.3889 Y26.7425
G01 X89.8628 Y27.0676
G01 X89.8889 Y27.0865
G01 X89.8889 Y27.4566
G01 X89.6901 Y27.3129
G01 X89.3889 Y27.1062
G01 X89.3889 Y27.4700
G01 X89.5174 Y27.5582
G01 X89.8889 Y27.8267
G01 X89.8889 Y28.1969
G01 X89.3889 Y27.8355
G01 X89.3889 Y28.2056
G01 X89.8372 Y28.5296
G01 X89.8889 Y28.5690
G01 X89.8889 Y28.9459
G01 X89.6585 Y28.7706
G01 X89.3889 Y28.5757
G01 X89.3889 Y28.9459
G01 X89.4798 Y29.0116
G01 X89.8889 Y29.3228
G01 X89.8889 Y29.6998
G01 X89.3889 Y29.3193
G01 X89.3889 Y29.6963
G01 X89.7523 Y29.9728
G01 X89.8889 Y30.0821
G01 X89.8889 Y30.4663
G01 X89.5677 Y30.2093
G01 X89.3889 Y30.0732
G01 X89.3889 Y30.4504
G01 X89.8889 Y30.8505
G01 X89.8889 Y31.2384
G01 X89.7993 Y31.1631
G01 X89.3889 Y30.8346
G01 X89.3889 Y31.2188
G01 X89.6090 Y31.3950
G01 X89.8889 Y31.6305
G01 X89.8889 Y32.0225
G01 X89.4187 Y31.6269
G01 X89.3889 Y31.6030
G01 X89.3889 Y31.9938
G01 X89.8002 Y32.3399
G01 X89.8889 Y32.4184
G01 X89.8889 Y32.8188
G01 X89.6042 Y32.5671
G01 X89.3889 Y32.3859
G01 X89.3889 Y32.7779
G01 X89.4083 Y32.7942
G01 X89.8889 Y33.2192
G01 X89.8889 Y33.6256
G01 X89.7557 Y33.5018
G01 X89.3889 Y33.1775
G01 X89.3889 Y33.5780
G01 X89.5542 Y33.7241
G01 X89.8889 Y34.0350
G01 X89.8889 Y34.4452
G01 X89.8733 Y34.4300
G01 X89.3889 Y33.9800
G01 X89.3889 Y34.3894
G01 X89.6664 Y34.6473
G01 X89.8889 Y34.8643
G01 X89.8889 Y35.2835
G01 X89.4596 Y34.8645
G01 X89.3889 Y34.7989
G01 X89.3889 Y35.2147
G01 X89.7454 Y35.5626
G01 X89.8889 Y35.7096
G01 X89.8889 Y36.1392
G01 X89.5333 Y35.7747
G01 X89.3889 Y35.6338
G00 Z3.0000
G00 X89.3245 Y35.9903
G01 F60.00
G01 Z-0.1000
G01 F60.00
G01 X89.7917 Y36.4690
G01 X89.8889 Y36.5737
G01 X89.8889 Y37.0145
G01 X89.5744 Y36.6759
G01 X89.1069 Y36.1969
G00 Z3.0000
G00 X88.6892 Y36.2085
G01 F60.00
G01 Z-0.1000
G01 F60.00
G01 X88.8969 Y36.4111
G01 X89.3571 Y36.8828
G01 X89.8056 Y37.3656
G01 X89.8889 Y37.4598
G01 X89.8889 Y37.9126
G01 X89.5833 Y37.5670
G01 X89.1398 Y37.0896
G01 X88.6848 Y36.6232
G01 X88.4846 Y36.4279
G00 Z3.0000
G00 X88.5003 Y36.8637
G01 F60.00
G01 Z-0.1000
G01 F60.00
G01 X88.9226 Y37.2965
G01 X89.3611 Y37.7685
G01 X89.7878 Y38.2511
G01 X89.8889 Y38.3713
G01 X89.8889 Y38.8372
G01 X89.5607 Y38.4471
G01 X89.1388 Y37.9700
G01 X88.7053 Y37.5034
G01 X88.5003 Y37.2933
G00 Z3.0000
G00 X88.5003 Y37.7235
G01 F60.00
G01 Z-0.1000
G01 F60.00
G01 X88.9165 Y38.1714
G01 X89.3335 Y38.6430
G01 X89.7388 Y39.1247
G01 X89.8889 Y39.3123
G01 X89.8889 Y39.7924
G01 X89.5069 Y39.3151
G01 X89.1063 Y38.8390
G01 X88.6942 Y38.3729
G01 X88.5003 Y38.1642
G00 Z3.0000
G00 X88.5003 Y38.6065
G01 F60.00
G01 Z-0.1000
G01 F60.00
G01 X88.8792 Y39.0350
G01 X89.2750 Y39.5054
G01 X89.6592 Y39.9854
G01 X89.8889 Y40.2873
G01 X89.8889 Y40.7895
G01 X89.7905 Y40.6534
G01 X89.4227 Y40.1700
G01 X89.0431 Y39.6957
G01 X88.6520 Y39.2309
G01 X88.5003 Y39.0594
G00 Z3.0000
G00 X88.5003 Y39.5166
G01 F60.00
G01 Z-0.1000
G01 F60.00
G01 X88.8112 Y39.8860
G01 X89.1862 Y40.3545
G01 X89.5495 Y40.8321
G01 X89.8889 Y41.3016
G01 X89.8889 Y41.8310
G01 X89.6558 Y41.4912
G01 X89.3085 Y41.0108
G01 X88.9497 Y40.5391
G01 X88.5793 Y40.0763
G01 X88.5003 Y39.9825
G01 X88.5003 Y40.4577
G01 X88.7131 Y40.7237
G01 X89.0676 Y41.1895
G01 X89.4105 Y41.6639
G01 X89.7416 Y42.1466
G01 X89.8889 Y42.3729
G01 X89.8889 Y42.9300
G01 X89.8074 Y42.7977
G01 X89.4922 Y42.3133
G01 X89.1652 Y41.8366
G01 X88.8266 Y41.3682
G01 X88.5003 Y40.9393
G00 Z3.0000
G00 X88.5003 Y41.4348
G01 F60.00
G01 Z-0.1000
G01 F60.00
G01 X88.5857 Y41.5469
G01 X88.9199 Y42.0094
G01 X89.2428 Y42.4799
G01 X89.5539 Y42.9582
G01 X89.8533 Y43.4440
G01 X89.8889 Y43.5052
G01 X89.8889 Y44.1018
G01 X89.8796 Y44.0849
G01 X89.5960 Y43.5983
G01 X89.3005 Y43.1187
G01 X88.9933 Y42.6466
G01 X88.6747 Y42.1821
G01 X88.5003 Y41.9409
G01 X88.5003 Y42.4583
G01 X88.7439 Y42.8133
G01 X89.0470 Y43.2792
G01 X89.3386 Y43.7525
G01 X89.6186 Y44.2328
G01 X89.8889 Y44.7242
G01 X89.8889 Y45.3773
G01 X89.8746 Y45.3481
G01 X89.6220 Y44.8612
G01 X89.3575 Y44.3807
G01 X89.0813 Y43.9067
G01 X88.7936 Y43.4397
G01 X88.5003 Y42.9890
G01 X88.5003 Y43.5391
G01 X88.5401 Y43.6002
G01 X88.8240 Y44.0610
G01 X89.0965 Y44.5285
G01 X89.3575 Y45.0026
G01 X89.6067 Y45.4830
G01 X89.8441 Y45.9693
G01 X89.8889 Y46.0673
G01 X89.8889 Y46.8016
G01 X89.7951 Y46.5829
G01 X89.5729 Y46.0976
G01 X89.3387 Y45.6179
G01 X89.0929 Y45.1441
G01 X88.8355 Y44.6764
G01 X88.5667 Y44.2152
G01 X88.5003 Y44.1075
G01 X88.5003 Y44.6971
G01 X88.5745 Y44.8243
G01 X88.8283 Y45.2855
G01 X89.0707 Y45.7528
G01 X89.3017 Y46.2259
G01 X89.5209 Y46.7045
G01 X89.7283 Y47.1884
G01 X89.8889 Y47.5900
G01 X89.8889 Y48.4582
G01 X89.8247 Y48.2717
G01 X89.6439 Y47.7852
G01 X89.4511 Y47.3032
G01 X89.2466 Y46.8261
G01 X89.0305 Y46.3541
G01 X88.8028 Y45.8877
G01 X88.5637 Y45.4269
G01 X88.5003 Y45.3117
G01 X88.5003 Y45.9560
G01 X88.5348 Y46.0225
G01 X88.7593 Y46.4824
G01 X88.9724 Y46.9477
G01 X89.1740 Y47.4180
G01 X89.3640 Y47.8931
G01 X89.5423 Y48.3728
G01 X89.7087 Y48.8567
G01 X89.8633 Y49.3445
G01 X89.8889 Y49.4328
G01 X89.8889 Y50.5876
G01 X89.8452 Y50.4037
G01 X89.7167 Y49.9160
G01 X89.5762 Y49.4316
G01 X89.4239 Y48.9508
G01 X89.2598 Y48.4738
G01 X89.0841 Y48.0011
G01 X88.8968 Y47.5328
G01 X88.6981 Y47.0692
G01 X88.5003 Y46.6374
G00 Z3.0000
G00 X88.5003 Y47.3692
G01 F60.00
G01 Z-0.1000
G01 F60.00
G01 X88.6196 Y47.6476
G01 X88.8042 Y48.1091
G01 X88.9774 Y48.5749
G01 X89.1390 Y49.0449
G01 X89.2891 Y49.5187
G01 X89.4276 Y49.9960
G01 X89.5542 Y50.4766
G01 X89.6691 Y50.9601
G01 X89.7720 Y51.4464
G01 X89.8630 Y51.9350
G01 X89.8889 Y52.0962
G01 X89.3582 Y52.5862
G01 X89.3484 Y52.5137
G01 X89.2718 Y52.0375
G01 X89.1835 Y51.5634
G01 X89.0836 Y51.0916
G01 X88.9722 Y50.6224
G01 X88.8493 Y50.1560
G01 X88.7150 Y49.6928
G01 X88.5693 Y49.2331
G01 X88.5003 Y49.0325
G00 Z3.0000
G00 X88.5003 Y48.1571
G01 F60.00
G01 Z-0.1000
G01 F60.00
G01 X88.5243 Y48.2170
G01 X88.6949 Y48.6760
G01 X88.8542 Y49.1390
G01 X89.0020 Y49.6058
G01 X89.1384 Y50.0760
G01 X89.2632 Y50.5495
G01 X89.3763 Y51.0259
G01 X89.4778 Y51.5049
G01 X89.5674 Y51.9862
G01 X89.6452 Y52.4697
G01 X89.7111 Y52.9548
G01 X89.7650 Y53.4415
G01 X89.8070 Y53.9293
G01 X89.8371 Y54.4180
G01 X89.8551 Y54.9073
G01 X89.8611 Y55.3969
G01 X89.8551 Y55.8865
G01 X89.8371 Y56.3758
G01 X89.8070 Y56.8645
G01 X89.7650 Y57.3524
G01 X89.7111 Y57.8390
G01 X89.6452 Y58.3242
G01 X89.5674 Y58.8076
G01 X89.4778 Y59.2890
G01 X89.3889 Y59.7087
G01 X89.8889 Y60.2063
G01 X89.8452 Y60.3902
G01 X89.7167 Y60.8779
G01 X89.5762 Y61.3623
G01 X89.4239 Y61.8431
G01 X89.3889 Y61.9448
G01 X89.8889 Y62.3357
G01 X89.8247 Y62.5222
G01 X89.6439 Y63.0087
G01 X89.4511 Y63.4907
G01 X89.3889 Y63.6359
G01 X89.8889 Y63.9922
G01 X89.7951 Y64.2109
G01 X89.5729 Y64.6963
G01 X89.3889 Y65.0732
G01 X89.8889 Y65.4165
G01 X89.8746 Y65.4457
G01 X89.6220 Y65.9326
G01 X89.3889 Y66.3562
G01 X89.8889 Y66.0696
G01 X89.6186 Y66.5611
G01 X89.3889 Y66.9551
G01 X89.8889 Y66.6920
G01 X89.8796 Y66.7089
G01 X89.5960 Y67.1956
G01 X89.3889 Y67.5316
G01 X89.8889 Y67.2887
G01 X89.8533 Y67.3498
G01 X89.5539 Y67.8356
G01 X89.3889 Y68.0893
G01 X89.3889 Y68.6312
G01 X89.4922 Y68.4806
G01 X89.8074 Y67.9961
G01 X89.8889 Y67.8638
G01 X89.8889 Y68.4209
G01 X89.7416 Y68.6473
G01 X89.4105 Y69.1300
G01 X89.3889 Y69.1598
G01 X89.3889 Y69.6719
G01 X89.6558 Y69.3027
G01 X89.8889 Y68.9629
G01 X89.8889 Y69.4922
G01 X89.5495 Y69.9618
G01 X89.3889 Y70.1729
G01 X89.3889 Y70.6661
G01 X89.4227 Y70.6239
G01 X89.7905 Y70.1405
G01 X89.8889 Y70.0043
G01 X89.8889 Y70.5065
G01 X89.6592 Y70.8085
G01 X89.3889 Y71.1462
G01 X89.3889 Y71.6190
G01 X89.5069 Y71.4788
G01 X89.8889 Y71.0015
G01 X89.8889 Y71.4816
G01 X89.7388 Y71.6691
G01 X89.3889 Y72.0850
G01 X89.3889 Y72.5410
G01 X89.5607 Y72.3468
G01 X89.8889 Y71.9567
G01 X89.8889 Y72.4226
G01 X89.7878 Y72.5427
G01 X89.3889 Y72.9939
G01 X89.3889 Y73.4361
G01 X89.5833 Y73.2268
G01 X89.8889 Y72.8813
G01 X89.8889 Y73.3341
G01 X89.8056 Y73.4283
G01 X89.3889 Y73.8769
G01 X89.3889 Y74.3081
G01 X89.5744 Y74.1180
G01 X89.8889 Y73.7794
G01 X89.8889 Y74.2202
G01 X89.7917 Y74.3248
G01 X89.3889 Y74.7376
G01 X89.3889 Y75.1600
G01 X89.5333 Y75.0191
G01 X89.8889 Y74.6547
G01 X89.8889 Y75.0842
G01 X89.7454 Y75.2313
G01 X89.3889 Y75.5792
G01 X89.3889 Y75.9950
G01 X89.4596 Y75.9293
G01 X89.8889 Y75.5104
G01 X89.8889 Y75.9295
G01 X89.6664 Y76.1466
G01 X89.3889 Y76.4044
G01 X89.3889 Y76.8139
G01 X89.8733 Y76.3639
G01 X89.8889 Y76.3486
G01 X89.8889 Y76.7588
G01 X89.5542 Y77.0698
G01 X89.3889 Y77.2159
G01 X89.3889 Y77.6163
G01 X89.7557 Y77.2920
G01 X89.8889 Y77.1683
G01 X89.8889 Y77.5746
G01 X89.4083 Y77.9996
G01 X89.3889 Y78.0159
G01 X89.3889 Y78.4080
G01 X89.6042 Y78.2268
G01 X89.8889 Y77.9751
G01 X89.8889 Y78.3755
G01 X89.8002 Y78.4539
G01 X89.3889 Y78.8000
G01 X89.3889 Y79.1908
G01 X89.4187 Y79.1670
G01 X89.8889 Y78.7713
G01 X89.8889 Y79.1634
G01 X89.6090 Y79.3989
G01 X89.3889 Y79.5751
G01 X89.3889 Y79.9593
G01 X89.7993 Y79.6308
G01 X89.8889 Y79.5554
G01 X89.8889 Y79.9433
G01 X89.3889 Y80.3435
G01 X89.3889 Y80.7207
G01 X89.5677 Y80.5846
G01 X89.8889 Y80.3276
G01 X89.8889 Y80.7118
G01 X89.7523 Y80.8211
G01 X89.3889 Y81.0976
G01 X89.3889 Y81.4745
G01 X89.8889 Y81.0941
G01 X89.8889 Y81.4710
G01 X89.4798 Y81.7823
G01 X89.3889 Y81.8480
G01 X89.3889 Y82.2181
G01 X89.6585 Y82.0233
G01 X89.8889 Y81.8480
G01 X89.8889 Y82.2249
G01 X89.8372 Y82.2642
G01 X89.3889 Y82.5883
G01 X89.3889 Y82.9584
G01 X89.8889 Y82.5970
G01 X89.8889 Y82.9671
G01 X89.5174 Y83.2357
G01 X89.3889 Y83.3238
G01 X89.3889 Y83.6876
G01 X89.6901 Y83.4810
G01 X89.8889 Y83.3373
G01 X89.8889 Y83.7074
G01 X89.8628 Y83.7262
G01 X89.3889 Y84.0514
G01 X89.3889 Y84.4152
G01 X89.8889 Y84.0722
G01 X89.8889 Y84.4359
G01 X89.4949 Y84.7062
G01 X89.3889 Y84.7752
G01 X89.3889 Y85.1331
G01 X89.6616 Y84.9557
G01 X89.8889 Y84.7997
G01 X89.8889 Y85.1635
G01 X89.8283 Y85.2051
G01 X89.3889 Y85.4910
G01 X89.3889 Y85.8488
G01 X89.8889 Y85.5236
G01 X89.8889 Y85.8814
G01 X89.4117 Y86.1918
G01 X89.3889 Y86.2059
G01 X89.3889 Y86.5583
G01 X89.5722 Y86.4453
G01 X89.8889 Y86.2393
G01 X89.8889 Y86.5972
G01 X89.7327 Y86.6988
G01 X89.3889 Y86.9106
G01 X89.3889 Y87.2630
G01 X89.8889 Y86.9549
G01 X89.8889 Y87.3072
G01 X89.3889 Y87.6153
G01 X89.3889 Y87.9666
G01 X89.4213 Y87.9477
G01 X89.8889 Y87.6596
G01 X89.8889 Y88.0120
G01 X89.5755 Y88.2051
G01 X89.3889 Y88.3138
G01 X89.3889 Y88.6610
G01 X89.7297 Y88.4624
G01 X89.8889 Y88.3643
G01 X89.8889 Y88.7167
G01 X89.2191 Y89.1072
G00 Z3.0000
G00 X89.0474 Y89.2069
G01 F60.00
G01 Z-0.1000
G01 F60.00
G01 X88.2248 Y89.6596
G01 X88.0816 Y89.7339
G01 X88.3761 Y89.2339
G01 X88.0834 Y89.3950
G01 X87.4302 Y89.7339
G01 X87.7426 Y89.2339
G01 X87.1087 Y89.5628
G01 X86.7581 Y89.7339
G01 X87.0912 Y89.2339
G01 X86.9738 Y89.2948
G01 X86.1368 Y89.7033
G01 X86.0701 Y89.7339
G01 X86.4147 Y89.2339
G01 X86.0085 Y89.4321
G01 X85.3497 Y89.7339
G01 X85.0006 Y89.2339
G01 X84.9253 Y89.2684
G01 X84.0895 Y89.6267
G01 X83.8214 Y89.7339
G01 X83.4559 Y89.2339
G01 X83.0293 Y89.4045
G01 X82.1907 Y89.7162
G01 X82.1393 Y89.7339
G01 X81.7484 Y89.2339
G01 X81.1566 Y89.4375
G01 X80.3178 Y89.7032
G01 X80.2121 Y89.7339
G01 X79.7822 Y89.2339
G01 X79.3127 Y89.3700
G01 X78.4761 Y89.5905
G01 X77.8725 Y89.7339
G01 X77.3665 Y89.2339
G01 X76.6710 Y89.3811
G01 X75.8349 Y89.5368
G01 X74.9953 Y89.6719
G01 X74.5388 Y89.7339
G01 X73.6911 Y89.2339
G01 X73.2486 Y89.2830
G01 X72.4160 Y89.3547
G01 X71.5818 Y89.4059
G01 X70.7467 Y89.4367
G01 X69.9111 Y89.4469
G01 X69.0755 Y89.4367
G01 X68.2403 Y89.4059
G01 X67.4062 Y89.3547
G01 X66.5736 Y89.2830
G01 X66.1311 Y89.2339
G01 X65.2834 Y89.7339
G01 X64.8269 Y89.6719
G01 X63.9873 Y89.5368
G01 X63.1512 Y89.3811
G01 X62.4557 Y89.2339
G01 X61.9497 Y89.7339
G01 X61.3460 Y89.5905
G01 X60.5095 Y89.3700
G01 X60.0400 Y89.2339
G01 X59.6101 Y89.7339
G01 X59.5044 Y89.7032
G01 X58.6656 Y89.4375
G01 X58.0737 Y89.2339
G01 X57.6829 Y89.7339
G01 X57.6315 Y89.7162
G01 X56.7929 Y89.4045
G01 X56.3663 Y89.2339
G01 X56.0008 Y89.7339
G01 X55.7327 Y89.6267
G01 X54.8969 Y89.2684
G01 X54.8216 Y89.2339
G01 X54.4725 Y89.7339
G01 X53.8136 Y89.4321
G01 X53.4075 Y89.2339
G01 X53.0641 Y89.7339
G01 X52.7135 Y89.5628
G01 X52.0796 Y89.2339
G01 X52.3919 Y89.7339
G01 X51.7387 Y89.3950
G01 X51.4460 Y89.2339
G01 X51.7406 Y89.7339
G01 X51.5973 Y89.6596
G01 X50.8239 Y89.2339
G01 X51.1102 Y89.7339
G01 X50.6141 Y89.4608
G01 X50.2247 Y89.2339
G01 X50.4881 Y89.7339
G01 X50.4663 Y89.7219
G01 X49.6290 Y89.2339
G01 X49.8912 Y89.7339
G01 X49.4755 Y89.4916
G01 X49.0572 Y89.2339
G01 X49.2968 Y89.7339
G01 X48.4854 Y89.2339
G01 X47.9352 Y89.2339
G01 X48.3239 Y89.4868
G01 X48.7250 Y89.7339
G01 X48.1537 Y89.7339
G01 X47.3851 Y89.2339
G01 X46.8519 Y89.2339
G01 X47.1605 Y89.4456
G01 X47.6036 Y89.7339
G01 X47.0535 Y89.7339
G01 X46.9938 Y89.6951
G01 X46.3217 Y89.2339
G01 X45.8013 Y89.2339
G01 X45.9863 Y89.3676
G01 X46.5202 Y89.7339
G01 X45.9899 Y89.7339
G01 X45.8135 Y89.6129
G01 X45.2892 Y89.2339
G01 X44.7784 Y89.2339
G01 X44.8024 Y89.2521
G01 X45.4689 Y89.7339
G01 X44.9568 Y89.7339
G01 X44.6237 Y89.4931
G01 X44.2830 Y89.2339
G01 X43.7876 Y89.2339
G01 X44.4447 Y89.7339
G01 X43.9493 Y89.7339
G01 X43.4254 Y89.3352
G01 X43.2987 Y89.2339
G01 X42.8187 Y89.2339
G01 X43.2408 Y89.5717
G01 X43.4539 Y89.7339
G01 X42.9633 Y89.7339
G01 X42.3386 Y89.2339
G01 X41.8669 Y89.2339
G01 X42.0295 Y89.3707
G01 X42.4833 Y89.7339
G01 X42.0032 Y89.7339
G01 X41.8392 Y89.6026
G01 X41.4009 Y89.2339
G01 X40.9350 Y89.2339
G01 X41.5293 Y89.7339
G01 X41.0633 Y89.7339
G01 X40.6163 Y89.3577
G01 X40.4762 Y89.2339
G01 X40.0234 Y89.2339
G01 X40.4203 Y89.5849
G01 X40.5974 Y89.7339
G01 X40.1360 Y89.7339
G01 X39.5705 Y89.2339
G01 X39.1210 Y89.2339
G01 X39.1873 Y89.2954
G01 X39.6831 Y89.7339
G01 X39.2303 Y89.7339
G01 X38.9858 Y89.5177
G01 X38.6803 Y89.2339
G01 X38.2395 Y89.2339
G01 X38.7777 Y89.7339
G01 X38.3370 Y89.7339
G01 X37.7988 Y89.2339
G01 X37.3666 Y89.2339
G01 X37.5372 Y89.4003
G01 X37.8962 Y89.7339
G01 X37.4555 Y89.7339
G01 X37.3303 Y89.6176
G01 X36.9371 Y89.2339
G01 X36.5075 Y89.2339
G01 X37.0199 Y89.7339
G01 X36.5904 Y89.7339
G01 X36.0780 Y89.2339
G01 X35.6588 Y89.2339
G01 X35.8639 Y89.4441
G01 X36.1609 Y89.7339
G01 X35.7313 Y89.7339
G01 X35.6518 Y89.6563
G01 X35.2396 Y89.2339
G01 X34.8205 Y89.2339
G01 X35.3084 Y89.7339
G01 X34.8893 Y89.7339
G01 X34.4014 Y89.2339
G01 X33.9913 Y89.2339
G01 X34.1695 Y89.4258
G01 X34.4702 Y89.7339
G01 X34.0510 Y89.7339
G01 X33.9522 Y89.6326
G01 X33.5818 Y89.2339
G01 X33.1724 Y89.2339
G01 X33.6369 Y89.7339
G01 X33.2274 Y89.7339
G01 X32.7629 Y89.2339
G01 X32.3584 Y89.2339
G01 X32.4560 Y89.3442
G01 X32.8180 Y89.7339
G01 X32.4085 Y89.7339
G01 X32.2337 Y89.5457
G01 X31.9580 Y89.2339
G01 X31.5576 Y89.2339
G01 X31.9997 Y89.7339
G01 X31.5993 Y89.7339
G01 X31.1571 Y89.2339
G01 X30.7567 Y89.2339
G01 X31.1988 Y89.7339
G01 X30.7984 Y89.7339
G01 X30.4984 Y89.3946
G01 X30.3632 Y89.2339
G01 X29.9711 Y89.2339
G01 X30.2712 Y89.5905
G01 X30.3980 Y89.7339
G01 X29.9998 Y89.7339
G01 X29.5791 Y89.2339
G01 X29.1870 Y89.2339
G01 X29.6078 Y89.7339
G01 X29.2157 Y89.7339
G01 X28.7950 Y89.2339
G01 X28.4085 Y89.2339
G01 X28.5164 Y89.3687
G01 X28.8237 Y89.7339
G01 X28.4316 Y89.7339
G01 X28.2845 Y89.5590
G01 X28.0243 Y89.2339
G01 X27.6400 Y89.2339
G01 X28.0402 Y89.7339
G01 X27.6560 Y89.7339
G01 X27.2558 Y89.2339
G01 X26.8716 Y89.2339
G01 X27.2718 Y89.7339
G01 X26.8876 Y89.7339
G01 X26.5126 Y89.2654
G01 X26.4886 Y89.2339
G01 X26.1117 Y89.2339
G01 X26.2761 Y89.4500
G01 X26.5033 Y89.7339
G01 X26.1191 Y89.7339
G01 X26.0396 Y89.6346
G01 X25.7348 Y89.2339
G01 X25.3578 Y89.2339
G01 X25.7382 Y89.7339
G01 X25.3613 Y89.7339
G01 X24.9809 Y89.2339
G01 X24.6040 Y89.2339
G01 X24.9844 Y89.7339
G01 X24.6074 Y89.7339
G01 X24.2487 Y89.2624
G01 X24.2281 Y89.2339
G01 X23.8580 Y89.2339
G01 X24.0078 Y89.4411
G01 X24.2305 Y89.7339
G01 X23.8536 Y89.7339
G01 X23.7668 Y89.6199
G01 X23.4878 Y89.2339
G01 X23.1177 Y89.2339
G01 X23.4791 Y89.7339
G01 X23.1090 Y89.7339
G01 X22.7476 Y89.2339
G01 X22.3774 Y89.2339
G01 X22.7388 Y89.7339
G01 X22.3687 Y89.7339
G01 X22.0073 Y89.2339
G01 X21.6411 Y89.2339
G01 X21.7145 Y89.3408
G01 X21.9986 Y89.7339
G01 X21.6284 Y89.7339
G01 X21.4692 Y89.5136
G01 X21.2773 Y89.2339
G01 X21.2583 Y89.7339
G01 X21.2239 Y89.6863
G01 X20.3971 Y88.4811
G01 X20.2661 Y88.2798
G01 X20.7661 Y88.4888
G01 X20.6465 Y88.3145
G01 X20.2661 Y87.7297
G01 X20.7661 Y87.9482
G01 X20.2661 Y87.1796
G01 X20.7661 Y87.3981
G01 X20.3604 Y86.7745
G01 X20.2661 Y86.6215
G01 X20.7661 Y86.8480
G01 X20.6139 Y86.6140
G01 X20.2661 Y86.0496
G01 X20.7661 Y86.2892
G01 X20.2661 Y85.4778
G01 X20.7661 Y85.7174
G01 X20.3773 Y85.0864
G01 X20.2661 Y84.8956
G01 X20.7661 Y85.1456
G01 X20.6346 Y84.9321
G01 X20.2661 Y84.2999
G01 X20.7661 Y84.5621
G01 X20.2661 Y83.7042
G01 X20.7661 Y83.9663
G01 X20.4466 Y83.4182
G01 X20.2661 Y83.0902
G01 X20.7661 Y83.3706
G01 X20.7077 Y83.2703
G01 X20.2661 Y82.4680
G01 X20.7661 Y82.7544
G01 X20.3030 Y81.9130
G01 X20.2661 Y81.8418
G01 X20.7661 Y82.1322
G01 X20.5676 Y81.7716
G01 X20.2661 Y81.1905
G01 X20.7661 Y81.5028
G01 X20.2661 Y80.5391
G01 X20.7661 Y80.8515
G01 X20.4711 Y80.2829
G01 X20.2661 Y79.8629
G01 X20.7661 Y80.2001
G01 X20.7391 Y80.1480
G01 X20.2661 Y79.1789
G01 X20.7661 Y79.5195
G01 X20.4177 Y78.8056
G01 X20.2661 Y78.4747
G01 X20.7661 Y78.1256
G01 X20.4066 Y77.3407
G01 X20.2661 Y77.0129
G01 X20.7661 Y76.6566
G01 X20.4373 Y75.8896
G01 X20.2661 Y75.4614
G01 X20.7661 Y75.0960
G01 X20.5091 Y74.4534
G01 X20.2661 Y73.7996
G01 X20.7661 Y73.4228
G01 X20.6213 Y73.0331
G01 X20.2661 Y72.0008
G01 X20.7661 Y71.6082
G01 X20.3894 Y70.4192
G01 X20.2661 Y69.9939
G01 X20.7661 Y69.5640
G01 X20.6139 Y69.0393
G01 X20.2940 Y67.8254
G01 X20.2661 Y67.7079
G01 X20.7661 Y67.2168
G01 X20.5893 Y66.4725
G01 X20.3324 Y65.2587
G01 X20.2661 Y64.9027
G01 X20.7661 Y64.3105
G01 X20.6965 Y63.9365
G01 X20.5017 Y62.7261
G01 X20.3367 Y61.5113
G01 X20.2661 Y60.8744
G01 X20.7661 Y59.8553
G01 X20.6948 Y59.0273
G01 X20.6205 Y57.8184
G01 X20.5759 Y56.6080
G01 X20.5611 Y55.3969
G01 X20.5759 Y54.1858
G01 X20.6205 Y52.9754
G01 X20.6948 Y51.7665
G01 X20.7661 Y50.9386
G01 X20.2661 Y49.9194
G01 X20.3367 Y49.2825
G01 X20.5017 Y48.0677
G01 X20.6965 Y46.8574
G01 X20.7662 Y46.4829
G01 X20.2661 Y45.8912
G01 X20.3324 Y45.5351
G01 X20.5893 Y44.3214
G01 X20.7662 Y43.5767
G01 X20.2661 Y43.0859
G01 X20.2940 Y42.9685
G01 X20.6139 Y41.7546
G01 X20.7662 Y41.2295
G01 X20.2661 Y40.8000
G01 X20.3894 Y40.3747
G01 X20.7662 Y39.1854
G01 X20.2661 Y38.7931
G01 X20.6213 Y37.7607
G01 X20.7662 Y37.3708
G00 Z3.0000
G00 X20.9131 Y36.9757
G01 F60.00
G01 Z-0.1000
G01 F60.00
G01 X20.9933 Y36.7598
G00 Z3.0000
G00 X21.2822 Y36.8437
G01 F60.00
G01 Z-0.1000
G01 F60.00
G01 X21.2414 Y36.9534
G00 Z3.0000
G00 X21.5614 Y36.9534
G01 F60.00
G01 Z-0.1000
G01 F60.00
G01 X21.6022 Y36.8437
G01 X21.8814 Y36.9534
G01 X21.9086 Y36.8803
G01 X21.9233 Y36.8437
G01 X22.2025 Y36.9534
G01 X22.2463 Y36.8437
G01 X22.5255 Y36.9534
G01 X22.5694 Y36.8437
G01 X22.8486 Y36.9534
G01 X22.8925 Y36.8437
G01 X23.1717 Y36.9534
G01 X23.2156 Y36.8437
G01 X23.4948 Y36.9534
G01 X23.5386 Y36.8437
G01 X23.8178 Y36.9534
G01 X23.8617 Y36.8437
G01 X24.1409 Y36.9534
G01 X24.1848 Y36.8437
G01 X24.4640 Y36.9534
G01 X24.5079 Y36.8437
G01 X24.7871 Y36.9534
G01 X24.8309 Y36.8437
G01 X25.1101 Y36.9534
G01 X25.1491 Y36.8559
G01 X25.1544 Y36.8437
G01 X25.4337 Y36.9534
G01 X25.4807 Y36.8437
G01 X25.7601 Y36.9534
G01 X25.8071 Y36.8437
G01 X26.0865 Y36.9534
G01 X26.1335 Y36.8437
G01 X26.4128 Y36.9534
G01 X26.4599 Y36.8437
G01 X26.7392 Y36.9534
G01 X26.7862 Y36.8437
G01 X27.0656 Y36.9534
G01 X27.1126 Y36.8437
G01 X27.3920 Y36.9534
G01 X27.4390 Y36.8437
G00 Z3.0000
G00 X27.7165 Y36.9576
G01 F60.00
G01 Z-0.1000
G01 F60.00
G01 X27.7619 Y36.8517
G01 X28.0000 Y37.0577
G01 X27.9210 Y37.2420
G01 X28.0307 Y37.7475
G01 X27.9210 Y38.0034
G01 X28.0307 Y38.5369
G01 X27.9210 Y38.8112
G01 X28.0307 Y39.3516
G01 X27.9210 Y39.6467
G01 X28.0307 Y40.2125
G01 X27.9653 Y40.3885
G01 X27.9210 Y40.5173
G01 X28.0307 Y41.1205
G01 X27.9210 Y41.4394
G01 X28.0307 Y42.0798
G01 X27.9210 Y42.4260
G01 X28.0307 Y43.1051
G01 X27.9210 Y43.4834
G01 X28.0307 Y44.2170
G01 X27.9210 Y44.6332
G01 X28.0307 Y45.4442
G01 X27.9210 Y45.9061
G01 X28.0307 Y46.8292
G01 X27.9825 Y47.0568
G01 X27.9210 Y47.3872
G01 X28.0307 Y48.4836
G01 X27.9858 Y48.7626
G01 X27.9210 Y48.5826
G01 X27.9207 Y48.5949
G01 X27.9198 Y48.6071
G01 X27.9183 Y48.6193
G01 X27.9162 Y48.6314
G01 X27.9135 Y48.6433
G01 X27.9102 Y48.6552
G01 X27.9042 Y48.6726
G01 X27.8996 Y48.6839
G01 X27.8943 Y48.6950
G01 X27.8885 Y48.7058
G01 X27.8822 Y48.7163
G01 X27.8754 Y48.7266
G01 X27.8681 Y48.7364
G01 X27.8603 Y48.7459
G01 X27.8521 Y48.7550
G01 X27.8434 Y48.7637
G01 X27.8343 Y48.7719
G01 X27.8248 Y48.7797
G01 X27.8150 Y48.7870
G01 X27.8047 Y48.7938
G01 X27.7942 Y48.8001
G01 X27.7834 Y48.8059
G01 X27.7723 Y48.8112
G01 X27.7610 Y48.8158
G01 X27.7494 Y48.8200
G01 X27.7377 Y48.8235
G01 X27.7258 Y48.8265
G01 X27.7137 Y48.8289
G01 X27.7016 Y48.8307
G01 X27.6894 Y48.8319
G01 X27.6771 Y48.8325
G01 X21.0101 Y48.8325
G01 X20.9978 Y48.8319
G01 X20.9856 Y48.8307
G01 X20.9735 Y48.8289
G01 X20.9614 Y48.8265
G01 X20.9436 Y48.8218
G01 X20.9320 Y48.8180
G01 X20.9205 Y48.8136
G01 X20.9093 Y48.8086
G01 X20.8984 Y48.8031
G01 X20.8877 Y48.7970
G01 X20.8773 Y48.7905
G01 X20.8673 Y48.7834
G01 X20.8576 Y48.7759
G01 X20.8483 Y48.7678
G01 X20.8394 Y48.7594
G01 X20.8310 Y48.7505
G01 X20.8229 Y48.7412
G01 X20.8154 Y48.7315
G01 X20.8083 Y48.7215
G01 X20.8018 Y48.7111
G01 X20.7957 Y48.7004
G01 X20.7902 Y48.6895
G01 X20.7852 Y48.6783
G01 X20.7808 Y48.6668
G01 X20.7770 Y48.6552
G01 X20.7737 Y48.6433
G01 X20.7710 Y48.6314
G01 X20.7689 Y48.6193
G01 X20.7674 Y48.6071
G01 X20.7663 Y48.5887
G01 X20.7663 Y37.1973
G01 X20.7669 Y37.1850
G01 X20.7681 Y37.1728
G01 X20.7699 Y37.1607
G01 X20.7723 Y37.1486
G01 X20.7753 Y37.1367
G01 X20.7788 Y37.1250
G01 X20.7830 Y37.1134
G01 X20.7876 Y37.1021
G01 X20.7929 Y37.0910
G01 X20.7987 Y37.0802
G01 X20.8050 Y37.0697
G01 X20.8118 Y37.0594
G01 X20.8191 Y37.0496
G01 X20.8269 Y37.0401
G01 X20.8351 Y37.0310
G01 X20.8438 Y37.0223
G01 X20.8529 Y37.0141
G01 X20.8624 Y37.0063
G01 X20.8773 Y36.9955
G01 X20.8877 Y36.9890
G01 X20.8984 Y36.9829
G01 X20.9093 Y36.9774
G01 X20.9205 Y36.9724
G01 X20.9320 Y36.9680
G01 X20.9436 Y36.9642
G01 X20.9555 Y36.9609
G01 X20.9674 Y36.9582
G01 X20.9795 Y36.9561
G01 X20.9917 Y36.9546
G01 X21.0039 Y36.9537
G01 X21.0162 Y36.9534
G01 X27.6771 Y36.9535
G01 X27.6894 Y36.9541
G01 X27.7077 Y36.9561
G01 X27.7198 Y36.9582
G01 X27.7377 Y36.9625
G01 X27.7552 Y36.9680
G01 X27.7667 Y36.9724
G01 X27.7834 Y36.9801
G01 X27.7942 Y36.9859
G01 X27.8099 Y36.9955
G01 X27.8199 Y37.0026
G01 X27.8343 Y37.0141
G01 X27.8434 Y37.0223
G01 X27.8521 Y37.0310
G01 X27.8643 Y37.0448
G01 X27.8754 Y37.0594
G01 X27.8854 Y37.0749
G01 X27.8915 Y37.0856
G01 X27.8996 Y37.1021
G01 X27.9064 Y37.1192
G01 X27.9119 Y37.1367
G01 X27.9162 Y37.1546
G01 X27.9191 Y37.1728
G01 X27.9207 Y37.1911
G01 X27.9210 Y37.2034
G01 X27.9210 Y48.5826
G00 Z3.0000
G00 X27.6707 Y48.8326
G01 F60.00
G01 Z-0.1000
G01 F60.00
G01 X27.6531 Y48.9423
G01 X27.3492 Y48.9423
G01 X27.3669 Y48.8326
G01 X27.0630 Y48.8326
G01 X27.0454 Y48.9423
G01 X26.7416 Y48.9423
G01 X26.7592 Y48.8326
G01 X26.4554 Y48.8326
G01 X26.4377 Y48.9423
G01 X26.1348 Y48.9423
G01 X26.1400 Y48.9041
G01 X26.1515 Y48.8326
G01 X25.8477 Y48.8326
G01 X25.8433 Y48.8601
G01 X25.8321 Y48.9423
G01 X25.5294 Y48.9423
G01 X25.5443 Y48.8326
G01 X25.2415 Y48.8326
G01 X25.2266 Y48.9423
G01 X24.9239 Y48.9423
G01 X24.9388 Y48.8326
G01 X24.6361 Y48.8326
G01 X24.6212 Y48.9423
G01 X24.3185 Y48.9423
G01 X24.3333 Y48.8326
G01 X24.0306 Y48.8326
G01 X24.0157 Y48.9423
G01 X23.7130 Y48.9423
G01 X23.7279 Y48.8326
G01 X23.4252 Y48.8326
G01 X23.4103 Y48.9423
G01 X23.1075 Y48.9423
G01 X23.1224 Y48.8326
G01 X22.8197 Y48.8326
G01 X22.8048 Y48.9423
G01 X22.5021 Y48.9423
G01 X22.5170 Y48.8326
G01 X22.2142 Y48.8326
G01 X22.1993 Y48.9423
G01 X21.8966 Y48.9423
G01 X21.9115 Y48.8326
G01 X21.6088 Y48.8326
G01 X21.5939 Y48.9423
G01 X21.2911 Y48.9423
G01 X21.3060 Y48.8326
G00 Z3.0000
G00 X21.0033 Y48.8323
G01 F60.00
G01 Z-0.1000
G01 F60.00
G01 X20.9753 Y49.0384
G00 Z3.0000
G00 X20.7662 Y48.3494
G01 F60.00
G01 Z-0.1000
G01 F60.00
G01 X20.6345 Y49.3192
G01 X20.5002 Y50.5304
G01 X20.3956 Y51.7445
G01 X20.3209 Y52.9607
G01 X20.2760 Y54.1785
G01 X20.2661 Y54.9884
G01 X20.2661 Y55.8054
G01 X20.2760 Y56.6154
G01 X20.3209 Y57.8331
G01 X20.3956 Y59.0494
G01 X20.5002 Y60.2635
G01 X20.6345 Y61.4746
G01 X20.7661 Y62.4437
G01 X20.2661 Y63.1501
G01 X20.4009 Y63.9878
G01 X20.6266 Y65.2002
G01 X20.7661 Y65.8590
G01 X20.2661 Y66.3940
G01 X20.2966 Y66.5382
G01 X20.5850 Y67.7525
G01 X20.7661 Y68.4396
G01 X20.2661 Y68.8966
G01 X20.3248 Y69.1193
G01 X20.6765 Y70.3321
G01 X20.7661 Y70.6149
G01 X20.2661 Y71.0232
G01 X20.4881 Y71.7241
G01 X20.7661 Y72.5320
G01 X20.2661 Y72.9229
G01 X20.3388 Y73.1342
G01 X20.7661 Y74.2838
G01 X20.2661 Y74.6536
G01 X20.7145 Y75.7748
G01 X20.7661 Y75.8952
G01 X20.2661 Y76.2515
G01 X20.6809 Y77.2192
G01 X20.7661 Y77.4052
G01 X20.2661 Y77.7543
G01 X20.6889 Y78.6773
G01 X20.7661 Y78.8355
G00 Z3.0000
G00 X24.5196 Y78.7488
G01 F60.00
G01 Z-0.1000
G01 F60.00
G01 X24.4561 Y78.5298
G01 X24.4038 Y78.3313
G01 X24.6579 Y78.1151
G01 X24.6241 Y77.9728
G01 X24.8886 Y77.7883
G01 X24.8859 Y77.7770
G01 X24.8555 Y77.6335
G00 Z3.0000
G00 X25.0184 Y76.8540
G01 F60.00
G01 Z-0.1000
G01 F60.00
G01 X25.0149 Y76.8319
G01 X24.9748 Y76.5365
G01 X24.9419 Y76.2401
G01 X24.9310 Y76.1137
G00 Z3.0000
G00 X24.6266 Y76.0747
G01 F60.00
G01 Z-0.1000
G01 F60.00
G01 X24.6382 Y76.2099
G00 Z3.0000
G00 X25.2833 Y76.5789
G01 F60.00
G01 Z-0.1000
G01 F60.00
G01 X25.2725 Y76.4997
G01 X25.2405 Y76.2107
G01 X25.2155 Y75.9209
G01 X25.1977 Y75.6306
G01 X25.1870 Y75.3400
G01 X25.1834 Y75.0492
G01 X25.1870 Y74.7584
G01 X25.1933 Y74.5872
G00 Z3.0000
G00 X25.4935 Y74.5872
G01 F60.00
G01 Z-0.1000
G01 F60.00
G01 X25.4869 Y74.7657
G01 X25.4834 Y75.0492
G01 X25.4869 Y75.3326
G01 X25.4973 Y75.6159
G01 X25.5147 Y75.8988
G01 X25.5390 Y76.1813
G01 X25.5703 Y76.4630
G01 X25.6086 Y76.7451
G00 Z3.0000
G00 X25.6435 Y76.9622
G01 F60.00
G01 Z-0.1000
G01 F60.00
G01 X25.6534 Y77.0238
G01 X25.7053 Y77.3025
G01 X25.7640 Y77.5798
G01 X25.8295 Y77.8556
G01 X25.8359 Y77.8796
G00 Z3.0000
G00 X26.1434 Y77.8692
G01 F60.00
G01 Z-0.1000
G01 F60.00
G01 X26.1205 Y77.7827
G01 X26.0567 Y77.5141
G01 X25.9996 Y77.2439
G01 X25.9490 Y76.9725
G01 X25.9052 Y76.6999
G01 X25.8680 Y76.4263
G01 X25.8376 Y76.1519
G01 X25.8139 Y75.8768
G01 X25.7969 Y75.6012
G01 X25.7868 Y75.3253
G01 X25.7858 Y75.2425
G00 Z3.0000
G00 X26.0954 Y75.5549
G01 F60.00
G01 Z-0.1000
G01 F60.00
G01 X26.0966 Y75.5865
G01 X26.1131 Y75.8547
G01 X26.1361 Y76.1225
G01 X26.1657 Y76.3896
G01 X26.2019 Y76.6559
G01 X26.2201 Y76.7686
G00 Z3.0000
G00 X26.4970 Y76.5995
G01 F60.00
G01 Z-0.1000
G01 F60.00
G01 X26.4635 Y76.3528
G01 X26.4347 Y76.0931
G01 X26.4123 Y75.8326
G01 X26.3992 Y75.6199
G00 Z3.0000
G00 X26.6952 Y75.5401
G01 F60.00
G01 Z-0.1000
G01 F60.00
G01 X26.6959 Y75.5570
G01 X26.7114 Y75.8106
G01 X26.7332 Y76.0636
G01 X26.7612 Y76.3161
G01 X26.7966 Y76.5754
G00 Z3.0000
G00 X27.1010 Y76.5789
G01 F60.00
G01 Z-0.1000
G01 F60.00
G01 X27.0922 Y76.5238
G01 X27.0590 Y76.2794
G01 X27.0318 Y76.0342
G01 X27.0106 Y75.7885
G01 X26.9955 Y75.5423
G01 X26.9864 Y75.2958
G01 X26.9855 Y75.2215
G00 Z3.0000
G00 X26.3501 Y74.9369
G01 F60.00
G01 Z-0.1000
G01 F60.00
G01 X26.3662 Y74.9394
G01 X26.3809 Y74.9401
G01 X26.3956 Y74.9394
G01 X26.4029 Y74.9385
G01 X26.4065 Y74.9379
G01 X26.4102 Y74.9373
G01 X26.4117 Y74.9369
G01 X26.4117 Y74.6434
G01 X26.3956 Y74.6409
G01 X26.3809 Y74.6401
G01 X26.3662 Y74.6409
G01 X26.3589 Y74.6418
G01 X26.3553 Y74.6424
G01 X26.3516 Y74.6430
G01 X26.3501 Y74.6434
G01 X26.3501 Y74.6207
G01 X26.3505 Y74.6133
G01 X26.3525 Y74.6062
G01 X26.3548 Y74.6018
G01 X26.3593 Y74.5962
G01 X26.3656 Y74.5914
G01 X26.3705 Y74.5891
G01 X26.3746 Y74.5879
G01 X26.3788 Y74.5873
G01 X26.3830 Y74.5873
G01 X26.3889 Y74.5884
G01 X26.3938 Y74.5901
G01 X26.3985 Y74.5928
G01 X26.4033 Y74.5970
G01 X26.4066 Y74.6012
G01 X26.4092 Y74.6061
G01 X26.4109 Y74.6115
G01 X26.4116 Y74.6164
G01 X26.4117 Y74.6207
G01 X26.4117 Y74.9596
G01 X26.4116 Y74.9631
G01 X26.4111 Y74.9683
G01 X26.4099 Y74.9724
G01 X26.4076 Y74.9775
G01 X26.4050 Y74.9814
G01 X26.4025 Y74.9841
G01 X26.3985 Y74.9875
G01 X26.3957 Y74.9892
G01 X26.3912 Y74.9913
G01 X26.3866 Y74.9925
G01 X26.3821 Y74.9930
G01 X26.3780 Y74.9929
G01 X26.3729 Y74.9919
G01 X26.3655 Y74.9889
G01 X26.3618 Y74.9863
G01 X26.3584 Y74.9832
G01 X26.3552 Y74.9791
G01 X26.3529 Y74.9750
G01 X26.3515 Y74.9711
G01 X26.3505 Y74.9670
G01 X26.3501 Y74.9596
G01 X26.3501 Y74.6207
G00 Z3.0000
G00 X27.0045 Y74.4089
G01 F60.00
G01 Z-0.1000
G01 F60.00
G01 X27.0106 Y74.3098
G01 X27.0318 Y74.0641
G01 X27.0590 Y73.8189
G01 X27.0922 Y73.5745
G01 X27.1314 Y73.3310
G01 X27.1765 Y73.0885
G01 X27.2226 Y72.8706
G00 Z3.0000
G00 X27.2979 Y72.5566
G01 F60.00
G01 Z-0.1000
G01 F60.00
G01 X27.3474 Y72.3687
G01 X27.4038 Y72.1742
G00 Z3.0000
G00 X27.7074 Y72.2056
G01 F60.00
G01 Z-0.1000
G01 F60.00
G01 X27.7533 Y72.0610
G00 Z3.0000
G00 X27.6688 Y71.4023
G01 F60.00
G01 Z-0.1000
G01 F60.00
G01 X27.7268 Y71.2573
G01 X28.0148 Y71.3450
G01 X28.0256 Y71.3180
G01 X28.0610 Y71.2353
G00 Z3.0000
G00 X28.3574 Y71.3054
G01 F60.00
G01 Z-0.1000
G01 F60.00
G01 X28.3094 Y71.4173
G00 Z3.0000
G00 X28.6309 Y71.4286
G01 F60.00
G01 Z-0.1000
G01 F60.00
G01 X28.6684 Y71.3412
G01 X28.7064 Y71.2583
G00 Z3.0000
G00 X28.9819 Y71.3770
G01 F60.00
G01 Z-0.1000
G01 F60.00
G01 X29.0277 Y71.2772
G00 Z3.0000
G00 X29.3102 Y71.3815
G01 F60.00
G01 Z-0.1000
G01 F60.00
G01 X29.3043 Y71.3936
G01 X29.2169 Y71.5844
G01 X29.1791 Y71.6724
G01 X29.4798 Y71.7324
G01 X29.4912 Y71.7059
G01 X29.5755 Y71.5218
G01 X29.6643 Y71.3399
G01 X29.6980 Y71.2748
G00 Z3.0000
G00 X29.9889 Y71.3657
G01 F60.00
G01 Z-0.1000
G01 F60.00
G01 X30.0221 Y71.3016
G01 X30.0411 Y71.2671
G01 X30.2641 Y71.4865
G01 X30.2002 Y71.6096
G01 X30.1894 Y71.6319
G01 X30.4413 Y71.7996
G01 X30.3891 Y71.9066
G01 X30.3140 Y72.0706
G01 X30.2429 Y72.2364
G01 X30.1759 Y72.4039
G01 X30.1130 Y72.5730
G01 X30.0544 Y72.7436
G01 X29.9999 Y72.9156
G01 X29.9496 Y73.0888
G01 X29.9037 Y73.2633
G01 X29.8620 Y73.4388
G01 X29.8246 Y73.6153
G01 X29.7916 Y73.7926
G01 X29.7630 Y73.9707
G01 X29.7533 Y74.0415
G00 Z3.0000
G00 X29.4616 Y73.9602
G01 F60.00
G01 Z-0.1000
G01 F60.00
G01 X29.4662 Y73.9267
G01 X29.4960 Y73.7413
G01 X29.5304 Y73.5567
G01 X29.5516 Y73.4564
G00 Z3.0000
G00 X29.2367 Y73.4959
G01 F60.00
G01 Z-0.1000
G01 F60.00
G01 X29.2004 Y73.6900
G01 X29.1694 Y73.8827
G01 X29.1589 Y73.9602
G00 Z3.0000
G00 X28.8449 Y74.0444
G01 F60.00
G01 Z-0.1000
G01 F60.00
G01 X28.8727 Y73.8386
G01 X28.9049 Y73.6387
G01 X28.9419 Y73.4397
G01 X28.9839 Y73.2416
G01 X29.0077 Y73.1411
G00 Z3.0000
G00 X28.8352 Y72.6236
G01 F60.00
G01 Z-0.1000
G01 F60.00
G01 X28.7931 Y72.7688
G01 X28.7396 Y72.9717
G01 X28.6911 Y73.1759
G01 X28.6477 Y73.3811
G01 X28.6093 Y73.5874
G01 X28.5759 Y73.7946
G01 X28.5477 Y74.0026
G01 X28.5339 Y74.1271
G00 Z3.0000
G00 X28.2507 Y73.9602
G01 F60.00
G01 Z-0.1000
G01 F60.00
G01 X28.2792 Y73.7506
G01 X28.3137 Y73.5362
G01 X28.3381 Y73.4052
G00 Z3.0000
G00 X28.0137 Y73.5121
G01 F60.00
G01 Z-0.1000
G01 F60.00
G01 X27.9824 Y73.7066
G01 X27.9522 Y73.9291
G01 X27.9275 Y74.1523
G01 X27.9193 Y74.2469
G01 X27.6347 Y74.0704
G01 X27.6545 Y73.8924
G01 X27.6857 Y73.6626
G01 X27.7119 Y73.4995
G00 Z3.0000
G00 X27.4336 Y73.3465
G01 F60.00
G01 Z-0.1000
G01 F60.00
G01 X27.4269 Y73.3823
G01 X27.3889 Y73.6185
G01 X27.3567 Y73.8557
G01 X27.3447 Y73.9645
G00 Z3.0000
G00 X26.7310 Y74.0611
G01 F60.00
G01 Z-0.1000
G01 F60.00
G01 X26.7332 Y74.0347
G01 X26.7612 Y73.7822
G01 X26.7954 Y73.5305
G01 X26.8358 Y73.2797
G01 X26.8823 Y73.0300
G01 X26.8927 Y72.9808
G00 Z3.0000
G00 X26.4394 Y73.9628
G01 F60.00
G01 Z-0.1000
G01 F60.00
G01 X26.4635 Y73.7455
G01 X26.4939 Y73.5213
G00 Z3.0000
G00 X26.2146 Y73.3639
G01 F60.00
G01 Z-0.1000
G01 F60.00
G01 X26.2019 Y73.4425
G01 X26.1657 Y73.7088
G01 X26.1361 Y73.9759
G01 X26.1333 Y74.0086
G00 Z3.0000
G00 X25.8131 Y74.2343
G01 F60.00
G01 Z-0.1000
G01 F60.00
G01 X25.8139 Y74.2216
G01 X25.8376 Y73.9465
G01 X25.8680 Y73.6720
G01 X25.9052 Y73.3985
G01 X25.9490 Y73.1258
G01 X25.9996 Y72.8544
G01 X26.0146 Y72.7836
G01 X25.6771 Y72.9477
G01 X25.7053 Y72.7959
G01 X25.7640 Y72.5185
G01 X25.8316 Y72.2348
G01 X25.5943 Y71.9581
G01 X25.5385 Y72.1699
G01 X25.4713 Y72.4528
G01 X25.4111 Y72.7373
G01 X25.3819 Y72.8944
G01 X25.1323 Y72.8809
G01 X25.1367 Y72.8859
G01 X25.1405 Y72.8891
G01 X25.1433 Y72.8907
G01 X25.1500 Y72.8933
G01 X25.1572 Y72.8943
G01 X25.5082 Y72.8944
G01 X25.5328 Y72.8959
G01 X25.5572 Y72.8993
G01 X25.5693 Y72.9017
G01 X25.5813 Y72.9046
G01 X25.5990 Y72.9097
G01 X25.6221 Y72.9182
G01 X25.6445 Y72.9286
G01 X25.6553 Y72.9343
G01 X25.6659 Y72.9406
G01 X25.6813 Y72.9507
G01 X25.7010 Y72.9655
G01 X25.7149 Y72.9777
G01 X25.7281 Y72.9906
G01 X25.7405 Y73.0043
G01 X25.7483 Y73.0138
G01 X25.7593 Y73.0287
G01 X25.7661 Y73.0389
G01 X25.7757 Y73.0547
G01 X25.7814 Y73.0655
G01 X25.7893 Y73.0823
G01 X25.7940 Y73.0936
G01 X25.8003 Y73.1110
G01 X25.8038 Y73.1228
G01 X25.8083 Y73.1407
G01 X25.8107 Y73.1528
G01 X25.8134 Y73.1711
G01 X25.8146 Y73.1833
G01 X25.8156 Y73.2018
G01 X25.8156 Y73.2140
G01 X25.8146 Y73.2325
G01 X25.8134 Y73.2447
G01 X25.8107 Y73.2630
G01 X25.8083 Y73.2751
G01 X25.8038 Y73.2930
G01 X25.8003 Y73.3048
G01 X25.7940 Y73.3222
G01 X25.7893 Y73.3335
G01 X25.7814 Y73.3503
G01 X25.7757 Y73.3611
G01 X25.7661 Y73.3769
G01 X25.7593 Y73.3871
G01 X25.7483 Y73.4020
G01 X25.7405 Y73.4115
G01 X25.7281 Y73.4252
G01 X25.7194 Y73.4339
G01 X25.7057 Y73.4463
G01 X25.6962 Y73.4541
G01 X25.6863 Y73.4615
G01 X25.6763 Y73.4686
G01 X25.6659 Y73.4752
G01 X25.6499 Y73.4844
G01 X25.6389 Y73.4899
G01 X25.6277 Y73.4951
G01 X25.6164 Y73.4998
G01 X25.5990 Y73.5061
G01 X25.5872 Y73.5096
G01 X25.5633 Y73.5154
G01 X25.5450 Y73.5184
G01 X25.5328 Y73.5199
G01 X25.5144 Y73.5211
G01 X25.5021 Y73.5214
G01 X25.1578 Y73.5214
G01 X25.1343 Y73.5210
G01 X25.1136 Y73.5199
G01 X25.0906 Y73.5180
G01 X25.0705 Y73.5156
G01 X25.0498 Y73.5125
G01 X25.0275 Y73.5084
G01 X25.0097 Y73.5045
G01 X24.9767 Y73.4960
G01 X24.9607 Y73.4912
G01 X24.9384 Y73.4837
G01 X24.9213 Y73.4774
G01 X24.8997 Y73.4687
G01 X24.8801 Y73.4599
G01 X24.8623 Y73.4513
G01 X24.8422 Y73.4407
G01 X24.8270 Y73.4322
G01 X24.8055 Y73.4191
G01 X24.7909 Y73.4096
G01 X24.7664 Y73.3923
G01 X24.7491 Y73.3791
G01 X24.7337 Y73.3664
G01 X24.7177 Y73.3525
G01 X24.7051 Y73.3409
G01 X24.6806 Y73.3164
G01 X24.6687 Y73.3035
G01 X24.6525 Y73.2847
G01 X24.6409 Y73.2705
G01 X24.6281 Y73.2537
G01 X24.6164 Y73.2373
G01 X24.6055 Y73.2209
G01 X24.5922 Y73.1995
G01 X24.5835 Y73.1844
G01 X24.5679 Y73.1548
G01 X24.5607 Y73.1397
G01 X24.5517 Y73.1194
G01 X24.5437 Y73.0994
G01 X24.5366 Y73.0802
G01 X24.5287 Y73.0557
G01 X24.5215 Y73.0306
G01 X24.5144 Y73.0005
G01 X24.5100 Y72.9782
G01 X24.5060 Y72.9525
G01 X24.5034 Y72.9308
G01 X24.5014 Y72.9062
G01 X24.5002 Y72.8806
G01 X24.5000 Y71.9995
G01 X24.5006 Y71.9750
G01 X24.5026 Y71.9438
G01 X24.5058 Y71.9155
G01 X24.5093 Y71.8926
G01 X24.5130 Y71.8725
G01 X24.5169 Y71.8547
G01 X24.5254 Y71.8217
G01 X24.5366 Y71.7862
G01 X24.5499 Y71.7515
G01 X24.5629 Y71.7220
G01 X24.5712 Y71.7051
G01 X24.5807 Y71.6872
G01 X24.5942 Y71.6636
G01 X24.6033 Y71.6488
G01 X24.6148 Y71.6314
G01 X24.6281 Y71.6127
G01 X24.6381 Y71.5995
G01 X24.6561 Y71.5773
G01 X24.6687 Y71.5629
G01 X24.6806 Y71.5500
G01 X24.7051 Y71.5255
G01 X24.7177 Y71.5139
G01 X24.7337 Y71.5000
G01 X24.7491 Y71.4873
G01 X24.7637 Y71.4761
G01 X24.7864 Y71.4598
G01 X24.8038 Y71.4483
G01 X24.8186 Y71.4392
G01 X24.8456 Y71.4238
G01 X24.8623 Y71.4151
G01 X24.8801 Y71.4065
G01 X24.9065 Y71.3949
G01 X24.9234 Y71.3882
G01 X24.9417 Y71.3816
G01 X24.9767 Y71.3704
G01 X25.0050 Y71.3630
G01 X25.0319 Y71.3571
G01 X25.0498 Y71.3539
G01 X25.0689 Y71.3510
G01 X25.0906 Y71.3484
G01 X25.1103 Y71.3467
G01 X25.1343 Y71.3454
G01 X25.1523 Y71.3450
G01 X25.5021 Y71.3450
G01 X25.5144 Y71.3453
G01 X25.5328 Y71.3465
G01 X25.5512 Y71.3489
G01 X25.5633 Y71.3510
G01 X25.5813 Y71.3552
G01 X25.5931 Y71.3585
G01 X25.6106 Y71.3644
G01 X25.6277 Y71.3713
G01 X25.6445 Y71.3792
G01 X25.6553 Y71.3849
G01 X25.6711 Y71.3945
G01 X25.6863 Y71.4049
G01 X25.7010 Y71.4161
G01 X25.7103 Y71.4242
G01 X25.7238 Y71.4368
G01 X25.7360 Y71.4499
G01 X25.7466 Y71.4385
G01 X25.7646 Y71.4216
G01 X25.7789 Y71.4100
G01 X25.7938 Y71.3992
G01 X25.8147 Y71.3861
G01 X25.8311 Y71.3775
G01 X25.8478 Y71.3698
G01 X25.8708 Y71.3611
G01 X25.8886 Y71.3558
G01 X25.9065 Y71.3515
G01 X25.9308 Y71.3474
G01 X25.9492 Y71.3457
G01 X25.9676 Y71.3450
G01 X25.9922 Y71.3458
G01 X26.0106 Y71.3477
G01 X26.0288 Y71.3505
G01 X26.0528 Y71.3561
G01 X26.0705 Y71.3616
G01 X26.0820 Y71.3657
G01 X26.0934 Y71.3703
G01 X26.1102 Y71.3781
G01 X26.1265 Y71.3869
G01 X26.1370 Y71.3932
G01 X26.1472 Y71.3999
G01 X26.1622 Y71.4108
G01 X26.1811 Y71.4267
G01 X26.1900 Y71.4351
G01 X26.2028 Y71.4485
G01 X26.2108 Y71.4578
G01 X26.2185 Y71.4674
G01 X26.2293 Y71.4823
G01 X26.2424 Y71.5032
G01 X26.2537 Y71.5251
G01 X26.2610 Y71.5420
G01 X26.2674 Y71.5593
G01 X26.3251 Y71.7324
G01 X26.6478 Y71.7324
G01 X26.7055 Y71.5594
G01 X26.7142 Y71.5363
G01 X26.7192 Y71.5251
G01 X26.7247 Y71.5140
G01 X26.7305 Y71.5032
G01 X26.7368 Y71.4927
G01 X26.7436 Y71.4823
G01 X26.7506 Y71.4723
G01 X26.7660 Y71.4531
G01 X26.7743 Y71.4440
G01 X26.7873 Y71.4309
G01 X26.7964 Y71.4226
G01 X26.8107 Y71.4108
G01 X26.8205 Y71.4035
G01 X26.8359 Y71.3932
G01 X26.8518 Y71.3838
G01 X26.8627 Y71.3781
G01 X26.8738 Y71.3729
G01 X26.8908 Y71.3657
G01 X26.9083 Y71.3596
G01 X26.9201 Y71.3561
G01 X26.9381 Y71.3518
G01 X26.9501 Y71.3494
G01 X26.9684 Y71.3469
G01 X26.9868 Y71.3454
G01 X27.0114 Y71.3451
G01 X27.0299 Y71.3462
G01 X27.0421 Y71.3474
G01 X27.0542 Y71.3493
G01 X27.0724 Y71.3528
G01 X27.0903 Y71.3575
G01 X27.1020 Y71.3611
G01 X27.1136 Y71.3652
G01 X27.1307 Y71.3722
G01 X27.1418 Y71.3775
G01 X27.1582 Y71.3861
G01 X27.1739 Y71.3958
G01 X27.1841 Y71.4026
G01 X27.2036 Y71.4177
G01 X27.2129 Y71.4257
G01 X27.2263 Y71.4385
G01 X27.2347 Y71.4474
G01 X27.2468 Y71.4615
G01 X27.2543 Y71.4712
G01 X27.2649 Y71.4863
G01 X27.2714 Y71.4967
G01 X27.2776 Y71.5074
G01 X27.2833 Y71.5183
G01 X27.2911 Y71.5351
G01 X27.2957 Y71.5464
G01 X27.2998 Y71.5580
G01 X27.3036 Y71.5698
G01 X27.3068 Y71.5816
G01 X27.3108 Y71.5997
G01 X27.3130 Y71.6125
G01 X27.3464 Y71.5836
G01 X27.3641 Y71.5693
G01 X27.3838 Y71.5541
G01 X27.4036 Y71.5396
G01 X27.4243 Y71.5251
G01 X27.4447 Y71.5116
G01 X27.4657 Y71.4984
G01 X27.4872 Y71.4856
G01 X27.5087 Y71.4734
G01 X27.5296 Y71.4622
G01 X27.5520 Y71.4510
G01 X27.5751 Y71.4399
G01 X27.5975 Y71.4300
G01 X27.6425 Y71.4118
G01 X27.6671 Y71.4029
G01 X27.6907 Y71.3950
G01 X27.7343 Y71.3820
G01 X27.7671 Y71.3736
G01 X27.7882 Y71.3688
G01 X27.8153 Y71.3633
G01 X27.8368 Y71.3594
G01 X27.8613 Y71.3556
G01 X27.8857 Y71.3524
G01 X27.9094 Y71.3498
G01 X27.9586 Y71.3462
G01 X27.9843 Y71.3453
G01 X28.0060 Y71.3450
G01 X28.0309 Y71.3453
G01 X28.0489 Y71.3462
G01 X28.0823 Y71.3490
G01 X28.1198 Y71.3543
G01 X28.1399 Y71.3580
G01 X28.1608 Y71.3626
G01 X28.1823 Y71.3680
G01 X28.2017 Y71.3737
G01 X28.2241 Y71.3810
G01 X28.2398 Y71.3866
G01 X28.2677 Y71.3977
G01 X28.2873 Y71.4065
G01 X28.3051 Y71.4151
G01 X28.3252 Y71.4257
G01 X28.3437 Y71.4362
G01 X28.3619 Y71.4473
G01 X28.3765 Y71.4568
G01 X28.4037 Y71.4761
G01 X28.4183 Y71.4873
G01 X28.4331 Y71.4994
G01 X28.4554 Y71.5190
G01 X28.4680 Y71.5309
G01 X28.4855 Y71.5486
G01 X28.4989 Y71.5630
G01 X28.5120 Y71.5781
G01 X28.5251 Y71.5941
G01 X28.5348 Y71.6067
G01 X28.5373 Y71.5937
G01 X28.5416 Y71.5757
G01 X28.5471 Y71.5580
G01 X28.5534 Y71.5407
G01 X28.5609 Y71.5238
G01 X28.5664 Y71.5128
G01 X28.5755 Y71.4967
G01 X28.5854 Y71.4813
G01 X28.5963 Y71.4663
G01 X28.6041 Y71.4568
G01 X28.6163 Y71.4429
G01 X28.6295 Y71.4299
G01 X28.6433 Y71.4177
G01 X28.6578 Y71.4063
G01 X28.6678 Y71.3992
G01 X28.6834 Y71.3892
G01 X28.6995 Y71.3803
G01 X28.7162 Y71.3722
G01 X28.7275 Y71.3675
G01 X28.7448 Y71.3611
G01 X28.7566 Y71.3575
G01 X28.7745 Y71.3528
G01 X28.7926 Y71.3493
G01 X28.8048 Y71.3474
G01 X28.8170 Y71.3462
G01 X28.8355 Y71.3451
G01 X28.8540 Y71.3452
G01 X28.8723 Y71.3463
G01 X28.8907 Y71.3485
G01 X28.9028 Y71.3505
G01 X28.9209 Y71.3546
G01 X28.9386 Y71.3596
G01 X28.9503 Y71.3636
G01 X28.9618 Y71.3679
G01 X28.9842 Y71.3781
G01 X28.9950 Y71.3838
G01 X29.0110 Y71.3932
G01 X29.0313 Y71.4071
G01 X29.0410 Y71.4146
G01 X29.0505 Y71.4226
G01 X29.0596 Y71.4308
G01 X29.0683 Y71.4395
G01 X29.0768 Y71.4485
G01 X29.0848 Y71.4578
G01 X29.0999 Y71.4773
G01 X29.1100 Y71.4927
G01 X29.1194 Y71.5086
G01 X29.1277 Y71.5251
G01 X29.1350 Y71.5420
G01 X29.1414 Y71.5593
G01 X29.1991 Y71.7324
G01 X29.5219 Y71.7324
G01 X29.5796 Y71.5593
G01 X29.5883 Y71.5363
G01 X29.5933 Y71.5251
G01 X29.5988 Y71.5140
G01 X29.6077 Y71.4979
G01 X29.6211 Y71.4773
G01 X29.6323 Y71.4625
G01 X29.6401 Y71.4531
G01 X29.6527 Y71.4395
G01 X29.6614 Y71.4308
G01 X29.6705 Y71.4226
G01 X29.6848 Y71.4108
G01 X29.6946 Y71.4035
G01 X29.7100 Y71.3932
G01 X29.7205 Y71.3869
G01 X29.7313 Y71.3809
G01 X29.7423 Y71.3754
G01 X29.7592 Y71.3679
G01 X29.7707 Y71.3636
G01 X29.7883 Y71.3578
G01 X29.8001 Y71.3546
G01 X29.8182 Y71.3505
G01 X29.8303 Y71.3485
G01 X29.8548 Y71.3458
G01 X29.8670 Y71.3452
G01 X29.8855 Y71.3451
G01 X29.9040 Y71.3462
G01 X29.9162 Y71.3474
G01 X29.9284 Y71.3493
G01 X29.9465 Y71.3528
G01 X29.9584 Y71.3558
G01 X29.9762 Y71.3611
G01 X29.9935 Y71.3675
G01 X30.0048 Y71.3722
G01 X30.0159 Y71.3775
G01 X30.0323 Y71.3861
G01 X30.0532 Y71.3992
G01 X30.0632 Y71.4063
G01 X30.0777 Y71.4177
G01 X30.0870 Y71.4257
G01 X30.0960 Y71.4342
G01 X30.1047 Y71.4429
G01 X30.1169 Y71.4568
G01 X30.1247 Y71.4663
G01 X30.1320 Y71.4761
G01 X30.1390 Y71.4863
G01 X30.1455 Y71.4967
G01 X30.1546 Y71.5128
G01 X30.1601 Y71.5238
G01 X30.1676 Y71.5407
G01 X30.1719 Y71.5522
G01 X30.1777 Y71.5698
G01 X30.1809 Y71.5816
G01 X30.1861 Y71.6057
G01 X30.1886 Y71.6241
G01 X30.1901 Y71.6424
G01 X30.1904 Y71.6670
G01 X30.1888 Y71.6916
G01 X30.1862 Y71.7099
G01 X30.1827 Y71.7280
G01 X30.1763 Y71.7518
G01 X29.6579 Y73.3071
G01 X29.6491 Y73.3305
G01 X29.6439 Y73.3419
G01 X29.6383 Y73.3531
G01 X29.6292 Y73.3695
G01 X29.6154 Y73.3905
G01 X29.6039 Y73.4054
G01 X29.5917 Y73.4196
G01 X29.5741 Y73.4374
G01 X29.5599 Y73.4498
G01 X29.5451 Y73.4613
G01 X29.5243 Y73.4753
G01 X29.5079 Y73.4846
G01 X29.4911 Y73.4929
G01 X29.4679 Y73.5025
G01 X29.4440 Y73.5101
G01 X29.4258 Y73.5145
G01 X29.4073 Y73.5179
G01 X29.3824 Y73.5207
G01 X29.3699 Y73.5213
G01 X29.3573 Y73.5214
G01 X29.3386 Y73.5207
G01 X29.3137 Y73.5179
G01 X29.2891 Y73.5132
G01 X29.2770 Y73.5101
G01 X29.2649 Y73.5064
G01 X29.2472 Y73.5002
G01 X29.2242 Y73.4903
G01 X29.2021 Y73.4785
G01 X29.1863 Y73.4685
G01 X29.1759 Y73.4613
G01 X29.1660 Y73.4538
G01 X29.1469 Y73.4374
G01 X29.1293 Y73.4196
G01 X29.1171 Y73.4054
G01 X29.1093 Y73.3955
G01 X29.1020 Y73.3853
G01 X29.0887 Y73.3641
G01 X29.0798 Y73.3475
G01 X29.0719 Y73.3305
G01 X29.0631 Y73.3071
G01 X28.6604 Y72.0991
G01 X28.6553 Y72.1289
G01 X28.6500 Y72.1537
G01 X28.6434 Y72.1795
G01 X28.6363 Y72.2033
G01 X28.6283 Y72.2272
G01 X28.6153 Y72.2605
G01 X28.6054 Y72.2830
G01 X28.5934 Y72.3074
G01 X28.5774 Y72.3364
G01 X28.5644 Y72.3577
G01 X28.5497 Y72.3799
G01 X28.5346 Y72.4009
G01 X28.5142 Y72.4268
G01 X28.4992 Y72.4443
G01 X28.4809 Y72.4639
G01 X28.4604 Y72.4842
G01 X28.4476 Y72.4960
G01 X28.4325 Y72.5092
G01 X28.4107 Y72.5269
G01 X28.3949 Y72.5388
G01 X28.3809 Y72.5486
G01 X28.3550 Y72.5657
G01 X28.3318 Y72.5794
G01 X27.8658 Y72.8335
G01 X27.8608 Y72.8375
G01 X27.8560 Y72.8433
G01 X27.8530 Y72.8486
G01 X27.8503 Y72.8568
G01 X27.8497 Y72.8636
G01 X27.8502 Y72.8691
G01 X27.8521 Y72.8755
G01 X27.8542 Y72.8796
G01 X27.8580 Y72.8847
G01 X27.8628 Y72.8888
G01 X27.8675 Y72.8915
G01 X27.8726 Y72.8933
G01 X27.8778 Y72.8942
G01 X27.8885 Y72.8942
G01 X27.9138 Y72.8926
G01 X27.9288 Y72.8908
G01 X27.9534 Y72.8862
G01 X27.9694 Y72.8822
G01 X27.9857 Y72.8772
G01 X28.0005 Y72.8718
G01 X28.0231 Y72.8621
G01 X28.0383 Y72.8544
G01 X28.0595 Y72.8419
G01 X28.0736 Y72.8324
G01 X28.0882 Y72.8219
G01 X28.1089 Y72.8085
G01 X28.1306 Y72.7969
G01 X28.1417 Y72.7917
G01 X28.1532 Y72.7870
G01 X28.1647 Y72.7827
G01 X28.1763 Y72.7790
G01 X28.1942 Y72.7740
G01 X28.2062 Y72.7714
G01 X28.2183 Y72.7692
G01 X28.2305 Y72.7675
G01 X28.2489 Y72.7659
G01 X28.2612 Y72.7654
G01 X28.2858 Y72.7658
G01 X28.3042 Y72.7675
G01 X28.3164 Y72.7691
G01 X28.3346 Y72.7725
G01 X28.3465 Y72.7753
G01 X28.3583 Y72.7787
G01 X28.3759 Y72.7845
G01 X28.3931 Y72.7914
G01 X28.4042 Y72.7965
G01 X28.4151 Y72.8021
G01 X28.4312 Y72.8112
G01 X28.4467 Y72.8214
G01 X28.4567 Y72.8286
G01 X28.4663 Y72.8362
G01 X28.4803 Y72.8483
G01 X28.4935 Y72.8613
G01 X28.5059 Y72.8748
G01 X28.5212 Y72.8942
G01 X28.5316 Y72.9095
G01 X28.5411 Y72.9252
G01 X28.5497 Y72.9416
G01 X28.5572 Y72.9584
G01 X28.5639 Y72.9757
G01 X28.5694 Y72.9933
G01 X28.5739 Y73.0112
G01 X28.5783 Y73.0354
G01 X28.5803 Y73.0538
G01 X28.5812 Y73.0722
G01 X28.5811 Y73.0907
G01 X28.5798 Y73.1090
G01 X28.5775 Y73.1274
G01 X28.5741 Y73.1456
G01 X28.5697 Y73.1635
G01 X28.5641 Y73.1811
G01 X28.5576 Y73.1983
G01 X28.5501 Y73.2152
G01 X28.5385 Y73.2370
G01 X28.5287 Y73.2526
G01 X28.5180 Y73.2677
G01 X28.5064 Y73.2821
G01 X28.4983 Y73.2913
G01 X28.4853 Y73.3045
G01 X28.4718 Y73.3169
G01 X28.4574 Y73.3285
G01 X28.4369 Y73.3435
G01 X28.3981 Y73.3697
G01 X28.3607 Y73.3925
G01 X28.3366 Y73.4060
G01 X28.2980 Y73.4257
G01 X28.2724 Y73.4377
G01 X28.2324 Y73.4545
G01 X28.2061 Y73.4644
G01 X28.1785 Y73.4740
G01 X28.1347 Y73.4871
G01 X28.1110 Y73.4933
G01 X28.0683 Y73.5029
G01 X28.0268 Y73.5102
G01 X27.9934 Y73.5148
G01 X27.9510 Y73.5188
G01 X27.9082 Y73.5210
G01 X27.8749 Y73.5214
G01 X27.8569 Y73.5210
G01 X27.8362 Y73.5199
G01 X27.8077 Y73.5174
G01 X27.7702 Y73.5121
G01 X27.7435 Y73.5070
G01 X27.7077 Y73.4984
G01 X27.6801 Y73.4901
G01 X27.6460 Y73.4782
G01 X27.6179 Y73.4668
G01 X27.5892 Y73.4535
G01 X27.5596 Y73.4379
G01 X27.5445 Y73.4292
G01 X27.5281 Y73.4191
G01 X27.5067 Y73.4050
G01 X27.4771 Y73.3833
G01 X27.4557 Y73.3660
G01 X27.4346 Y73.3474
G01 X27.4085 Y73.3220
G01 X27.3875 Y73.2993
G01 X27.3678 Y73.2758
G01 X27.3537 Y73.2577
G01 X27.3390 Y73.2373
G01 X27.3281 Y73.2209
G01 X27.3148 Y73.1995
G01 X27.3033 Y73.1792
G01 X27.2927 Y73.1591
G01 X27.2819 Y73.1366
G01 X27.2743 Y73.1194
G01 X27.2642 Y73.0938
G01 X27.2539 Y73.0639
G01 X27.2464 Y73.0391
G01 X27.2406 Y73.0164
G01 X27.2356 Y72.9939
G01 X27.2315 Y72.9716
G01 X27.2280 Y72.9477
G01 X27.2252 Y72.9226
G01 X27.2232 Y72.8914
G01 X27.2226 Y72.8647
G01 X27.2228 Y72.8465
G01 X27.2240 Y72.8199
G01 X27.2258 Y72.7985
G01 X27.2286 Y72.7741
G01 X27.2320 Y72.7523
G01 X27.2363 Y72.7294
G01 X27.2418 Y72.7051
G01 X27.2479 Y72.6824
G01 X27.2573 Y72.6520
G01 X27.2658 Y72.6282
G01 X27.2747 Y72.6059
G01 X27.2836 Y72.5856
G01 X27.2937 Y72.5648
G01 X27.3040 Y72.5453
G01 X27.3152 Y72.5254
G01 X27.3352 Y72.4939
G01 X27.3536 Y72.4679
G01 X27.3660 Y72.4517
G01 X27.3787 Y72.4361
G01 X27.3939 Y72.4188
G01 X27.4065 Y72.4052
G01 X27.4296 Y72.3822
G01 X27.4424 Y72.3704
G01 X27.4592 Y72.3557
G01 X27.4748 Y72.3430
G01 X27.4886 Y72.3324
G01 X27.5091 Y72.3178
G01 X27.5250 Y72.3071
G01 X27.5450 Y72.2946
G01 X27.5582 Y72.2870
G01 X28.0242 Y72.0329
G01 X28.0273 Y72.0306
G01 X28.0310 Y72.0271
G01 X28.0340 Y72.0231
G01 X28.0367 Y72.0187
G01 X28.0386 Y72.0139
G01 X28.0398 Y72.0089
G01 X28.0403 Y72.0038
G01 X28.0401 Y71.9991
G01 X28.0393 Y71.9950
G01 X28.0370 Y71.9888
G01 X28.0348 Y71.9852
G01 X28.0307 Y71.9804
G01 X28.0269 Y71.9773
G01 X28.0215 Y71.9745
G01 X28.0154 Y71.9726
G01 X28.0102 Y71.9721
G01 X27.9901 Y71.9725
G01 X27.9699 Y71.9739
G01 X27.9406 Y71.9779
G01 X27.9209 Y71.9817
G01 X27.9024 Y71.9862
G01 X27.8732 Y71.9952
G01 X27.8452 Y72.0061
G01 X27.8188 Y72.0186
G01 X27.7934 Y72.0330
G01 X27.7764 Y72.0440
G01 X27.7601 Y72.0557
G01 X27.7454 Y72.0674
G01 X27.7298 Y72.0810
G01 X27.7040 Y72.1056
G01 X27.6948 Y72.1138
G01 X27.6852 Y72.1215
G01 X27.6652 Y72.1358
G01 X27.6547 Y72.1423
G01 X27.6386 Y72.1514
G01 X27.6220 Y72.1595
G01 X27.6050 Y72.1666
G01 X27.5875 Y72.1727
G01 X27.5698 Y72.1776
G01 X27.5518 Y72.1817
G01 X27.5335 Y72.1846
G01 X27.5152 Y72.1864
G01 X27.4967 Y72.1872
G01 X27.4783 Y72.1868
G01 X27.4659 Y72.1860
G01 X27.4537 Y72.1847
G01 X27.4294 Y72.1807
G01 X27.4114 Y72.1764
G01 X27.3938 Y72.1711
G01 X27.3708 Y72.1624
G01 X27.3485 Y72.1519
G01 X27.3324 Y72.1429
G01 X27.3168 Y72.1330
G01 X27.2970 Y72.1183
G01 X27.2830 Y72.1063
G01 X27.2740 Y72.0979
G01 X27.2654 Y72.0892
G01 X27.2491 Y72.0706
G01 X27.2344 Y72.0509
G01 X27.2245 Y72.0353
G01 X27.2140 Y72.0166
G01 X26.7839 Y73.3070
G01 X26.7755 Y73.3295
G01 X26.7666 Y73.3487
G01 X26.7561 Y73.3679
G01 X26.7427 Y73.3886
G01 X26.7299 Y73.4054
G01 X26.7137 Y73.4240
G01 X26.6960 Y73.4411
G01 X26.6793 Y73.4552
G01 X26.6621 Y73.4676
G01 X26.6465 Y73.4775
G01 X26.6273 Y73.4880
G01 X26.6081 Y73.4969
G01 X26.5850 Y73.5056
G01 X26.5640 Y73.5117
G01 X26.5399 Y73.5168
G01 X26.5190 Y73.5197
G01 X26.4944 Y73.5213
G01 X26.4725 Y73.5211
G01 X26.4541 Y73.5197
G01 X26.4331 Y73.5168
G01 X26.4090 Y73.5117
G01 X26.3880 Y73.5056
G01 X26.3681 Y73.4982
G01 X26.3457 Y73.4880
G01 X26.3265 Y73.4775
G01 X26.3109 Y73.4676
G01 X26.2937 Y73.4552
G01 X26.2770 Y73.4411
G01 X26.2636 Y73.4284
G01 X26.2492 Y73.4128
G01 X26.2339 Y73.3936
G01 X26.2215 Y73.3755
G01 X26.2108 Y73.3572
G01 X26.2025 Y73.3407
G01 X26.1939 Y73.3206
G01 X26.1891 Y73.3071
G01 X25.8016 Y72.1448
G01 X25.8011 Y72.1434
G01 X25.7159 Y71.8877
G01 X25.7010 Y71.9009
G01 X25.6813 Y71.9157
G01 X25.6711 Y71.9225
G01 X25.6606 Y71.9290
G01 X25.6445 Y71.9378
G01 X25.6221 Y71.9482
G01 X25.5990 Y71.9567
G01 X25.5872 Y71.9602
G01 X25.5752 Y71.9633
G01 X25.5572 Y71.9671
G01 X25.5328 Y71.9705
G01 X25.5082 Y71.9720
G01 X25.5021 Y71.9720
G01 X25.1605 Y71.9720
G01 X25.1572 Y71.9721
G01 X25.1500 Y71.9731
G01 X25.1459 Y71.9745
G01 X25.1418 Y71.9766
G01 X25.1360 Y71.9811
G01 X25.1316 Y71.9868
G01 X25.1295 Y71.9909
G01 X25.1280 Y71.9952
G01 X25.1272 Y71.9997
G01 X25.1270 Y72.0055
G01 X25.1270 Y72.8609
G01 X25.1272 Y72.8667
G01 X25.1281 Y72.8715
G01 X25.1299 Y72.8765
G01 X25.1323 Y72.8809
G01 X25.1270 Y72.6308
G01 X25.1786 Y72.3871
G01 X25.2475 Y72.0970
G01 X25.2804 Y71.9720
G00 Z3.0000
G00 X25.1480 Y71.3451
G01 F60.00
G01 Z-0.1000
G01 F60.00
G01 X25.1828 Y71.2353
G01 X25.4627 Y71.3450
G01 X25.4975 Y71.2353
G00 Z3.0000
G00 X25.8076 Y71.2560
G01 F60.00
G01 Z-0.1000
G01 F60.00
G01 X25.7815 Y71.3320
G01 X25.7483 Y71.4369
G00 Z3.0000
G00 X26.0865 Y71.3675
G01 F60.00
G01 Z-0.1000
G01 F60.00
G01 X26.1229 Y71.2618
G00 Z3.0000
G00 X26.4006 Y71.3767
G01 F60.00
G01 Z-0.1000
G01 F60.00
G01 X26.3512 Y71.5202
G01 X26.3040 Y71.6691
G01 X26.5987 Y71.7324
G01 X26.6361 Y71.6144
G01 X26.7235 Y71.3602
G01 X26.7395 Y71.3170
G00 Z3.0000
G00 X27.0480 Y71.3482
G01 F60.00
G01 Z-0.1000
G01 F60.00
G01 X27.0879 Y71.2408
G00 Z3.0000
G00 X27.3756 Y71.3278
G01 F60.00
G01 Z-0.1000
G01 F60.00
G01 X27.2950 Y71.5446
G00 Z3.0000
G00 X28.2043 Y72.6489
G01 F60.00
G01 Z-0.1000
G01 F60.00
G01 X28.1694 Y72.7811
G00 Z3.0000
G00 X28.4653 Y72.8354
G01 F60.00
G01 Z-0.1000
G01 F60.00
G01 X28.5040 Y72.6888
G01 X28.5645 Y72.4801
G01 X28.6301 Y72.2731
G01 X28.6749 Y72.1427
G00 Z3.0000
G00 X30.7100 Y71.9330
G01 F60.00
G01 Z-0.1000
G01 F60.00
G01 X30.6603 Y72.0349
G01 X30.5882 Y72.1922
G01 X30.5200 Y72.3513
G01 X30.4558 Y72.5119
G01 X30.3955 Y72.6741
G01 X30.3392 Y72.8377
G01 X30.2870 Y73.0027
G01 X30.2388 Y73.1688
G01 X30.1947 Y73.3362
G01 X30.1547 Y73.5045
G01 X30.1189 Y73.6738
G01 X30.0872 Y73.8439
G01 X30.0597 Y74.0147
G01 X30.0364 Y74.1862
G01 X30.0173 Y74.3581
G01 X30.0025 Y74.5305
G01 X29.9919 Y74.7032
G01 X29.9855 Y74.8762
G01 X29.9834 Y75.0492
G01 X29.9855 Y75.2222
G01 X29.9919 Y75.3951
G01 X30.0025 Y75.5678
G01 X30.0173 Y75.7402
G01 X30.0364 Y75.9122
G01 X30.0597 Y76.0836
G01 X30.0872 Y76.2545
G01 X30.1189 Y76.4246
G01 X30.1508 Y76.5754
G00 Z3.0000
G00 X30.9816 Y72.0605
G01 F60.00
G01 Z-0.1000
G01 F60.00
G01 X31.0041 Y72.0143
G01 X31.0842 Y71.8603
G01 X31.3787 Y71.9475
G01 X31.4213 Y71.8700
G01 X31.4400 Y71.8379
G01 X31.7234 Y71.9475
G01 X31.7584 Y71.8874
G01 X31.7889 Y71.8379
G01 X32.0737 Y71.9475
G01 X32.0910 Y71.9194
G01 X32.1440 Y71.8379
G01 X32.2555 Y71.9475
G01 X31.2165 Y71.9475
G01 X31.1919 Y71.9490
G01 X31.1735 Y71.9514
G01 X31.1614 Y71.9535
G01 X31.1495 Y71.9562
G01 X31.1316 Y71.9610
G01 X31.1083 Y71.9691
G01 X31.0970 Y71.9738
G01 X31.0802 Y71.9817
G01 X31.0694 Y71.9874
G01 X31.0588 Y71.9937
G01 X31.0484 Y72.0003
G01 X31.0384 Y72.0074
G01 X31.0237 Y72.0186
G01 X31.0144 Y72.0267
G01 X31.0053 Y72.0350
G01 X30.9966 Y72.0437
G01 X30.9842 Y72.0574
G01 X30.9764 Y72.0669
G01 X30.9619 Y72.0868
G01 X30.9553 Y72.0972
G01 X30.9461 Y72.1132
G01 X30.9379 Y72.1298
G01 X30.9329 Y72.1410
G01 X30.9244 Y72.1641
G01 X30.9209 Y72.1759
G01 X30.9164 Y72.1938
G01 X30.9140 Y72.2059
G01 X30.9121 Y72.2181
G01 X30.9106 Y72.2303
G01 X30.9097 Y72.2425
G01 X30.9091 Y72.2549
G01 X30.9091 Y72.2671
G01 X30.9106 Y72.2917
G01 X30.9130 Y72.3101
G01 X30.9151 Y72.3222
G01 X30.9209 Y72.3461
G01 X30.9244 Y72.3579
G01 X30.9285 Y72.3695
G01 X30.9354 Y72.3866
G01 X30.9461 Y72.4088
G01 X30.9586 Y72.4300
G01 X30.9690 Y72.4452
G01 X30.9764 Y72.4551
G01 X30.9842 Y72.4646
G01 X31.0009 Y72.4827
G01 X31.0190 Y72.4994
G01 X31.0334 Y72.5109
G01 X31.0434 Y72.5182
G01 X31.0536 Y72.5250
G01 X31.0748 Y72.5375
G01 X31.0970 Y72.5482
G01 X31.1083 Y72.5529
G01 X31.1199 Y72.5572
G01 X31.1316 Y72.5610
G01 X31.1434 Y72.5643
G01 X31.1554 Y72.5672
G01 X31.1675 Y72.5696
G01 X31.1919 Y72.5730
G01 X31.2103 Y72.5742
G01 X31.2226 Y72.5745
G01 X32.2555 Y72.5745
G01 X32.2678 Y72.5742
G01 X32.2862 Y72.5730
G01 X32.2984 Y72.5715
G01 X32.3167 Y72.5685
G01 X32.3286 Y72.5658
G01 X32.3465 Y72.5610
G01 X32.3640 Y72.5551
G01 X32.3755 Y72.5507
G01 X32.3867 Y72.5457
G01 X32.4033 Y72.5375
G01 X32.4140 Y72.5315
G01 X32.4297 Y72.5217
G01 X32.4447 Y72.5109
G01 X32.4544 Y72.5034
G01 X32.4637 Y72.4953
G01 X32.4772 Y72.4827
G01 X32.4939 Y72.4646
G01 X32.5017 Y72.4551
G01 X32.5127 Y72.4402
G01 X32.5195 Y72.4300
G01 X32.5291 Y72.4142
G01 X32.5348 Y72.4034
G01 X32.5427 Y72.3866
G01 X32.5474 Y72.3753
G01 X32.5537 Y72.3579
G01 X32.5572 Y72.3461
G01 X32.5617 Y72.3282
G01 X32.5641 Y72.3161
G01 X32.5668 Y72.2978
G01 X32.5680 Y72.2856
G01 X32.5690 Y72.2671
G01 X32.5690 Y72.2549
G01 X32.5684 Y72.2425
G01 X32.5675 Y72.2303
G01 X32.5660 Y72.2181
G01 X32.5630 Y72.1998
G01 X32.5603 Y72.1879
G01 X32.5555 Y72.1700
G01 X32.5517 Y72.1583
G01 X32.5452 Y72.1410
G01 X32.5402 Y72.1298
G01 X32.5348 Y72.1186
G01 X32.5291 Y72.1078
G01 X32.5195 Y72.0920
G01 X32.5127 Y72.0818
G01 X32.5017 Y72.0669
G01 X32.4939 Y72.0574
G01 X32.4815 Y72.0437
G01 X32.4728 Y72.0350
G01 X32.4544 Y72.0186
G01 X32.4447 Y72.0111
G01 X32.4297 Y72.0003
G01 X32.4193 Y71.9937
G01 X32.4033 Y71.9845
G01 X32.3867 Y71.9763
G01 X32.3755 Y71.9713
G01 X32.3640 Y71.9669
G01 X32.3465 Y71.9610
G01 X32.3286 Y71.9562
G01 X32.3167 Y71.9535
G01 X32.3046 Y71.9514
G01 X32.2862 Y71.9490
G01 X32.2678 Y71.9478
G01 X32.2555 Y71.9475
G00 Z3.0000
G00 X30.9154 Y72.1982
G01 F60.00
G01 Z-0.1000
G01 F60.00
G01 X30.8625 Y72.3138
G01 X30.7972 Y72.4661
G01 X30.7357 Y72.6199
G01 X30.6780 Y72.7752
G01 X30.6241 Y72.9318
G01 X30.5741 Y73.0897
G01 X30.5279 Y73.2489
G01 X30.4857 Y73.4091
G01 X30.4474 Y73.5702
G01 X30.4131 Y73.7323
G01 X30.3828 Y73.8952
G01 X30.3565 Y74.0587
G01 X30.3342 Y74.2229
G01 X30.3159 Y74.3876
G01 X30.3017 Y74.5526
G01 X30.2915 Y74.7180
G01 X30.2854 Y74.8835
G01 X30.2834 Y75.0492
G01 X30.2854 Y75.2148
G01 X30.2915 Y75.3804
G01 X30.3017 Y75.5457
G01 X30.3159 Y75.7108
G01 X30.3342 Y75.8754
G01 X30.3565 Y76.0396
G01 X30.3828 Y76.2032
G01 X30.4131 Y76.3660
G01 X30.4474 Y76.5281
G01 X30.4857 Y76.6893
G01 X30.5279 Y76.8495
G01 X30.5689 Y76.9907
G00 Z3.0000
G00 X30.7718 Y76.5956
G01 F60.00
G01 Z-0.1000
G01 F60.00
G01 X30.7401 Y76.4624
G01 X30.7073 Y76.3075
G01 X30.6784 Y76.1519
G01 X30.6532 Y75.9956
G01 X30.6319 Y75.8387
G01 X30.6145 Y75.6814
G01 X30.6009 Y75.5237
G01 X30.5912 Y75.3657
G01 X30.5853 Y75.2075
G01 X30.5834 Y75.0492
G01 X30.5853 Y74.8909
G01 X30.5912 Y74.7327
G01 X30.6009 Y74.5747
G01 X30.6145 Y74.4170
G01 X30.6319 Y74.2596
G01 X30.6532 Y74.1028
G01 X30.6784 Y73.9465
G01 X30.7073 Y73.7908
G01 X30.7401 Y73.6360
G01 X30.7767 Y73.4819
G01 X30.8170 Y73.3289
G01 X30.8611 Y73.1768
G01 X30.9089 Y73.0259
G01 X30.9604 Y72.8762
G01 X31.0156 Y72.7278
G01 X31.0744 Y72.5809
G01 X31.0898 Y72.5449
G00 Z3.0000
G00 X31.4035 Y72.5745
G01 F60.00
G01 Z-0.1000
G01 F60.00
G01 X31.3515 Y72.6957
G01 X31.2955 Y72.8358
G01 X31.2429 Y72.9773
G01 X31.1938 Y73.1200
G01 X31.1482 Y73.2639
G01 X31.1062 Y73.4089
G01 X31.0677 Y73.5548
G01 X31.0328 Y73.7017
G01 X31.0016 Y73.8494
G01 X30.9785 Y73.9730
G00 Z3.0000
G00 X31.2719 Y74.0361
G01 F60.00
G01 Z-0.1000
G01 F60.00
G01 X31.2958 Y73.9079
G01 X31.3255 Y73.7674
G01 X31.3587 Y73.6277
G01 X31.3953 Y73.4889
G01 X31.4353 Y73.3510
G01 X31.4787 Y73.2141
G01 X31.5254 Y73.0784
G01 X31.5754 Y72.9438
G01 X31.6287 Y72.8105
G01 X31.6853 Y72.6785
G01 X31.7329 Y72.5745
G01 X32.0659 Y72.5745
G01 X32.0163 Y72.6762
G01 X31.9595 Y72.8001
G01 X31.9059 Y72.9253
G01 X31.8553 Y73.0518
G01 X31.8078 Y73.1794
G01 X31.7635 Y73.3082
G01 X31.7224 Y73.4381
G01 X31.6844 Y73.5689
G01 X31.6497 Y73.7006
G01 X31.6183 Y73.8332
G01 X31.5900 Y73.9664
G01 X31.5651 Y74.1003
G01 X31.5435 Y74.2348
G01 X31.5251 Y74.3698
G01 X31.5101 Y74.5052
G01 X31.4984 Y74.6409
G01 X31.4972 Y74.6611
G00 Z3.0000
G00 X31.3809 Y74.7234
G01 F60.00
G01 Z-0.1000
G01 F60.00
G01 X31.3922 Y74.7142
G01 X31.4022 Y74.7068
G01 X31.4227 Y74.6934
G01 X31.4388 Y74.6845
G01 X31.4498 Y74.6789
G01 X31.4724 Y74.6693
G01 X31.4842 Y74.6651
G01 X31.5017 Y74.6598
G01 X31.5138 Y74.6567
G01 X31.5257 Y74.6543
G01 X31.5379 Y74.6522
G01 X31.5502 Y74.6506
G01 X31.5685 Y74.6491
G01 X31.5809 Y74.6488
G01 X31.5931 Y74.6489
G01 X31.6055 Y74.6495
G01 X31.6237 Y74.6513
G01 X31.6361 Y74.6532
G01 X31.6601 Y74.6582
G01 X31.6777 Y74.6632
G01 X31.6896 Y74.6671
G01 X31.7011 Y74.6716
G01 X31.7179 Y74.6789
G01 X31.7397 Y74.6902
G01 X31.7504 Y74.6966
G01 X31.7656 Y74.7068
G01 X31.7756 Y74.7142
G01 X31.7869 Y74.7234
G01 X31.7869 Y74.2737
G01 X31.7875 Y74.2552
G01 X31.7884 Y74.2430
G01 X31.7908 Y74.2246
G01 X31.7929 Y74.2125
G01 X31.7971 Y74.1945
G01 X31.8004 Y74.1827
G01 X31.8042 Y74.1710
G01 X31.8107 Y74.1537
G01 X31.8184 Y74.1369
G01 X31.8239 Y74.1259
G01 X31.8331 Y74.1099
G01 X31.8397 Y74.0995
G01 X31.8468 Y74.0895
G01 X31.8580 Y74.0748
G01 X31.8702 Y74.0609
G01 X31.8787 Y74.0520
G01 X31.8876 Y74.0435
G01 X31.9015 Y74.0313
G01 X31.9162 Y74.0201
G01 X31.9314 Y74.0097
G01 X31.9526 Y73.9972
G01 X31.9636 Y73.9917
G01 X31.9804 Y73.9840
G01 X31.9977 Y73.9775
G01 X32.0094 Y73.9737
G01 X32.0212 Y73.9704
G01 X32.0392 Y73.9662
G01 X32.0575 Y73.9632
G01 X32.0697 Y73.9617
G01 X32.0819 Y73.9608
G01 X32.1004 Y73.9602
G01 X32.1127 Y73.9605
G01 X32.1311 Y73.9617
G01 X32.1495 Y73.9641
G01 X32.1616 Y73.9662
G01 X32.1735 Y73.9689
G01 X32.1914 Y73.9737
G01 X32.2031 Y73.9775
G01 X32.2204 Y73.9840
G01 X32.2316 Y73.9890
G01 X32.2482 Y73.9972
G01 X32.2642 Y74.0064
G01 X32.2746 Y74.0130
G01 X32.2846 Y74.0201
G01 X32.2993 Y74.0313
G01 X32.3132 Y74.0435
G01 X32.3221 Y74.0520
G01 X32.3347 Y74.0655
G01 X32.3428 Y74.0748
G01 X32.3503 Y74.0845
G01 X32.3611 Y74.0995
G01 X32.3740 Y74.1205
G01 X32.3824 Y74.1369
G01 X32.3876 Y74.1481
G01 X32.3923 Y74.1594
G01 X32.4004 Y74.1827
G01 X32.4066 Y74.2065
G01 X32.4100 Y74.2246
G01 X32.4124 Y74.2430
G01 X32.4139 Y74.2676
G01 X32.4139 Y75.8231
G01 X32.4136 Y75.8356
G01 X32.4124 Y75.8544
G01 X32.4099 Y75.8731
G01 X32.4064 Y75.8915
G01 X32.4017 Y75.9098
G01 X32.3959 Y75.9276
G01 X32.3892 Y75.9452
G01 X32.3812 Y75.9624
G01 X32.3724 Y75.9789
G01 X32.3626 Y75.9950
G01 X32.3518 Y76.0103
G01 X32.3401 Y76.0252
G01 X32.3275 Y76.0392
G01 X32.3142 Y76.0524
G01 X32.3000 Y76.0648
G01 X32.2852 Y76.0763
G01 X32.2697 Y76.0870
G01 X32.2480 Y76.0997
G01 X32.2369 Y76.1054
G01 X32.2254 Y76.1106
G01 X32.2080 Y76.1176
G01 X32.1841 Y76.1253
G01 X32.1596 Y76.1310
G01 X32.1411 Y76.1339
G01 X32.1286 Y76.1353
G01 X32.1161 Y76.1362
G01 X32.0910 Y76.1365
G01 X32.0660 Y76.1347
G01 X32.0474 Y76.1321
G01 X32.0350 Y76.1297
G01 X32.0229 Y76.1269
G01 X31.9988 Y76.1197
G01 X31.9754 Y76.1106
G01 X31.9640 Y76.1054
G01 X31.9528 Y76.0996
G01 X31.9419 Y76.0936
G01 X31.9312 Y76.0870
G01 X31.9207 Y76.0800
G01 X31.9106 Y76.0727
G01 X31.8913 Y76.0567
G01 X31.8776 Y76.0436
G01 X31.8690 Y76.0346
G01 X31.8608 Y76.0252
G01 X31.8490 Y76.0105
G01 X31.8348 Y75.9897
G01 X31.5839 Y75.5717
G01 X31.3362 Y75.9844
G01 X31.3246 Y76.0024
G01 X31.3136 Y76.0173
G01 X31.3037 Y76.0291
G01 X31.2891 Y76.0448
G01 X31.2779 Y76.0555
G01 X31.2663 Y76.0655
G01 X31.2491 Y76.0786
G01 X31.2337 Y76.0889
G01 X31.2151 Y76.0996
G01 X31.2014 Y76.1066
G01 X31.1873 Y76.1128
G01 X31.1729 Y76.1183
G01 X31.1584 Y76.1231
G01 X31.1435 Y76.1273
G01 X31.1285 Y76.1306
G01 X31.1042 Y76.1345
G01 X31.0920 Y76.1357
G01 X31.0766 Y76.1365
G01 X31.0612 Y76.1366
G01 X31.0458 Y76.1359
G01 X31.0213 Y76.1332
G01 X31.0062 Y76.1306
G01 X30.9911 Y76.1272
G01 X30.9763 Y76.1231
G01 X30.9617 Y76.1183
G01 X30.9474 Y76.1127
G01 X30.9333 Y76.1065
G01 X30.9195 Y76.0996
G01 X30.9061 Y76.0920
G01 X30.8855 Y76.0785
G01 X30.8757 Y76.0712
G01 X30.8638 Y76.0615
G01 X30.8523 Y76.0512
G01 X30.8414 Y76.0404
G01 X30.8250 Y76.0220
G01 X30.8155 Y76.0098
G01 X30.8067 Y75.9972
G01 X30.7938 Y75.9762
G01 X30.7839 Y75.9571
G01 X30.7754 Y75.9373
G01 X30.7692 Y75.9199
G01 X30.7632 Y75.8992
G01 X30.7588 Y75.8782
G01 X30.7554 Y75.8538
G01 X30.7540 Y75.8323
G01 X30.7539 Y74.2737
G01 X30.7542 Y74.2614
G01 X30.7554 Y74.2430
G01 X30.7578 Y74.2246
G01 X30.7612 Y74.2065
G01 X30.7657 Y74.1886
G01 X30.7712 Y74.1710
G01 X30.7777 Y74.1537
G01 X30.7827 Y74.1425
G01 X30.7909 Y74.1259
G01 X30.8001 Y74.1099
G01 X30.8102 Y74.0945
G01 X30.8212 Y74.0796
G01 X30.8331 Y74.0655
G01 X30.8457 Y74.0520
G01 X30.8592 Y74.0394
G01 X30.8733 Y74.0275
G01 X30.8882 Y74.0165
G01 X30.8984 Y74.0097
G01 X30.9142 Y74.0001
G01 X30.9250 Y73.9944
G01 X30.9418 Y73.9865
G01 X30.9531 Y73.9818
G01 X30.9705 Y73.9755
G01 X30.9823 Y73.9720
G01 X31.0002 Y73.9675
G01 X31.0123 Y73.9651
G01 X31.0306 Y73.9624
G01 X31.0428 Y73.9612
G01 X31.0613 Y73.9602
G01 X31.0735 Y73.9602
G01 X31.0920 Y73.9612
G01 X31.1042 Y73.9624
G01 X31.1225 Y73.9651
G01 X31.1346 Y73.9675
G01 X31.1525 Y73.9720
G01 X31.1643 Y73.9755
G01 X31.1817 Y73.9818
G01 X31.1930 Y73.9865
G01 X31.2098 Y73.9944
G01 X31.2206 Y74.0001
G01 X31.2364 Y74.0097
G01 X31.2466 Y74.0165
G01 X31.2615 Y74.0275
G01 X31.2710 Y74.0353
G01 X31.2847 Y74.0477
G01 X31.2934 Y74.0564
G01 X31.3058 Y74.0701
G01 X31.3136 Y74.0796
G01 X31.3246 Y74.0945
G01 X31.3347 Y74.1099
G01 X31.3439 Y74.1259
G01 X31.3546 Y74.1481
G01 X31.3615 Y74.1652
G01 X31.3674 Y74.1827
G01 X31.3736 Y74.2065
G01 X31.3770 Y74.2246
G01 X31.3794 Y74.2430
G01 X31.3806 Y74.2614
G01 X31.3809 Y74.2737
G01 X31.3809 Y74.7234
G00 Z3.0000
G00 X31.8794 Y74.0514
G01 F60.00
G01 Z-0.1000
G01 F60.00
G01 X31.8843 Y74.0249
G01 X31.9110 Y73.8989
G01 X31.9407 Y73.7735
G01 X31.9736 Y73.6489
G01 X32.0095 Y73.5252
G01 X32.0484 Y73.4023
G01 X32.0903 Y73.2805
G01 X32.1352 Y73.1597
G01 X32.1830 Y73.0401
G01 X32.2338 Y72.9217
G01 X32.2875 Y72.8045
G01 X32.3440 Y72.6887
G01 X32.4033 Y72.5743
G01 X32.4339 Y72.5188
G00 Z3.0000
G00 X32.5677 Y72.2894
G01 F60.00
G01 Z-0.1000
G01 F60.00
G01 X32.5979 Y72.2404
G01 X32.6682 Y72.1324
G01 X32.7411 Y72.0262
G01 X32.7812 Y71.9707
G00 Z3.0000
G00 X32.4696 Y71.8917
G01 F60.00
G01 Z-0.1000
G01 F60.00
G01 X32.4187 Y71.9658
G01 X32.4057 Y71.9858
G00 Z3.0000
G00 X33.3782 Y71.7114
G01 F60.00
G01 Z-0.1000
G01 F60.00
G01 X33.3657 Y71.7250
G01 X33.2852 Y71.8160
G01 X33.2070 Y71.9089
G01 X33.1311 Y72.0038
G01 X33.0575 Y72.1005
G01 X32.9864 Y72.1989
G01 X32.9176 Y72.2991
G01 X32.8514 Y72.4009
G01 X32.7876 Y72.5044
G01 X32.7265 Y72.6093
G01 X32.6679 Y72.7158
G01 X32.6119 Y72.8236
G01 X32.5587 Y72.9328
G01 X32.5081 Y73.0432
G01 X32.4602 Y73.1549
G01 X32.4151 Y73.2677
G01 X32.3728 Y73.3816
G01 X32.3332 Y73.4964
G01 X32.2965 Y73.6123
G01 X32.2627 Y73.7289
G01 X32.2317 Y73.8464
G01 X32.2037 Y73.9646
G01 X32.2011 Y73.9768
G00 Z3.0000
G00 X33.5449 Y71.9752
G01 F60.00
G01 Z-0.1000
G01 F60.00
G01 X33.5124 Y72.0119
G01 X33.4389 Y72.0992
G01 X33.3676 Y72.1883
G01 X33.2985 Y72.2792
G01 X33.2316 Y72.3717
G01 X33.1671 Y72.4658
G01 X33.1048 Y72.5614
G01 X33.0450 Y72.6586
G01 X32.9875 Y72.7572
G01 X32.9325 Y72.8572
G01 X32.8799 Y72.9585
G01 X32.8298 Y73.0610
G01 X32.7823 Y73.1648
G01 X32.7374 Y73.2697
G01 X32.6950 Y73.3757
G01 X32.6552 Y73.4826
G01 X32.6181 Y73.5905
G01 X32.5836 Y73.6993
G01 X32.5518 Y73.8090
G01 X32.5228 Y73.9193
G01 X32.4964 Y74.0303
G01 X32.4727 Y74.1420
G01 X32.4519 Y74.2542
G01 X32.4337 Y74.3669
G01 X32.4184 Y74.4800
G01 X32.4139 Y74.5200
G00 Z3.0000
G00 X32.8106 Y74.0056
G01 F60.00
G01 Z-0.1000
G01 F60.00
G01 X32.8138 Y73.9922
G01 X32.8410 Y73.8890
G01 X32.8707 Y73.7864
G01 X32.9030 Y73.6847
G01 X32.9377 Y73.5837
G01 X32.9749 Y73.4836
G01 X33.0145 Y73.3845
G01 X33.0566 Y73.2864
G01 X33.1010 Y73.1893
G01 X33.1479 Y73.0934
G01 X33.1970 Y72.9986
G01 X33.2485 Y72.9051
G01 X33.3023 Y72.8128
G01 X33.3583 Y72.7219
G01 X33.4165 Y72.6324
G01 X33.4769 Y72.5444
G01 X33.5394 Y72.4579
G01 X33.6041 Y72.3729
G01 X33.6708 Y72.2896
G01 X33.7411 Y72.2061
G00 Z3.0000
G00 X33.9381 Y72.4378
G01 F60.00
G01 Z-0.1000
G01 F60.00
G01 X33.9027 Y72.4799
G01 X33.8406 Y72.5575
G01 X33.8228 Y72.5809
G00 Z3.0000
G00 X34.0155 Y72.8235
G01 F60.00
G01 Z-0.1000
G01 F60.00
G01 X34.0771 Y72.7421
G01 X34.1351 Y72.6696
G00 Z3.0000
G00 X34.2035 Y72.7472
G01 F60.00
G01 Z-0.1000
G01 F60.00
G01 X34.1923 Y72.7360
G01 X34.1799 Y72.7223
G01 X33.4483 Y71.8615
G01 X33.4330 Y71.8420
G01 X33.4226 Y71.8266
G01 X33.4130 Y71.8106
G01 X33.4019 Y71.7885
G01 X33.3970 Y71.7771
G01 X33.3904 Y71.7596
G01 X33.3867 Y71.7479
G01 X33.3819 Y71.7298
G01 X33.3793 Y71.7177
G01 X33.3764 Y71.6993
G01 X33.3750 Y71.6870
G01 X33.3738 Y71.6684
G01 X33.3737 Y71.6561
G01 X33.3744 Y71.6374
G01 X33.3755 Y71.6251
G01 X33.3780 Y71.6066
G01 X33.3803 Y71.5945
G01 X33.3846 Y71.5764
G01 X33.3881 Y71.5645
G01 X33.3942 Y71.5469
G01 X33.3989 Y71.5354
G01 X33.4067 Y71.5185
G01 X33.4124 Y71.5075
G01 X33.4219 Y71.4915
G01 X33.4287 Y71.4811
G01 X33.4397 Y71.4661
G01 X33.4475 Y71.4565
G01 X33.4599 Y71.4426
G01 X33.4686 Y71.4338
G01 X33.4823 Y71.4212
G01 X33.4918 Y71.4133
G01 X33.5068 Y71.4021
G01 X33.5170 Y71.3952
G01 X33.5330 Y71.3855
G01 X33.5438 Y71.3797
G01 X33.5551 Y71.3742
G01 X33.5721 Y71.3669
G01 X33.5896 Y71.3606
G01 X33.6014 Y71.3569
G01 X33.6195 Y71.3524
G01 X33.6316 Y71.3499
G01 X33.6501 Y71.3472
G01 X33.6624 Y71.3460
G01 X33.6810 Y71.3450
G01 X34.5479 Y71.3450
G01 X34.5664 Y71.3456
G01 X34.5847 Y71.3472
G01 X34.6091 Y71.3510
G01 X34.6271 Y71.3552
G01 X34.6448 Y71.3603
G01 X34.6622 Y71.3666
G01 X34.6791 Y71.3738
G01 X34.6957 Y71.3820
G01 X34.7169 Y71.3945
G01 X34.7321 Y71.4049
G01 X34.7468 Y71.4161
G01 X34.7652 Y71.4325
G01 X34.7781 Y71.4457
G01 X34.7903 Y71.4596
G01 X34.8015 Y71.4743
G01 X34.8119 Y71.4895
G01 X34.8244 Y71.5107
G01 X34.8326 Y71.5273
G01 X34.8376 Y71.5385
G01 X34.8420 Y71.5500
G01 X34.8461 Y71.5616
G01 X34.8496 Y71.5734
G01 X34.8554 Y71.5973
G01 X34.8592 Y71.6217
G01 X34.8604 Y71.6339
G01 X34.8611 Y71.6462
G01 X34.8614 Y71.6585
G01 X34.8611 Y71.6708
G01 X34.8604 Y71.6831
G01 X34.8592 Y71.6953
G01 X34.8554 Y71.7197
G01 X34.8496 Y71.7436
G01 X34.8441 Y71.7612
G01 X34.8398 Y71.7728
G01 X34.8351 Y71.7841
G01 X34.8244 Y71.8063
G01 X34.8119 Y71.8275
G01 X34.8051 Y71.8377
G01 X34.7978 Y71.8477
G01 X34.7903 Y71.8574
G01 X34.7822 Y71.8667
G01 X34.7739 Y71.8758
G01 X34.7652 Y71.8845
G01 X34.7468 Y71.9009
G01 X34.7321 Y71.9121
G01 X34.7169 Y71.9225
G01 X34.6957 Y71.9350
G01 X34.6735 Y71.9457
G01 X34.6564 Y71.9526
G01 X34.6389 Y71.9585
G01 X34.6151 Y71.9647
G01 X34.6030 Y71.9671
G01 X34.5847 Y71.9698
G01 X34.5725 Y71.9710
G01 X34.5540 Y71.9720
G01 X34.3651 Y71.9720
G01 X34.6479 Y72.3047
G01 X34.6691 Y72.3268
G01 X34.6915 Y72.3524
G01 X34.7115 Y72.3774
G01 X34.7336 Y72.4079
G01 X34.7496 Y72.4322
G01 X34.7596 Y72.4487
G01 X34.7714 Y72.4693
G01 X34.7798 Y72.4851
G01 X34.7891 Y72.5037
G01 X34.7975 Y72.5216
G01 X34.8049 Y72.5386
G01 X34.8199 Y72.5776
G01 X34.8289 Y72.6051
G01 X34.8392 Y72.6415
G01 X34.8457 Y72.6695
G01 X34.8501 Y72.6917
G01 X34.8535 Y72.7127
G01 X34.8564 Y72.7342
G01 X34.8586 Y72.7551
G01 X34.8602 Y72.7756
G01 X34.8612 Y72.7985
G01 X34.8615 Y72.8217
G01 X34.8611 Y72.8442
G01 X34.8601 Y72.8650
G01 X34.8583 Y72.8880
G01 X34.8558 Y72.9100
G01 X34.8527 Y72.9312
G01 X34.8491 Y72.9520
G01 X34.8444 Y72.9748
G01 X34.8392 Y72.9961
G01 X34.8320 Y73.0216
G01 X34.8199 Y73.0585
G01 X34.8119 Y73.0797
G01 X34.8032 Y73.1005
G01 X34.7948 Y73.1191
G01 X34.7849 Y73.1394
G01 X34.7745 Y73.1589
G01 X34.7611 Y73.1821
G01 X34.7498 Y73.2003
G01 X34.7370 Y73.2194
G01 X34.7245 Y73.2368
G01 X34.7039 Y73.2634
G01 X34.6873 Y73.2831
G01 X34.6748 Y73.2970
G01 X34.6588 Y73.3136
G01 X34.6449 Y73.3273
G01 X34.6247 Y73.3459
G01 X34.6077 Y73.3604
G01 X34.5895 Y73.3750
G01 X34.5723 Y73.3878
G01 X34.5541 Y73.4007
G01 X34.5357 Y73.4128
G01 X34.5162 Y73.4247
G01 X34.4946 Y73.4368
G01 X34.4726 Y73.4483
G01 X34.4442 Y73.4615
G01 X34.4197 Y73.4719
G01 X34.4025 Y73.4785
G01 X34.3779 Y73.4869
G01 X34.3573 Y73.4933
G01 X34.3346 Y73.4995
G01 X34.3122 Y73.5050
G01 X34.2904 Y73.5094
G01 X34.2692 Y73.5130
G01 X34.2452 Y73.5164
G01 X34.2202 Y73.5190
G01 X34.1883 Y73.5209
G01 X34.1657 Y73.5215
G01 X34.1386 Y73.5211
G01 X34.1166 Y73.5202
G01 X34.0941 Y73.5187
G01 X34.0699 Y73.5163
G01 X34.0466 Y73.5133
G01 X34.0213 Y73.5093
G01 X34.0021 Y73.5058
G01 X33.9759 Y73.5001
G01 X33.9425 Y73.4915
G01 X33.9162 Y73.4838
G01 X33.8920 Y73.4757
G01 X33.8693 Y73.4673
G01 X33.8462 Y73.4580
G01 X33.8152 Y73.4442
G01 X33.7903 Y73.4320
G01 X33.7707 Y73.4216
G01 X33.7505 Y73.4101
G01 X33.7310 Y73.3984
G01 X33.7117 Y73.3859
G01 X33.6923 Y73.3726
G01 X33.6736 Y73.3590
G01 X33.6533 Y73.3432
G01 X33.6380 Y73.3307
G01 X33.6175 Y73.3128
G01 X33.5927 Y73.2894
G01 X33.5761 Y73.2726
G01 X33.5583 Y73.2536
G01 X33.5432 Y73.2365
G01 X33.5277 Y73.2175
G01 X33.5110 Y73.1961
G01 X33.4974 Y73.1772
G01 X33.4780 Y73.1484
G01 X33.4644 Y73.1266
G01 X33.4546 Y73.1097
G01 X33.4416 Y73.0858
G01 X33.4313 Y73.0651
G01 X33.4215 Y73.0444
G01 X33.4123 Y73.0233
G01 X33.4037 Y73.0018
G01 X33.3949 Y72.9780
G01 X33.3885 Y72.9589
G01 X33.3820 Y72.9352
G01 X33.3783 Y72.9170
G01 X33.3764 Y72.9049
G01 X33.3751 Y72.8927
G01 X33.3738 Y72.8743
G01 X33.3737 Y72.8620
G01 X33.3743 Y72.8435
G01 X33.3754 Y72.8313
G01 X33.3778 Y72.8129
G01 X33.3814 Y72.7948
G01 X33.3842 Y72.7828
G01 X33.3877 Y72.7711
G01 X33.3936 Y72.7535
G01 X33.4007 Y72.7364
G01 X33.4058 Y72.7253
G01 X33.4145 Y72.7090
G01 X33.4207 Y72.6984
G01 X33.4275 Y72.6881
G01 X33.4382 Y72.6731
G01 X33.4499 Y72.6587
G01 X33.4581 Y72.6496
G01 X33.4712 Y72.6365
G01 X33.4802 Y72.6281
G01 X33.4945 Y72.6164
G01 X33.5042 Y72.6090
G01 X33.5196 Y72.5987
G01 X33.5301 Y72.5923
G01 X33.5408 Y72.5864
G01 X33.5574 Y72.5782
G01 X33.5745 Y72.5711
G01 X33.5860 Y72.5668
G01 X33.6037 Y72.5614
G01 X33.6156 Y72.5584
G01 X33.6276 Y72.5558
G01 X33.6459 Y72.5528
G01 X33.6643 Y72.5510
G01 X33.6765 Y72.5502
G01 X33.6888 Y72.5501
G01 X33.7073 Y72.5507
G01 X33.7257 Y72.5525
G01 X33.7379 Y72.5542
G01 X33.7499 Y72.5565
G01 X33.7680 Y72.5606
G01 X33.7797 Y72.5641
G01 X33.7973 Y72.5700
G01 X33.8144 Y72.5771
G01 X33.8255 Y72.5822
G01 X33.8418 Y72.5909
G01 X33.8576 Y72.6004
G01 X33.8777 Y72.6146
G01 X33.8921 Y72.6263
G01 X33.9012 Y72.6345
G01 X33.9100 Y72.6431
G01 X33.9227 Y72.6566
G01 X33.9344 Y72.6709
G01 X33.9418 Y72.6806
G01 X33.9487 Y72.6908
G01 X33.9585 Y72.7065
G01 X33.9700 Y72.7283
G01 X33.9751 Y72.7394
G01 X33.9797 Y72.7509
G01 X33.9908 Y72.7812
G01 X33.9978 Y72.7962
G01 X34.0021 Y72.8038
G01 X34.0083 Y72.8135
G01 X34.0136 Y72.8211
G01 X34.0204 Y72.8296
G01 X34.0304 Y72.8403
G01 X34.0390 Y72.8484
G01 X34.0503 Y72.8576
G01 X34.0589 Y72.8637
G01 X34.0716 Y72.8714
G01 X34.0807 Y72.8761
G01 X34.0904 Y72.8804
G01 X34.1047 Y72.8857
G01 X34.1247 Y72.8908
G01 X34.1412 Y72.8933
G01 X34.1497 Y72.8940
G01 X34.1634 Y72.8943
G01 X34.1752 Y72.8930
G01 X34.1812 Y72.8915
G01 X34.1876 Y72.8893
G01 X34.1947 Y72.8861
G01 X34.1999 Y72.8831
G01 X34.2058 Y72.8790
G01 X34.2106 Y72.8749
G01 X34.2158 Y72.8697
G01 X34.2207 Y72.8635
G01 X34.2253 Y72.8562
G01 X34.2286 Y72.8494
G01 X34.2308 Y72.8435
G01 X34.2327 Y72.8367
G01 X34.2339 Y72.8292
G01 X34.2344 Y72.8225
G01 X34.2343 Y72.8145
G01 X34.2332 Y72.8049
G01 X34.2317 Y72.7969
G01 X34.2290 Y72.7876
G01 X34.2259 Y72.7795
G01 X34.2226 Y72.7727
G01 X34.2179 Y72.7648
G01 X34.2147 Y72.7600
G01 X34.2091 Y72.7531
G01 X34.2035 Y72.7472
G00 Z3.0000
G00 X34.7620 Y72.4527
G01 F60.00
G01 Z-0.1000
G01 F60.00
G01 X34.7800 Y72.4368
G01 X34.8447 Y72.3823
G01 X34.8617 Y72.3687
G01 X34.5743 Y72.2182
G01 X34.5840 Y72.2096
G01 X34.6544 Y72.1504
G01 X34.7263 Y72.0929
G01 X34.7995 Y72.0371
G01 X34.8741 Y71.9832
G01 X34.9392 Y71.9385
G00 Z3.0000
G00 X35.0130 Y71.7533
G01 F60.00
G01 Z-0.1000
G01 F60.00
G01 X35.0210 Y71.7330
G01 X35.0307 Y71.7113
G01 X35.0405 Y71.6910
G01 X35.0504 Y71.6722
G01 X35.0612 Y71.6533
G01 X35.0732 Y71.6341
G01 X35.0854 Y71.6159
G01 X35.1003 Y71.5954
G01 X35.1145 Y71.5773
G01 X35.1343 Y71.5542
G01 X35.1514 Y71.5360
G01 X35.1648 Y71.5226
G01 X35.1817 Y71.5068
G01 X35.1992 Y71.4917
G01 X35.2157 Y71.4785
G01 X35.2309 Y71.4670
G01 X35.2501 Y71.4534
G01 X35.2693 Y71.4410
G01 X35.2898 Y71.4287
G01 X35.3093 Y71.4179
G01 X35.3295 Y71.4077
G01 X35.3493 Y71.3986
G01 X35.3695 Y71.3901
G01 X35.3899 Y71.3824
G01 X35.4121 Y71.3749
G01 X35.4328 Y71.3686
G01 X35.4548 Y71.3628
G01 X35.4754 Y71.3582
G01 X35.4963 Y71.3542
G01 X35.5185 Y71.3508
G01 X35.5410 Y71.3481
G01 X35.5650 Y71.3462
G01 X35.5874 Y71.3452
G01 X35.6098 Y71.3450
G01 X35.6323 Y71.3456
G01 X35.6626 Y71.3477
G01 X35.6850 Y71.3502
G01 X35.7075 Y71.3535
G01 X35.7293 Y71.3575
G01 X35.7488 Y71.3618
G01 X35.7754 Y71.3686
G01 X35.7961 Y71.3749
G01 X35.8161 Y71.3816
G01 X35.8368 Y71.3893
G01 X35.8572 Y71.3978
G01 X35.8769 Y71.4069
G01 X35.8960 Y71.4163
G01 X35.9166 Y71.4276
G01 X35.9359 Y71.4391
G01 X35.9541 Y71.4508
G01 X35.9733 Y71.4640
G01 X35.9925 Y71.4785
G01 X36.0090 Y71.4917
G01 X36.0265 Y71.5068
G01 X36.0434 Y71.5226
G01 X36.0644 Y71.5439
G01 X36.0800 Y71.5610
G01 X36.0948 Y71.5787
G01 X36.1104 Y71.5987
G01 X36.1228 Y71.6159
G01 X36.1350 Y71.6341
G01 X36.1470 Y71.6533
G01 X36.1578 Y71.6722
G01 X36.1658 Y71.6874
G01 X36.1752 Y71.7064
G01 X36.1835 Y71.7245
G01 X36.1948 Y71.7522
G01 X36.2171 Y71.8014
G01 X36.2321 Y71.8371
G01 X36.2486 Y71.8798
G01 X36.2598 Y71.9109
G01 X36.2707 Y71.9435
G01 X36.2844 Y71.9879
G01 X36.2937 Y72.0211
G01 X36.3028 Y72.0565
G01 X36.3113 Y72.0935
G01 X36.3183 Y72.1269
G01 X36.3258 Y72.1681
G01 X36.3316 Y72.2055
G01 X36.3362 Y72.2402
G01 X36.3412 Y72.2857
G01 X36.3440 Y72.3204
G01 X36.3461 Y72.3567
G01 X36.3475 Y72.3942
G01 X36.3480 Y72.4291
G01 X36.3474 Y72.4750
G01 X36.3461 Y72.5097
G01 X36.3439 Y72.5475
G01 X36.3409 Y72.5839
G01 X36.3371 Y72.6191
G01 X36.3312 Y72.6639
G01 X36.3258 Y72.6983
G01 X36.3193 Y72.7345
G01 X36.3115 Y72.7717
G01 X36.3039 Y72.8051
G01 X36.2937 Y72.8453
G01 X36.2844 Y72.8785
G01 X36.2717 Y72.9200
G01 X36.2598 Y72.9555
G01 X36.2470 Y72.9910
G01 X36.2338 Y73.0251
G01 X36.2204 Y73.0575
G01 X36.2047 Y73.0928
G01 X36.1948 Y73.1142
G01 X36.1872 Y73.1334
G01 X36.1790 Y73.1519
G01 X36.1686 Y73.1735
G01 X36.1578 Y73.1942
G01 X36.1470 Y73.2131
G01 X36.1350 Y73.2323
G01 X36.1228 Y73.2505
G01 X36.1079 Y73.2710
G01 X36.0937 Y73.2891
G01 X36.0739 Y73.3122
G01 X36.0568 Y73.3304
G01 X36.0434 Y73.3438
G01 X36.0265 Y73.3596
G01 X36.0090 Y73.3747
G01 X35.9899 Y73.3899
G01 X35.9733 Y73.4024
G01 X35.9541 Y73.4156
G01 X35.9359 Y73.4273
G01 X35.9166 Y73.4388
G01 X35.8967 Y73.4497
G01 X35.8787 Y73.4587
G01 X35.8631 Y73.4659
G01 X35.8387 Y73.4763
G01 X35.8117 Y73.4864
G01 X35.7822 Y73.4958
G01 X35.7534 Y73.5036
G01 X35.7185 Y73.5110
G01 X35.6897 Y73.5156
G01 X35.6626 Y73.5187
G01 X35.6323 Y73.5208
G01 X35.6029 Y73.5214
G01 X35.5759 Y73.5208
G01 X35.5387 Y73.5180
G01 X35.5115 Y73.5146
G01 X35.4941 Y73.5118
G01 X35.4754 Y73.5082
G01 X35.4479 Y73.5018
G01 X35.4305 Y73.4971
G01 X35.4121 Y73.4915
G01 X35.3855 Y73.4824
G01 X35.3695 Y73.4763
G01 X35.3515 Y73.4688
G01 X35.3259 Y73.4569
G01 X35.3093 Y73.4485
G01 X35.2952 Y73.4408
G01 X35.2693 Y73.4254
G01 X35.2561 Y73.4170
G01 X35.2411 Y73.4068
G01 X35.2183 Y73.3899
G01 X35.1908 Y73.3676
G01 X35.1701 Y73.3489
G01 X35.1500 Y73.3289
G01 X35.1282 Y73.3053
G01 X35.1100 Y73.2835
G01 X35.0941 Y73.2627
G01 X35.0842 Y73.2488
G01 X35.0732 Y73.2323
G01 X35.0578 Y73.2072
G01 X35.0424 Y73.1790
G01 X35.0330 Y73.1600
G01 X35.0247 Y73.1419
G01 X35.0130 Y73.1131
G01 X34.9898 Y73.0620
G01 X34.9751 Y73.0265
G01 X34.9608 Y72.9895
G01 X34.9485 Y72.9555
G01 X34.9376 Y72.9229
G01 X34.9263 Y72.8866
G01 X34.9150 Y72.8466
G01 X34.9063 Y72.8131
G01 X34.8970 Y72.7729
G01 X34.8890 Y72.7345
G01 X34.8823 Y72.6968
G01 X34.8761 Y72.6565
G01 X34.8717 Y72.6234
G01 X34.8679 Y72.5888
G01 X34.8646 Y72.5504
G01 X34.8622 Y72.5097
G01 X34.8607 Y72.4707
G01 X34.8603 Y72.4324
G01 X34.8609 Y72.3914
G01 X34.8622 Y72.3567
G01 X34.8641 Y72.3233
G01 X34.8674 Y72.2825
G01 X34.8717 Y72.2430
G01 X34.8771 Y72.2025
G01 X34.8825 Y72.1681
G01 X34.8884 Y72.1353
G01 X34.8962 Y72.0971
G01 X34.9055 Y72.0565
G01 X34.9157 Y72.0172
G01 X34.9263 Y71.9798
G01 X34.9366 Y71.9464
G01 X34.9473 Y71.9146
G01 X34.9608 Y71.8769
G01 X34.9751 Y71.8399
G01 X34.9912 Y71.8014
G01 X35.0130 Y71.7533
G00 Z3.0000
G00 X34.8603 Y71.6317
G01 F60.00
G01 Z-0.1000
G01 F60.00
G01 X34.9513 Y71.5754
G01 X35.0372 Y71.5253
G01 X35.1242 Y71.4774
G01 X35.2125 Y71.4316
G01 X35.3018 Y71.3880
G01 X35.3922 Y71.3466
G01 X35.4835 Y71.3075
G01 X35.5758 Y71.2705
G01 X35.6708 Y71.2353
G01 X35.9615 Y71.4558
G01 X36.0332 Y71.4350
G01 X36.1222 Y71.4116
G01 X36.2118 Y71.3903
G01 X36.3018 Y71.3712
G01 X36.3923 Y71.3544
G01 X36.4832 Y71.3398
G01 X36.5744 Y71.3274
G01 X36.6658 Y71.3172
G01 X36.7575 Y71.3093
G01 X36.8494 Y71.3037
G01 X36.9414 Y71.3003
G01 X37.0334 Y71.2992
G01 X37.1254 Y71.3003
G01 X37.2174 Y71.3037
G01 X37.3093 Y71.3093
G01 X37.4010 Y71.3172
G01 X37.4924 Y71.3274
G01 X37.5836 Y71.3398
G01 X37.6745 Y71.3544
G01 X37.7650 Y71.3712
G01 X37.8550 Y71.3903
G01 X37.9515 Y71.4134
G00 Z3.0000
G00 X37.8354 Y71.6939
G01 F60.00
G01 Z-0.1000
G01 F60.00
G01 X37.8327 Y71.6933
G00 Z3.0000
G00 X37.6228 Y71.9550
G01 F60.00
G01 Z-0.1000
G01 F60.00
G01 X37.6479 Y71.9597
G01 X37.7236 Y71.9757
G01 X37.7988 Y71.9936
G01 X37.8735 Y72.0133
G01 X37.9478 Y72.0348
G01 X38.0215 Y72.0582
G01 X38.0946 Y72.0833
G01 X38.1671 Y72.1102
G01 X38.2389 Y72.1389
G01 X38.3099 Y72.1694
G01 X38.3887 Y72.2058
G01 X38.5962 Y71.9736
G01 X38.6606 Y72.0070
G00 Z3.0000
G00 X39.1155 Y71.5754
G01 F60.00
G01 Z-0.1000
G01 F60.00
G01 X39.2001 Y71.6275
G01 X39.2835 Y71.6817
G01 X39.3741 Y71.7442
G01 X39.3211 Y72.0781
G01 X39.3405 Y72.0929
G01 X39.4124 Y72.1504
G01 X39.4345 Y72.1690
G01 X39.2502 Y72.4060
G01 X39.2868 Y72.4368
G01 X39.3503 Y72.4929
G01 X39.3778 Y72.5184
G00 Z3.0000
G00 X39.3209 Y72.8837
G01 F60.00
G01 Z-0.1000
G01 F60.00
G01 X39.3674 Y72.9338
G01 X39.4208 Y72.9942
G01 X39.2173 Y73.2184
G01 X39.2365 Y73.2411
G01 X39.2802 Y73.2958
G01 X39.3225 Y73.3514
G01 X39.3562 Y73.3980
G01 X39.0015 Y73.4279
G01 X39.0437 Y73.4803
G01 X39.0816 Y73.5301
G01 X39.1182 Y73.5809
G01 X39.1536 Y73.6325
G01 X39.1878 Y73.6849
G01 X39.2206 Y73.7382
G01 X39.2521 Y73.7923
G01 X39.2823 Y73.8471
G01 X39.3111 Y73.9027
G01 X39.3386 Y73.9589
G01 X39.3646 Y74.0158
G01 X39.3881 Y74.0706
G00 Z3.0000
G00 X39.6671 Y73.9602
G01 F60.00
G01 Z-0.1000
G01 F60.00
G01 X39.6389 Y73.8942
G01 X39.6098 Y73.8306
G01 X39.5780 Y73.7657
G00 Z3.0000
G00 X39.9463 Y73.8505
G01 F60.00
G01 Z-0.1000
G01 F60.00
G01 X39.9723 Y73.9155
G01 X39.9889 Y73.9602
G01 X40.2717 Y73.8599
G01 X40.2817 Y73.8869
G01 X40.3093 Y73.9670
G01 X40.3226 Y74.0091
G00 Z3.0000
G00 X40.6222 Y73.9617
G01 F60.00
G01 Z-0.1000
G01 F60.00
G01 X40.6476 Y74.0490
G01 X40.6710 Y74.1380
G01 X40.6923 Y74.2275
G01 X40.7113 Y74.3176
G01 X40.7206 Y74.3671
G00 Z3.0000
G00 X40.9401 Y73.9820
G01 F60.00
G01 Z-0.1000
G01 F60.00
G01 X40.9367 Y73.9690
G01 X40.9097 Y73.8758
G01 X41.2147 Y73.8505
G01 X41.2258 Y73.8890
G01 X41.2497 Y73.9797
G00 Z3.0000
G00 X41.5334 Y73.8790
G01 F60.00
G01 Z-0.1000
G01 F60.00
G01 X41.5440 Y73.9193
G01 X41.5623 Y73.9962
G00 Z3.0000
G00 X41.8621 Y73.9602
G01 F60.00
G01 Z-0.1000
G01 F60.00
G01 X41.8360 Y73.8505
G01 X42.1443 Y73.8505
G01 X42.1558 Y73.8989
G01 X42.1688 Y73.9602
G01 X42.4522 Y73.8505
G01 X42.4754 Y73.9602
G01 X42.7690 Y73.8985
G01 X42.7973 Y74.0490
G01 X42.7992 Y74.0609
G00 Z3.0000
G00 X42.8486 Y74.4156
G01 F60.00
G01 Z-0.1000
G01 F60.00
G01 X42.8552 Y74.4758
G01 X42.8640 Y74.5772
G00 Z3.0000
G00 X42.5637 Y74.5872
G01 F60.00
G01 Z-0.1000
G01 F60.00
G01 X42.5684 Y74.6409
G01 X42.5767 Y74.7768
G01 X42.5817 Y74.9130
G01 X42.5819 Y74.9303
G00 Z3.0000
G00 X42.5618 Y75.5336
G01 F60.00
G01 Z-0.1000
G01 F60.00
G01 X42.5567 Y75.5932
G01 X42.5417 Y75.7285
G01 X42.5233 Y75.8635
G01 X42.5017 Y75.9980
G01 X42.4879 Y76.0723
G00 Z3.0000
G00 X42.1695 Y76.1351
G01 F60.00
G01 Z-0.1000
G01 F60.00
G01 X42.1558 Y76.1995
G01 X42.1442 Y76.2484
G00 Z3.0000
G00 X41.8605 Y76.1447
G01 F60.00
G01 Z-0.1000
G01 F60.00
G01 X41.8631 Y76.1337
G01 X41.8866 Y76.0230
G01 X41.5984 Y75.9329
G01 X41.6149 Y75.8441
G01 X41.6204 Y75.8101
G01 X41.3254 Y75.7551
G01 X41.3363 Y75.6874
G01 X41.3507 Y75.5817
G01 X41.3625 Y75.4755
G01 X41.3716 Y75.3692
G01 X41.3782 Y75.2626
G01 X41.3821 Y75.1559
G01 X41.3834 Y75.0492
G01 X41.3821 Y74.9424
G01 X41.3782 Y74.8357
G01 X41.3716 Y74.7292
G01 X41.3625 Y74.6228
G01 X41.3583 Y74.5858
G01 X41.6599 Y74.5834
G01 X41.6708 Y74.7071
G01 X41.6778 Y74.8210
G01 X41.6820 Y74.9351
G01 X41.6834 Y75.0492
G01 X41.6819 Y75.1664
G00 Z3.0000
G00 X41.0834 Y75.0492
G01 F60.00
G01 Z-0.1000
G01 F60.00
G01 X41.0822 Y75.1486
G01 X41.0785 Y75.2479
G01 X41.0724 Y75.3471
G01 X41.0639 Y75.4461
G01 X41.0529 Y75.5449
G01 X41.0396 Y75.6434
G01 X41.0218 Y75.7520
G01 X40.7015 Y75.8271
G01 X40.6923 Y75.8708
G01 X40.6710 Y75.9603
G01 X40.6476 Y76.0493
G01 X40.6347 Y76.0937
G00 Z3.0000
G00 X40.3148 Y76.1139
G01 F60.00
G01 Z-0.1000
G01 F60.00
G01 X40.3093 Y76.1314
G01 X40.2817 Y76.2114
G01 X40.2688 Y76.2463
G01 X39.9895 Y76.1366
G01 X39.9723 Y76.1828
G01 X39.9469 Y76.2463
G01 X39.6677 Y76.1366
G01 X39.6389 Y76.2041
G01 X39.6196 Y76.2463
G00 Z3.0000
G00 X39.3886 Y76.0267
G01 F60.00
G01 Z-0.1000
G01 F60.00
G01 X39.3646 Y76.0825
G01 X39.3386 Y76.1394
G01 X39.3111 Y76.1957
G01 X39.2823 Y76.2512
G01 X39.2527 Y76.3050
G00 Z3.0000
G00 X38.9877 Y76.6870
G01 F60.00
G01 Z-0.1000
G01 F60.00
G01 X38.9643 Y76.7148
G01 X38.9228 Y76.7616
G01 X38.8802 Y76.8075
G01 X38.8667 Y76.8214
G00 Z3.0000
G00 X38.6685 Y76.5946
G01 F60.00
G01 Z-0.1000
G01 F60.00
G01 X38.7005 Y76.5602
G01 X38.7371 Y76.5188
G01 X38.7727 Y76.4766
G01 X38.8072 Y76.4334
G01 X38.8406 Y76.3895
G01 X38.8730 Y76.3447
G01 X38.9042 Y76.2992
G01 X38.9343 Y76.2529
G01 X38.9633 Y76.2059
G01 X38.9911 Y76.1582
G01 X39.0177 Y76.1098
G01 X39.0432 Y76.0608
G01 X39.0674 Y76.0112
G01 X39.0904 Y75.9610
G01 X39.1121 Y75.9102
G01 X39.1326 Y75.8589
G01 X39.1519 Y75.8072
G01 X39.1698 Y75.7550
G01 X39.1865 Y75.7023
G01 X39.2019 Y75.6493
G01 X39.2160 Y75.5959
G01 X39.2287 Y75.5421
G01 X39.2402 Y75.4881
G01 X39.2503 Y75.4338
G01 X39.2590 Y75.3793
G01 X39.2665 Y75.3246
G01 X39.2726 Y75.2697
G01 X39.2773 Y75.2147
G01 X39.2807 Y75.1596
G01 X39.2827 Y75.1044
G01 X39.2834 Y75.0492
G01 X39.2827 Y74.9940
G01 X39.2807 Y74.9388
G01 X39.2773 Y74.8836
G01 X39.2726 Y74.8286
G01 X39.2665 Y74.7737
G01 X39.2590 Y74.7190
G01 X39.2503 Y74.6645
G01 X39.2411 Y74.6155
G00 Z3.0000
G00 X38.9466 Y74.6721
G01 F60.00
G01 Z-0.1000
G01 F60.00
G01 X38.9547 Y74.7158
G01 X38.9623 Y74.7630
G01 X38.9687 Y74.8105
G01 X38.9740 Y74.8580
G01 X38.9781 Y74.9057
G01 X38.9810 Y74.9535
G01 X38.9828 Y75.0013
G01 X38.9834 Y75.0492
G01 X38.9828 Y75.0970
G01 X38.9810 Y75.1449
G01 X38.9781 Y75.1926
G01 X38.9740 Y75.2403
G01 X38.9687 Y75.2879
G01 X38.9623 Y75.3353
G01 X38.9547 Y75.3825
G01 X38.9459 Y75.4296
G01 X38.9360 Y75.4764
G01 X38.9250 Y75.5230
G01 X38.9128 Y75.5693
G01 X38.8994 Y75.6152
G01 X38.8850 Y75.6608
G01 X38.8694 Y75.7061
G01 X38.8527 Y75.7510
G01 X38.8350 Y75.7954
G01 X38.8161 Y75.8394
G01 X38.7962 Y75.8829
G01 X38.7752 Y75.9259
G01 X38.7531 Y75.9684
G01 X38.7301 Y76.0103
G01 X38.7060 Y76.0517
G01 X38.6809 Y76.0924
G01 X38.6548 Y76.1325
G01 X38.6277 Y76.1720
G01 X38.5997 Y76.2108
G01 X38.5707 Y76.2489
G01 X38.5408 Y76.2862
G01 X38.5100 Y76.3229
G01 X38.4783 Y76.3587
G01 X38.4457 Y76.3938
G01 X38.4123 Y76.4280
G01 X38.3780 Y76.4615
G01 X38.3429 Y76.4940
G01 X38.3071 Y76.5257
G01 X38.2705 Y76.5565
G01 X38.2534 Y76.5702
G00 Z3.0000
G00 X38.1347 Y76.2778
G01 F60.00
G01 Z-0.1000
G01 F60.00
G01 X38.1711 Y76.2442
G01 X38.2001 Y76.2159
G01 X38.2284 Y76.1869
G01 X38.2560 Y76.1572
G01 X38.2828 Y76.1269
G01 X38.3089 Y76.0959
G01 X38.3342 Y76.0643
G01 X38.3587 Y76.0321
G01 X38.3824 Y75.9993
G01 X38.4053 Y75.9659
G01 X38.4274 Y75.9319
G01 X38.4487 Y75.8974
G01 X38.4690 Y75.8625
G01 X38.4886 Y75.8270
G01 X38.5072 Y75.7910
G01 X38.5250 Y75.7546
G01 X38.5418 Y75.7178
G01 X38.5578 Y75.6806
G01 X38.5728 Y75.6430
G01 X38.5869 Y75.6050
G01 X38.6001 Y75.5667
G01 X38.6123 Y75.5281
G01 X38.6236 Y75.4892
G01 X38.6339 Y75.4501
G01 X38.6433 Y75.4107
G01 X38.6517 Y75.3711
G01 X38.6591 Y75.3313
G01 X38.6655 Y75.2913
G01 X38.6710 Y75.2511
G01 X38.6755 Y75.2109
G01 X38.6789 Y75.1706
G01 X38.6814 Y75.1301
G01 X38.6829 Y75.0897
G01 X38.6834 Y75.0492
G01 X38.6829 Y75.0087
G01 X38.6814 Y74.9682
G01 X38.6789 Y74.9278
G01 X38.6755 Y74.8874
G01 X38.6710 Y74.8472
G01 X38.6655 Y74.8071
G01 X38.6591 Y74.7671
G01 X38.6517 Y74.7273
G01 X38.6433 Y74.6877
G01 X38.6339 Y74.6483
G01 X38.6236 Y74.6091
G01 X38.6123 Y74.5702
G01 X38.5971 Y74.5227
G00 Z3.0000
G00 X38.3018 Y74.5872
G01 F60.00
G01 Z-0.1000
G01 F60.00
G01 X38.3153 Y74.6257
G01 X38.3253 Y74.6573
G01 X38.3345 Y74.6891
G01 X38.3429 Y74.7211
G01 X38.3506 Y74.7534
G01 X38.3575 Y74.7858
G01 X38.3635 Y74.8184
G01 X38.3688 Y74.8511
G01 X38.3732 Y74.8839
G01 X38.3769 Y74.9168
G01 X38.3797 Y74.9499
G01 X38.3818 Y74.9829
G01 X38.3830 Y75.0160
G01 X38.3834 Y75.0492
G01 X38.3830 Y75.0823
G01 X38.3818 Y75.1154
G01 X38.3797 Y75.1485
G01 X38.3769 Y75.1815
G01 X38.3732 Y75.2144
G01 X38.3688 Y75.2473
G01 X38.3635 Y75.2800
G01 X38.3575 Y75.3125
G01 X38.3506 Y75.3450
G01 X38.3429 Y75.3772
G01 X38.3345 Y75.4092
G01 X38.3253 Y75.4411
G01 X38.3153 Y75.4726
G01 X38.3045 Y75.5040
G01 X38.2897 Y75.5430
G00 Z3.0000
G00 X37.6065 Y75.9289
G01 F60.00
G01 Z-0.1000
G01 F60.00
G01 X37.5732 Y75.9498
G01 X37.5509 Y75.9628
G01 X37.5284 Y75.9752
G01 X37.5055 Y75.9871
G01 X37.4823 Y75.9984
G01 X37.4589 Y76.0091
G01 X37.4352 Y76.0192
G01 X37.4113 Y76.0288
G01 X37.3871 Y76.0378
G01 X37.3628 Y76.0462
G01 X37.3382 Y76.0540
G01 X37.3134 Y76.0611
G01 X37.2885 Y76.0677
G01 X37.2635 Y76.0737
G01 X37.2382 Y76.0790
G01 X37.2129 Y76.0837
G01 X37.1875 Y76.0878
G01 X37.1619 Y76.0913
G01 X37.1363 Y76.0941
G01 X37.1106 Y76.0963
G01 X37.0849 Y76.0979
G01 X37.0592 Y76.0989
G01 X37.0334 Y76.0992
G01 X37.0076 Y76.0989
G01 X36.9819 Y76.0979
G01 X36.9562 Y76.0963
G01 X36.9305 Y76.0941
G01 X36.9049 Y76.0913
G01 X36.8793 Y76.0878
G01 X36.8539 Y76.0837
G01 X36.8286 Y76.0790
G01 X36.8033 Y76.0737
G01 X36.7783 Y76.0677
G01 X36.7533 Y76.0611
G01 X36.7286 Y76.0540
G01 X36.7040 Y76.0462
G01 X36.6797 Y76.0378
G01 X36.6555 Y76.0288
G01 X36.6316 Y76.0192
G01 X36.6079 Y76.0091
G01 X36.5845 Y75.9984
G01 X36.5613 Y75.9871
G01 X36.5384 Y75.9752
G01 X36.5159 Y75.9628
G01 X36.4936 Y75.9498
G01 X36.4717 Y75.9363
G01 X36.4500 Y75.9222
G01 X36.4288 Y75.9076
G01 X36.4079 Y75.8925
G01 X36.3874 Y75.8769
G01 X36.3673 Y75.8608
G01 X36.3476 Y75.8442
G01 X36.3283 Y75.8272
G01 X36.3094 Y75.8096
G01 X36.2909 Y75.7916
G01 X36.2729 Y75.7732
G01 X36.2554 Y75.7543
G01 X36.2383 Y75.7350
G01 X36.2217 Y75.7153
G01 X36.2056 Y75.6952
G01 X36.1900 Y75.6747
G01 X36.1749 Y75.6538
G01 X36.1604 Y75.6325
G01 X36.1463 Y75.6109
G01 X36.1328 Y75.5890
G01 X36.1198 Y75.5667
G01 X36.1097 Y75.5484
G00 Z3.0000
G00 X35.8102 Y75.6201
G01 F60.00
G01 Z-0.1000
G01 F60.00
G01 X35.8275 Y75.6561
G01 X35.8428 Y75.6856
G01 X35.8588 Y75.7146
G01 X35.8755 Y75.7432
G01 X35.8928 Y75.7714
G01 X35.9109 Y75.7992
G01 X35.9297 Y75.8265
G01 X35.9491 Y75.8534
G01 X35.9691 Y75.8797
G01 X35.9898 Y75.9056
G01 X36.0112 Y75.9310
G01 X36.0331 Y75.9558
G01 X36.0557 Y75.9800
G01 X36.0788 Y76.0038
G01 X36.1025 Y76.0269
G01 X36.1268 Y76.0495
G01 X36.1516 Y76.0714
G01 X36.1770 Y76.0927
G01 X36.2028 Y76.1134
G01 X36.2292 Y76.1335
G01 X36.2561 Y76.1529
G01 X36.2834 Y76.1717
G01 X36.3112 Y76.1897
G01 X36.3394 Y76.2071
G01 X36.3680 Y76.2238
G01 X36.3970 Y76.2398
G01 X36.4264 Y76.2550
G01 X36.4562 Y76.2696
G01 X36.4863 Y76.2834
G01 X36.5168 Y76.2964
G01 X36.5475 Y76.3087
G01 X36.5786 Y76.3203
G01 X36.6099 Y76.3310
G01 X36.6415 Y76.3410
G01 X36.6733 Y76.3503
G01 X36.7054 Y76.3587
G01 X36.7376 Y76.3664
G01 X36.7700 Y76.3732
G01 X36.8026 Y76.3793
G01 X36.8353 Y76.3846
G01 X36.8681 Y76.3890
G01 X36.9011 Y76.3927
G01 X36.9341 Y76.3955
G01 X36.9672 Y76.3975
G01 X37.0003 Y76.3988
G01 X37.0334 Y76.3992
G01 X37.0665 Y76.3988
G01 X37.0996 Y76.3975
G01 X37.1327 Y76.3955
G01 X37.1657 Y76.3927
G01 X37.1987 Y76.3890
G01 X37.2315 Y76.3846
G01 X37.2642 Y76.3793
G01 X37.2853 Y76.3754
G00 Z3.0000
G00 X37.6258 Y76.9068
G01 F60.00
G01 Z-0.1000
G01 F60.00
G01 X37.6296 Y76.9057
G00 Z3.0000
G00 X37.6296 Y77.2187
G01 F60.00
G01 Z-0.1000
G01 F60.00
G01 X37.6258 Y77.2197
G01 X37.6296 Y77.5283
G01 X37.6258 Y77.5292
G01 X37.6296 Y77.8359
G01 X37.5970 Y77.8428
G00 Z3.0000
G00 X37.6762 Y78.1327
G01 F60.00
G01 Z-0.1000
G01 F60.00
G01 X37.6479 Y78.1386
G01 X37.5719 Y78.1528
G01 X37.4956 Y78.1651
G01 X37.4190 Y78.1755
G01 X37.3422 Y78.1840
G01 X37.2783 Y78.1895
G01 X37.4070 Y78.4786
G01 X37.4557 Y78.4732
G01 X37.5396 Y78.4618
G01 X37.5869 Y78.4542
G00 Z3.0000
G00 X37.6166 Y78.7533
G01 F60.00
G01 Z-0.1000
G01 F60.00
G01 X37.6745 Y78.7440
G01 X37.7737 Y78.7253
G00 Z3.0000
G00 X38.4153 Y78.8559
G01 F60.00
G01 Z-0.1000
G01 F60.00
G01 X38.4910 Y78.8278
G01 X38.5833 Y78.7909
G01 X38.6746 Y78.7517
G01 X38.7650 Y78.7103
G01 X38.8543 Y78.6667
G01 X38.9426 Y78.6210
G01 X38.9987 Y78.5900
G00 Z3.0000
G00 X38.9118 Y78.2945
G01 F60.00
G01 Z-0.1000
G01 F60.00
G01 X38.9613 Y78.2657
G01 X39.0132 Y78.2337
G01 X38.8703 Y77.9693
G01 X38.9501 Y77.9177
G01 X38.9837 Y77.8947
G01 X38.8740 Y77.6052
G01 X38.9099 Y77.5793
G01 X38.9714 Y77.5325
G01 X38.9837 Y77.5226
G01 X38.8740 Y77.2248
G01 X38.8949 Y77.2072
G01 X38.9473 Y77.1609
G01 X38.9837 Y77.1271
G00 Z3.0000
G00 X38.3132 Y78.1144
G01 F60.00
G01 Z-0.1000
G01 F60.00
G01 X38.2998 Y78.0960
G01 X38.2900 Y78.0803
G01 X38.2812 Y78.0642
G01 X38.2733 Y78.0474
G01 X38.2664 Y78.0303
G01 X38.2605 Y78.0128
G01 X38.2557 Y77.9949
G01 X38.2518 Y77.9765
G01 X38.2479 Y77.9949
G01 X38.2431 Y78.0128
G01 X38.2372 Y78.0303
G01 X38.2303 Y78.0474
G01 X38.2224 Y78.0642
G01 X38.2136 Y78.0803
G01 X38.2038 Y78.0960
G01 X38.1904 Y78.1144
G01 X38.2078 Y78.1305
G01 X38.2245 Y78.1486
G01 X38.2323 Y78.1581
G01 X38.2397 Y78.1680
G01 X38.2518 Y78.1859
G01 X38.2639 Y78.1680
G01 X38.2713 Y78.1581
G01 X38.2791 Y78.1486
G01 X38.2958 Y78.1305
G01 X38.3132 Y78.1144
G00 Z3.0000
G00 X36.4986 Y78.1534
G01 F60.00
G01 Z-0.1000
G01 F60.00
G01 X36.4189 Y78.1386
G01 X36.3432 Y78.1226
G01 X36.2680 Y78.1048
G01 X36.1933 Y78.0851
G01 X36.1741 Y78.0795
G01 X36.1741 Y78.3902
G01 X36.1951 Y78.3958
G01 X36.2775 Y78.4153
G01 X36.3603 Y78.4329
G01 X36.4006 Y78.4404
G00 Z3.0000
G00 X36.1936 Y78.7037
