(G-CODE GENERATED BY FLATCAM v8.994 - www.flatcam.org - Version Date: 2020/11/7)

(Name: copper_bottom.gbr_ncc_cnc)
(Type: G-code from Geometry)
(Units: MM)

(Created on Wednesday, 09 August 2023 at 20:49)

(This preprocessor is the default preprocessor used by FlatCAM.)
(It is made to work with MACH3 compatible motion controllers.)

(TOOL DIAMETER: 1.0 mm)
(Feedrate_XY: 60.0 mm/min)
(Feedrate_Z: 60.0 mm/min)
(Feedrate rapids 1500.0 mm/min)

(Z_Cut: -0.1 mm)
(Z_Move: 3.0 mm)
(Z Start: None mm)
(Z End: 15.0 mm)
(X,Y End: None mm)
(Steps per circle: 64)
(Preprocessor Geometry: default)

(X range:   20.2661 ...   89.8889  mm)
(Y range:   21.0611 ...   89.7339  mm)

(Spindle Speed: 0.0 RPM)
G21
G90
G94

G01 F60.00

M5
G00 Z15.0000
G00 X0.0000 Y0.0000
T1
M6    
(MSG, Change to Tool Dia = 1.0000)
M0
G00 Z15.0000

M03
G01 F60.00
G00 X20.7736 Y21.4976
G01 F60.00
G01 Z-0.1000
G01 F60.00
G01 X20.7930 Y21.4813
G01 X20.8031 Y21.4735
G01 X20.8411 Y21.4454
G01 X20.8603 Y21.4321
G01 X20.8800 Y21.4198
G01 X20.8582 Y21.4327
G01 X20.7898 Y21.4833
G01 X20.7736 Y21.4976
G00 Z3.0000
G00 X20.8848 Y21.4169
G01 F60.00
G01 Z-0.1000
G01 F60.00
G01 X20.8957 Y21.4106
G01 X20.9157 Y21.4000
G01 X20.9596 Y21.3783
G01 X20.9820 Y21.3683
G01 X20.9934 Y21.3637
G01 X20.9735 Y21.3714
G01 X20.9026 Y21.4064
G01 X20.8848 Y21.4169
G00 Z3.0000
G00 X20.9943 Y21.3633
G01 F60.00
G01 Z-0.1000
G01 F60.00
G01 X21.0123 Y21.3565
G01 X21.0377 Y21.3481
G01 X21.0987 Y21.3309
G01 X21.1299 Y21.3243
G01 X21.1425 Y21.3220
G01 X21.1680 Y21.3184
G01 X21.2177 Y21.3133
G01 X21.2426 Y21.3116
G01 X21.2700 Y21.3111
G01 X21.2339 Y21.3116
G01 X21.1518 Y21.3200
G01 X21.1018 Y21.3297
G01 X21.0216 Y21.3526
G01 X20.9943 Y21.3633
G00 Z3.0000
G00 X20.6768 Y21.5997
G01 F60.00
G01 Z-0.1000
G01 F60.00
G01 X20.6931 Y21.5796
G01 X20.7079 Y21.5631
G01 X20.7405 Y21.5288
G01 X20.7589 Y21.5107
G01 X20.7685 Y21.5021
G01 X20.7519 Y21.5167
G01 X20.6939 Y21.5778
G01 X20.6768 Y21.5997
G00 Z3.0000
G00 X20.6021 Y21.7153
G01 F60.00
G01 Z-0.1000
G01 F60.00
G01 X20.6162 Y21.6896
G01 X20.6283 Y21.6700
G01 X20.6601 Y21.6221
G01 X20.6748 Y21.6022
G01 X20.6621 Y21.6184
G01 X20.6165 Y21.6879
G01 X20.6021 Y21.7153
G00 Z3.0000
G00 X20.5161 Y22.0650
G01 F60.00
G01 Z-0.1000
G01 F60.00
G01 X20.5170 Y22.0346
G01 X20.5189 Y22.0034
G01 X20.5209 Y21.9799
G01 X20.5223 Y21.9682
G01 X20.5248 Y21.9503
G01 X20.5288 Y21.9282
G01 X20.5412 Y21.8733
G01 X20.5442 Y21.8616
G01 X20.5510 Y21.8382
G01 X20.5574 Y21.8187
G01 X20.5621 Y21.8060
G01 X20.5670 Y21.7933
G01 X20.5869 Y21.7469
G01 X20.5966 Y21.7261
G01 X20.6018 Y21.7158
G01 X20.5926 Y21.7334
G01 X20.5604 Y21.8088
G01 X20.5449 Y21.8575
G01 X20.5264 Y21.9377
G01 X20.5200 Y21.9857
G01 X20.5161 Y22.0498
G01 X20.5161 Y22.0650
G00 Z3.0000
G00 X35.5838 Y23.5919
G01 F60.00
G01 Z-0.1000
G01 F60.00
G01 X35.5413 Y23.5930
G01 X35.5288 Y23.5931
G01 X35.5063 Y23.5924
G01 X35.5106 Y23.6101
G01 X35.5154 Y23.6342
G01 X35.5299 Y23.7325
G01 X35.5313 Y23.7447
G01 X35.5331 Y23.7691
G01 X35.5372 Y23.8561
G01 X35.5374 Y25.3924
G01 X35.5368 Y25.4169
G01 X35.5324 Y25.5039
G01 X35.5299 Y25.5283
G01 X35.5283 Y25.5405
G01 X35.5173 Y25.6145
G01 X35.5131 Y25.6387
G01 X35.5077 Y25.6626
G01 X35.4864 Y25.7471
G01 X35.4830 Y25.7588
G01 X35.4753 Y25.7822
G01 X35.4458 Y25.8641
G01 X35.4365 Y25.8868
G01 X35.4103 Y25.9424
G01 X35.4103 Y28.0708
G01 X35.4266 Y28.0890
G01 X35.4422 Y28.1080
G01 X35.5081 Y28.1966
G01 X35.5222 Y28.2166
G01 X35.5289 Y28.2269
G01 X35.5450 Y28.2535
G01 X35.5611 Y28.2269
G01 X35.5678 Y28.2166
G01 X35.5819 Y28.1966
G01 X35.6478 Y28.1080
G01 X35.6634 Y28.0890
G01 X35.6797 Y28.0708
G01 X35.6797 Y25.9424
G01 X35.6587 Y25.8979
G01 X35.6487 Y25.8755
G01 X35.6399 Y25.8526
G01 X35.6107 Y25.7705
G01 X35.6070 Y25.7588
G01 X35.6004 Y25.7352
G01 X35.5794 Y25.6507
G01 X35.5746 Y25.6266
G01 X35.5727 Y25.6145
G01 X35.5617 Y25.5405
G01 X35.5587 Y25.5161
G01 X35.5569 Y25.4917
G01 X35.5528 Y25.4047
G01 X35.5528 Y23.8561
G01 X35.5569 Y23.7691
G01 X35.5576 Y23.7569
G01 X35.5601 Y23.7325
G01 X35.5746 Y23.6342
G01 X35.5794 Y23.6101
G01 X35.5838 Y23.5919
G00 Z3.0000
G00 X35.5526 Y24.5362
G01 F60.00
G01 Z-0.1000
G01 F60.00
G01 X35.5374 Y24.5584
G00 Z3.0000
G00 X35.5707 Y25.6009
G01 F60.00
G01 Z-0.1000
G01 F60.00
G01 X35.4907 Y25.7307
G01 X35.6797 Y26.5768
G01 X35.4698 Y26.9368
G01 X35.4103 Y27.0450
G01 X35.6797 Y27.8025
G01 X35.4888 Y28.1705
G00 Z3.0000
G00 X37.9503 Y27.4573
G01 F60.00
G01 Z-0.1000
G01 F60.00
G01 X38.1258 Y27.1726
G01 X38.2197 Y27.0282
G01 X37.9503 Y26.3439
G01 X38.2197 Y25.9513
G00 Z3.0000
G00 X38.0774 Y25.1218
G01 F60.00
G01 Z-0.1000
G01 F60.00
G01 X38.0926 Y25.1007
G01 X38.0774 Y24.1359
G01 X38.0926 Y24.1169
G00 Z3.0000
G00 X38.1238 Y23.5919
G01 F60.00
G01 Z-0.1000
G01 F60.00
G01 X38.0813 Y23.5930
G01 X38.0688 Y23.5931
G01 X38.0463 Y23.5924
G01 X38.0506 Y23.6101
G01 X38.0554 Y23.6342
G01 X38.0699 Y23.7325
G01 X38.0713 Y23.7447
G01 X38.0731 Y23.7691
G01 X38.0772 Y23.8561
G01 X38.0774 Y25.3924
G01 X38.0768 Y25.4169
G01 X38.0724 Y25.5039
G01 X38.0699 Y25.5283
G01 X38.0683 Y25.5405
G01 X38.0573 Y25.6145
G01 X38.0531 Y25.6387
G01 X38.0477 Y25.6626
G01 X38.0264 Y25.7471
G01 X38.0230 Y25.7588
G01 X38.0153 Y25.7822
G01 X37.9858 Y25.8641
G01 X37.9765 Y25.8868
G01 X37.9503 Y25.9424
G01 X37.9503 Y28.0708
G01 X37.9666 Y28.0890
G01 X37.9822 Y28.1080
G01 X38.0481 Y28.1966
G01 X38.0622 Y28.2166
G01 X38.0689 Y28.2269
G01 X38.0850 Y28.2535
G01 X38.1011 Y28.2269
G01 X38.1078 Y28.2166
G01 X38.1219 Y28.1966
G01 X38.1878 Y28.1080
G01 X38.2034 Y28.0890
G01 X38.2197 Y28.0708
G01 X38.2197 Y25.9424
G01 X38.1987 Y25.8979
G01 X38.1887 Y25.8755
G01 X38.1799 Y25.8526
G01 X38.1507 Y25.7705
G01 X38.1470 Y25.7588
G01 X38.1404 Y25.7352
G01 X38.1194 Y25.6507
G01 X38.1146 Y25.6266
G01 X38.1127 Y25.6145
G01 X38.1017 Y25.5405
G01 X38.0987 Y25.5161
G01 X38.0969 Y25.4917
G01 X38.0928 Y25.4047
G01 X38.0928 Y23.8561
G01 X38.0969 Y23.7691
G01 X38.0976 Y23.7569
G01 X38.1001 Y23.7325
G01 X38.1146 Y23.6342
G01 X38.1194 Y23.6101
G01 X38.1238 Y23.5919
G00 Z3.0000
G00 X40.6174 Y23.9344
G01 F60.00
G01 Z-0.1000
G01 F60.00
G01 X40.6326 Y23.9180
G00 Z3.0000
G00 X40.6638 Y23.5919
G01 F60.00
G01 Z-0.1000
G01 F60.00
G01 X40.6213 Y23.5930
G01 X40.6088 Y23.5931
G01 X40.5863 Y23.5924
G01 X40.5906 Y23.6101
G01 X40.5954 Y23.6342
G01 X40.6099 Y23.7325
G01 X40.6113 Y23.7447
G01 X40.6131 Y23.7691
G01 X40.6172 Y23.8561
G01 X40.6174 Y25.3924
G01 X40.6168 Y25.4169
G01 X40.6124 Y25.5039
G01 X40.6099 Y25.5283
G01 X40.6083 Y25.5405
G01 X40.5973 Y25.6145
G01 X40.5931 Y25.6387
G01 X40.5877 Y25.6626
G01 X40.5664 Y25.7471
G01 X40.5630 Y25.7588
G01 X40.5553 Y25.7822
G01 X40.5258 Y25.8641
G01 X40.5165 Y25.8868
G01 X40.4903 Y25.9424
G01 X40.4903 Y28.0708
G01 X40.5066 Y28.0890
G01 X40.5222 Y28.1080
G01 X40.5881 Y28.1966
G01 X40.6022 Y28.2166
G01 X40.6089 Y28.2269
G01 X40.6250 Y28.2535
G01 X40.6411 Y28.2269
G01 X40.6478 Y28.2166
G01 X40.6619 Y28.1966
G01 X40.7278 Y28.1080
G01 X40.7434 Y28.0890
G01 X40.7597 Y28.0708
G01 X40.7597 Y25.9424
G01 X40.7387 Y25.8979
G01 X40.7287 Y25.8755
G01 X40.7199 Y25.8526
G01 X40.6907 Y25.7705
G01 X40.6870 Y25.7588
G01 X40.6804 Y25.7352
G01 X40.6594 Y25.6507
G01 X40.6546 Y25.6266
G01 X40.6527 Y25.6145
G01 X40.6417 Y25.5405
G01 X40.6387 Y25.5161
G01 X40.6369 Y25.4917
G01 X40.6328 Y25.4047
G01 X40.6328 Y23.8561
G01 X40.6369 Y23.7691
G01 X40.6376 Y23.7569
G01 X40.6401 Y23.7325
G01 X40.6546 Y23.6342
G01 X40.6594 Y23.6101
G01 X40.6638 Y23.5919
G00 Z3.0000
G00 X40.6326 Y24.8145
G01 F60.00
G01 Z-0.1000
G01 F60.00
G01 X40.6174 Y24.8317
G00 Z3.0000
G00 X40.6707 Y25.6964
G01 F60.00
G01 Z-0.1000
G01 F60.00
G01 X40.5139 Y25.8923
G00 Z3.0000
G00 X40.7597 Y26.5490
G01 F60.00
G01 Z-0.1000
G01 F60.00
G01 X40.5086 Y26.8790
G01 X40.4903 Y26.9043
G01 X40.7597 Y27.5558
G01 X40.7015 Y27.6363
G01 X40.4903 Y27.9441
G00 Z3.0000
G00 X40.6753 Y29.9215
G01 F60.00
G01 Z-0.1000
G01 F60.00
G01 X40.4903 Y30.2577
G01 X40.7597 Y31.0422
G01 X40.5920 Y31.3857
G01 X40.4903 Y31.6077
G01 X40.9063 Y32.1473
G01 X40.7823 Y32.4365
G01 X40.6210 Y32.8399
G01 X40.4903 Y33.1915
G01 X41.3453 Y32.6459
G01 X41.3367 Y32.6661
G01 X41.1808 Y33.0558
G01 X41.0346 Y33.4492
G01 X40.8981 Y33.8460
G01 X40.7713 Y34.2461
G01 X40.6544 Y34.6492
G01 X40.5475 Y35.0550
G01 X40.4903 Y35.2957
G01 X40.9465 Y36.0209
G01 X40.9520 Y35.9910
G01 X41.0359 Y35.5948
G01 X41.1295 Y35.2008
G01 X41.2327 Y34.8092
G01 X41.3455 Y34.4203
G01 X41.4678 Y34.0343
G01 X41.5995 Y33.6513
G01 X41.7406 Y33.2717
G01 X41.8065 Y33.1071
G01 X42.2697 Y33.5703
G01 X42.1644 Y33.8535
G01 X42.0375 Y34.2225
G01 X41.9196 Y34.5945
G01 X41.8110 Y34.9693
G01 X41.7115 Y35.3466
G01 X41.6213 Y35.7263
G01 X41.5405 Y36.1081
G01 X41.4691 Y36.4917
G01 X41.4619 Y36.5363
G01 X42.0264 Y36.8047
G01 X42.0603 Y36.5943
G01 X42.1290 Y36.2251
G01 X42.2068 Y35.8578
G01 X42.2935 Y35.4924
G01 X42.3892 Y35.1293
G01 X42.4938 Y34.7686
G01 X42.6072 Y34.4107
G01 X42.7294 Y34.0556
G01 X42.7363 Y34.0369
G01 X43.2080 Y34.5086
G01 X43.1769 Y34.5989
G01 X43.0680 Y34.9428
G01 X42.9675 Y35.2893
G01 X42.8755 Y35.6382
G01 X42.7922 Y35.9892
G01 X42.7175 Y36.3422
G01 X42.6514 Y36.6969
G01 X42.6341 Y36.8047
G01 X43.2417 Y36.8047
G01 X43.3059 Y36.4592
G01 X43.3776 Y36.1207
G01 X43.4576 Y35.7840
G01 X43.5458 Y35.4494
G01 X43.6421 Y35.1170
G01 X43.6841 Y34.9846
G01 X44.1656 Y35.4661
G01 X44.1240 Y35.6094
G01 X44.0396 Y35.9298
G01 X43.9630 Y36.2521
G01 X43.8944 Y36.5763
G01 X43.8519 Y36.8047
G01 X44.4621 Y36.8047
G01 X44.4829 Y36.6933
G01 X44.5484 Y36.3836
G01 X44.6216 Y36.0756
G01 X44.6857 Y35.8325
G00 Z3.0000
G00 X45.2956 Y35.8776
G01 F60.00
G01 Z-0.1000
G01 F60.00
G01 X45.2806 Y35.9294
G01 X45.2036 Y36.2213
G01 X45.1339 Y36.5151
G01 X45.0725 Y36.8047
G01 X45.6858 Y36.8047
G01 X45.7193 Y36.6465
G01 X45.7856 Y36.3671
G01 X45.8588 Y36.0895
G01 X45.9388 Y35.8137
G01 X46.0255 Y35.5399
G01 X46.1189 Y35.2684
G01 X46.2190 Y34.9992
G01 X46.3256 Y34.7326
G01 X46.4387 Y34.4687
G01 X46.5583 Y34.2076
G01 X46.6843 Y33.9495
G01 X46.8165 Y33.6947
G01 X46.9550 Y33.4431
G01 X47.0996 Y33.1950
G01 X47.2502 Y32.9505
G01 X47.4068 Y32.7098
G01 X47.5693 Y32.4730
G01 X47.7375 Y32.2403
G01 X47.9113 Y32.0118
G01 X48.0908 Y31.7876
G01 X48.2757 Y31.5679
G01 X48.4659 Y31.3528
G01 X48.6613 Y31.1424
G01 X48.8619 Y30.9369
G01 X49.0674 Y30.7363
G01 X49.2778 Y30.5409
G01 X49.2883 Y30.5316
G00 Z3.0000
G00 X48.6684 Y30.2880
G01 F60.00
G01 Z-0.1000
G01 F60.00
G01 X48.6537 Y30.3018
G01 X48.4376 Y30.5126
G01 X48.2268 Y30.7287
G01 X48.0213 Y30.9498
G01 X47.8213 Y31.1760
G01 X47.6270 Y31.4070
G01 X47.4383 Y31.6427
G01 X47.2555 Y31.8829
G01 X47.0787 Y32.1276
G01 X46.9079 Y32.3765
G01 X46.7433 Y32.6295
G01 X46.5849 Y32.8865
G01 X46.4329 Y33.1474
G01 X46.2874 Y33.4118
G01 X46.1483 Y33.6798
G01 X46.0159 Y33.9511
G01 X45.9636 Y34.0653
G00 Z3.0000
G00 X45.5167 Y33.6061
G01 F60.00
G01 Z-0.1000
G01 F60.00
G01 X45.6124 Y33.4100
G01 X45.7582 Y33.1290
G01 X45.9109 Y32.8516
G01 X46.0703 Y32.5781
G01 X46.2364 Y32.3085
G01 X46.4090 Y32.0431
G01 X46.5882 Y31.7821
G01 X46.7736 Y31.5255
G01 X46.9653 Y31.2735
G01 X47.1632 Y31.0263
G01 X47.3670 Y30.7841
G01 X47.5767 Y30.5469
G01 X47.7922 Y30.3149
G01 X47.8118 Y30.2948
G00 Z3.0000
G00 X48.2198 Y29.8868
G01 F60.00
G01 Z-0.1000
G01 F60.00
G01 X48.2512 Y29.8568
G00 Z3.0000
G00 X46.7902 Y30.5378
G01 F60.00
G01 Z-0.1000
G01 F60.00
G01 X46.6994 Y30.6457
G01 X46.4923 Y30.9044
G01 X46.2917 Y31.1681
G01 X46.0976 Y31.4366
G01 X45.9102 Y31.7098
G01 X45.7295 Y31.9875
G01 X45.5557 Y32.2696
G01 X45.3888 Y32.5559
G01 X45.2291 Y32.8461
G01 X45.0765 Y33.1402
G01 X45.0681 Y33.1575
G01 X44.6227 Y32.7121
G01 X44.6999 Y32.5633
G01 X44.8668 Y32.2601
G01 X45.0410 Y31.9612
G01 X45.2226 Y31.6665
G01 X45.4113 Y31.3765
G01 X45.6071 Y31.0911
G01 X45.8098 Y30.8106
G01 X46.0193 Y30.5352
G01 X46.1873 Y30.3253
G00 Z3.0000
G00 X45.7490 Y29.9129
G01 F60.00
G01 Z-0.1000
G01 F60.00
G01 X45.5463 Y30.1661
G01 X45.3278 Y30.4532
G01 X45.1165 Y30.7456
G01 X44.9124 Y31.0431
G01 X44.7157 Y31.3455
G01 X44.5264 Y31.6527
G01 X44.3447 Y31.9644
G01 X44.1780 Y32.2674
G01 X43.7363 Y31.8257
G01 X43.8227 Y31.6687
G01 X44.0118 Y31.3442
G01 X44.2087 Y31.0245
G01 X44.4135 Y30.7098
G01 X44.5258 Y30.5461
G00 Z3.0000
G00 X43.8729 Y30.4406
G01 F60.00
G01 Z-0.1000
G01 F60.00
G01 X43.7018 Y30.7035
G01 X43.4971 Y31.0358
G01 X43.3006 Y31.3729
G01 X43.2945 Y31.3840
G01 X43.0303 Y30.6497
G01 X43.1949 Y30.3825
G01 X43.3728 Y30.1091
G00 Z3.0000
G00 X43.0303 Y27.5514
G01 F60.00
G01 Z-0.1000
G01 F60.00
G01 X43.2781 Y27.2569
G01 X43.2997 Y27.2325
G01 X43.0303 Y26.6314
G01 X43.1310 Y26.5175
G01 X43.2997 Y26.3360
G01 X43.1328 Y25.6404
G01 X43.1881 Y25.5837
G00 Z3.0000
G00 X43.1574 Y24.7676
G01 F60.00
G01 Z-0.1000
G01 F60.00
G01 X43.1726 Y24.7528
G01 X43.1574 Y23.9432
G01 X43.1726 Y23.9291
G00 Z3.0000
G00 X43.2038 Y23.5919
G01 F60.00
G01 Z-0.1000
G01 F60.00
G01 X43.1613 Y23.5930
G01 X43.1488 Y23.5931
G01 X43.1263 Y23.5924
G01 X43.1306 Y23.6101
G01 X43.1354 Y23.6342
G01 X43.1499 Y23.7325
G01 X43.1513 Y23.7447
G01 X43.1531 Y23.7691
G01 X43.1572 Y23.8561
G01 X43.1574 Y25.3924
G01 X43.1568 Y25.4169
G01 X43.1524 Y25.5039
G01 X43.1499 Y25.5283
G01 X43.1483 Y25.5405
G01 X43.1373 Y25.6145
G01 X43.1331 Y25.6387
G01 X43.1277 Y25.6626
G01 X43.1064 Y25.7471
G01 X43.1030 Y25.7588
G01 X43.0953 Y25.7822
G01 X43.0658 Y25.8641
G01 X43.0565 Y25.8868
G01 X43.0303 Y25.9424
G01 X43.0303 Y28.0708
G01 X43.0466 Y28.0890
G01 X43.0622 Y28.1080
G01 X43.1281 Y28.1966
G01 X43.1422 Y28.2166
G01 X43.1489 Y28.2269
G01 X43.1650 Y28.2535
G01 X43.1811 Y28.2269
G01 X43.1878 Y28.2166
G01 X43.2019 Y28.1966
G01 X43.2678 Y28.1080
G01 X43.2834 Y28.0890
G01 X43.2997 Y28.0708
G01 X43.2997 Y25.9424
G01 X43.2787 Y25.8979
G01 X43.2687 Y25.8755
G01 X43.2599 Y25.8526
G01 X43.2307 Y25.7705
G01 X43.2270 Y25.7588
G01 X43.2204 Y25.7352
G01 X43.1994 Y25.6507
G01 X43.1946 Y25.6266
G01 X43.1927 Y25.6145
G01 X43.1817 Y25.5405
G01 X43.1787 Y25.5161
G01 X43.1769 Y25.4917
G01 X43.1728 Y25.4047
G01 X43.1728 Y23.8561
G01 X43.1769 Y23.7691
G01 X43.1776 Y23.7569
G01 X43.1801 Y23.7325
G01 X43.1946 Y23.6342
G01 X43.1994 Y23.6101
G01 X43.2038 Y23.5919
G00 Z3.0000
G00 X45.7438 Y23.5919
G01 F60.00
G01 Z-0.1000
G01 F60.00
G01 X45.7013 Y23.5930
G01 X45.6888 Y23.5931
G01 X45.6663 Y23.5924
G01 X45.6706 Y23.6101
G01 X45.6754 Y23.6342
G01 X45.6899 Y23.7325
G01 X45.6913 Y23.7447
G01 X45.6931 Y23.7691
G01 X45.6972 Y23.8561
G01 X45.6974 Y25.3924
G01 X45.6968 Y25.4169
G01 X45.6924 Y25.5039
G01 X45.6899 Y25.5283
G01 X45.6883 Y25.5405
G01 X45.6773 Y25.6145
G01 X45.6731 Y25.6387
G01 X45.6677 Y25.6626
G01 X45.6464 Y25.7471
G01 X45.6430 Y25.7588
G01 X45.6353 Y25.7822
G01 X45.6058 Y25.8641
G01 X45.5965 Y25.8868
G01 X45.5703 Y25.9424
G01 X45.5703 Y28.0708
G01 X45.5866 Y28.0890
G01 X45.6022 Y28.1080
G01 X45.6681 Y28.1966
G01 X45.6822 Y28.2166
G01 X45.6889 Y28.2269
G01 X45.7050 Y28.2535
G01 X45.7211 Y28.2269
G01 X45.7278 Y28.2166
G01 X45.7419 Y28.1966
G01 X45.8078 Y28.1080
G01 X45.8234 Y28.0890
G01 X45.8397 Y28.0708
G01 X45.8397 Y25.9424
G01 X45.8187 Y25.8979
G01 X45.8087 Y25.8755
G01 X45.7999 Y25.8526
G01 X45.7707 Y25.7705
G01 X45.7670 Y25.7588
G01 X45.7604 Y25.7352
G01 X45.7394 Y25.6507
G01 X45.7346 Y25.6266
G01 X45.7327 Y25.6145
G01 X45.7217 Y25.5405
G01 X45.7187 Y25.5161
G01 X45.7169 Y25.4917
G01 X45.7128 Y25.4047
G01 X45.7128 Y23.8561
G01 X45.7169 Y23.7691
G01 X45.7176 Y23.7569
G01 X45.7201 Y23.7325
G01 X45.7346 Y23.6342
G01 X45.7394 Y23.6101
G01 X45.7438 Y23.5919
G00 Z3.0000
G00 X45.7126 Y24.1539
G01 F60.00
G01 Z-0.1000
G01 F60.00
G01 X45.6974 Y24.1655
G01 X45.7126 Y24.9142
G01 X45.6974 Y24.9264
G00 Z3.0000
G00 X45.7429 Y25.6652
G01 F60.00
G01 Z-0.1000
G01 F60.00
G01 X45.6467 Y25.7461
G01 X45.8397 Y26.3732
G01 X45.6513 Y26.5397
G01 X45.5703 Y26.6150
G01 X45.8397 Y27.1837
G01 X45.7576 Y27.2599
G01 X45.5703 Y27.4426
G01 X45.8397 Y28.0206
G01 X45.6680 Y28.1965
G00 Z3.0000
G00 X48.1103 Y27.6067
G01 F60.00
G01 Z-0.1000
G01 F60.00
G01 X48.3797 Y27.4018
G01 X48.1103 Y26.8562
G01 X48.3251 Y26.7010
G01 X48.3797 Y26.6635
G01 X48.1103 Y26.1208
G01 X48.3014 Y25.9896
G01 X48.3784 Y25.9396
G00 Z3.0000
G00 X48.2374 Y25.3156
G01 F60.00
G01 Z-0.1000
G01 F60.00
G01 X48.2526 Y25.3056
G01 X48.2374 Y24.6084
G01 X48.2526 Y24.5991
G01 X48.2374 Y23.9105
G01 X48.2526 Y23.9016
G00 Z3.0000
G00 X48.2838 Y23.5919
G01 F60.00
G01 Z-0.1000
G01 F60.00
G01 X48.2413 Y23.5930
G01 X48.2288 Y23.5931
G01 X48.2063 Y23.5924
G01 X48.2106 Y23.6101
G01 X48.2154 Y23.6342
G01 X48.2299 Y23.7325
G01 X48.2313 Y23.7447
G01 X48.2331 Y23.7691
G01 X48.2372 Y23.8561
G01 X48.2374 Y25.3924
G01 X48.2368 Y25.4169
G01 X48.2324 Y25.5039
G01 X48.2299 Y25.5283
G01 X48.2283 Y25.5405
G01 X48.2173 Y25.6145
G01 X48.2131 Y25.6387
G01 X48.2077 Y25.6626
G01 X48.1864 Y25.7471
G01 X48.1830 Y25.7588
G01 X48.1753 Y25.7822
G01 X48.1458 Y25.8641
G01 X48.1365 Y25.8868
G01 X48.1103 Y25.9424
G01 X48.1103 Y28.0708
G01 X48.1266 Y28.0890
G01 X48.1422 Y28.1080
G01 X48.2081 Y28.1966
G01 X48.2222 Y28.2166
G01 X48.2289 Y28.2269
G01 X48.2450 Y28.2535
G01 X48.2611 Y28.2269
G01 X48.2678 Y28.2166
G01 X48.2819 Y28.1966
G01 X48.3478 Y28.1080
G01 X48.3634 Y28.0890
G01 X48.3797 Y28.0708
G01 X48.3797 Y25.9424
G01 X48.3587 Y25.8979
G01 X48.3487 Y25.8755
G01 X48.3399 Y25.8526
G01 X48.3107 Y25.7705
G01 X48.3070 Y25.7588
G01 X48.3004 Y25.7352
G01 X48.2794 Y25.6507
G01 X48.2746 Y25.6266
G01 X48.2727 Y25.6145
G01 X48.2617 Y25.5405
G01 X48.2587 Y25.5161
G01 X48.2569 Y25.4917
G01 X48.2528 Y25.4047
G01 X48.2528 Y23.8561
G01 X48.2569 Y23.7691
G01 X48.2576 Y23.7569
G01 X48.2601 Y23.7325
G01 X48.2746 Y23.6342
G01 X48.2794 Y23.6101
G01 X48.2838 Y23.5919
G00 Z3.0000
G00 X50.7774 Y23.9846
G01 F60.00
G01 Z-0.1000
G01 F60.00
G01 X50.7926 Y23.9780
G00 Z3.0000
G00 X50.8238 Y23.5919
G01 F60.00
G01 Z-0.1000
G01 F60.00
G01 X50.7813 Y23.5930
G01 X50.7688 Y23.5931
G01 X50.7463 Y23.5924
G01 X50.7506 Y23.6101
G01 X50.7554 Y23.6342
G01 X50.7699 Y23.7325
G01 X50.7713 Y23.7447
G01 X50.7731 Y23.7691
G01 X50.7772 Y23.8561
G01 X50.7774 Y25.3924
G01 X50.7768 Y25.4169
G01 X50.7724 Y25.5039
G01 X50.7699 Y25.5283
G01 X50.7683 Y25.5405
G01 X50.7573 Y25.6145
G01 X50.7531 Y25.6387
G01 X50.7477 Y25.6626
G01 X50.7264 Y25.7471
G01 X50.7230 Y25.7588
G01 X50.7153 Y25.7822
G01 X50.6858 Y25.8641
G01 X50.6765 Y25.8868
G01 X50.6503 Y25.9424
G01 X50.6503 Y28.0708
G01 X50.6666 Y28.0890
G01 X50.6822 Y28.1080
G01 X50.7481 Y28.1966
G01 X50.7622 Y28.2166
G01 X50.7689 Y28.2269
G01 X50.7850 Y28.2535
G01 X50.8011 Y28.2269
G01 X50.8078 Y28.2166
G01 X50.8219 Y28.1966
G01 X50.8878 Y28.1080
G01 X50.9034 Y28.0890
G01 X50.9197 Y28.0708
G01 X50.9197 Y25.9424
G01 X50.8987 Y25.8979
G01 X50.8887 Y25.8755
G01 X50.8799 Y25.8526
G01 X50.8507 Y25.7705
G01 X50.8470 Y25.7588
G01 X50.8404 Y25.7352
G01 X50.8194 Y25.6507
G01 X50.8146 Y25.6266
G01 X50.8127 Y25.6145
G01 X50.8017 Y25.5405
G01 X50.7987 Y25.5161
G01 X50.7969 Y25.4917
G01 X50.7928 Y25.4047
G01 X50.7928 Y23.8561
G01 X50.7969 Y23.7691
G01 X50.7976 Y23.7569
G01 X50.8001 Y23.7325
G01 X50.8146 Y23.6342
G01 X50.8194 Y23.6101
G01 X50.8238 Y23.5919
G00 Z3.0000
G00 X50.7926 Y24.6308
G01 F60.00
G01 Z-0.1000
G01 F60.00
G01 X50.7774 Y24.6373
G01 X50.7926 Y25.2877
G01 X50.7774 Y25.2947
G00 Z3.0000
G00 X50.8991 Y25.8988
G01 F60.00
G01 Z-0.1000
G01 F60.00
G01 X50.8499 Y25.9214
G01 X50.6503 Y26.0188
G01 X50.9197 Y26.5549
G01 X50.7955 Y26.6155
G01 X50.6503 Y26.6909
G01 X50.9197 Y27.2270
G01 X50.7711 Y27.3041
G01 X50.6503 Y27.3706
G01 X50.9197 Y27.9071
G01 X50.7766 Y27.9859
G01 X50.6503 Y28.0595
G00 Z3.0000
G00 X50.9112 Y30.0198
G01 F60.00
G01 Z-0.1000
G01 F60.00
G01 X50.7435 Y30.1348
G01 X50.5227 Y30.2944
G01 X50.3059 Y30.4594
G01 X50.0932 Y30.6296
G01 X49.8848 Y30.8050
G01 X49.6807 Y30.9854
G01 X49.4811 Y31.1709
G01 X49.2861 Y31.3611
G01 X49.0959 Y31.5561
G01 X48.9104 Y31.7557
G01 X48.7300 Y31.9598
G01 X48.5546 Y32.1682
G01 X48.3844 Y32.3809
G01 X48.2194 Y32.5977
G01 X48.0598 Y32.8185
G01 X47.9057 Y33.0432
G01 X47.7571 Y33.2715
G01 X47.6142 Y33.5035
G01 X47.4770 Y33.7388
G01 X47.3457 Y33.9775
G01 X47.2202 Y34.2193
G01 X47.1007 Y34.4641
G01 X46.9873 Y34.7118
G01 X46.8799 Y34.9622
G01 X46.7788 Y35.2152
G01 X46.6839 Y35.4705
G01 X46.5952 Y35.7281
G01 X46.5130 Y35.9878
G01 X46.4371 Y36.2495
G01 X46.3677 Y36.5129
G01 X46.3047 Y36.7780
G01 X46.2991 Y36.8047
G01 X46.9150 Y36.8047
G01 X46.9497 Y36.6587
G01 X47.0154 Y36.4095
G01 X47.0871 Y36.1620
G01 X47.1650 Y35.9163
G01 X47.2488 Y35.6727
G01 X47.3386 Y35.4311
G01 X47.4343 Y35.1918
G01 X47.5358 Y34.9550
G01 X47.6431 Y34.7207
G01 X47.7561 Y34.4891
G01 X47.8748 Y34.2603
G01 X47.9991 Y34.0346
G01 X48.1288 Y33.8119
G01 X48.2640 Y33.5925
G01 X48.4046 Y33.3765
G01 X48.5504 Y33.1640
G01 X48.7013 Y32.9552
G01 X48.8574 Y32.7501
G01 X49.0184 Y32.5489
G01 X49.1843 Y32.3517
G01 X49.3550 Y32.1586
G01 X49.5304 Y31.9698
G01 X49.7104 Y31.7854
G01 X49.8948 Y31.6054
G01 X50.0836 Y31.4300
G01 X50.2767 Y31.2593
G01 X50.4739 Y31.0934
G01 X50.6751 Y30.9324
G01 X50.8802 Y30.7763
G01 X51.0890 Y30.6254
G01 X51.3015 Y30.4796
G01 X51.4154 Y30.4055
G00 Z3.0000
G00 X52.4261 Y30.5022
G01 F60.00
G01 Z-0.1000
G01 F60.00
G01 X52.2553 Y30.5961
G01 X52.0454 Y30.7185
G01 X51.8385 Y30.8459
G01 X51.6349 Y30.9785
G01 X51.4345 Y31.1159
G01 X51.2376 Y31.2582
G01 X51.0442 Y31.4054
G01 X50.8545 Y31.5572
G01 X50.6686 Y31.7136
G01 X50.4866 Y31.8746
G01 X50.3085 Y32.0400
G01 X50.1346 Y32.2096
G01 X49.9650 Y32.3835
G01 X49.7996 Y32.5616
G01 X49.6386 Y32.7436
G01 X49.4822 Y32.9295
G01 X49.3304 Y33.1192
G01 X49.1832 Y33.3126
G01 X49.0409 Y33.5095
G01 X48.9035 Y33.7099
G01 X48.7709 Y33.9135
G01 X48.6435 Y34.1204
G01 X48.5211 Y34.3303
G01 X48.4040 Y34.5432
G01 X48.2921 Y34.7588
G01 X48.1855 Y34.9772
G01 X48.0843 Y35.1981
G01 X47.9886 Y35.4214
G01 X47.8984 Y35.6470
G01 X47.8137 Y35.8748
G01 X47.7347 Y36.1046
G01 X47.6613 Y36.3362
G01 X47.5936 Y36.5695
G01 X47.5316 Y36.8047
G01 X48.1521 Y36.8047
G01 X48.1719 Y36.7296
G01 X48.2355 Y36.5104
G01 X48.3044 Y36.2928
G01 X48.3786 Y36.0769
G01 X48.4582 Y35.8630
G01 X48.5429 Y35.6510
G01 X48.6328 Y35.4413
G01 X48.7279 Y35.2337
G01 X48.8280 Y35.0286
G01 X48.9331 Y34.8260
G01 X49.0432 Y34.6260
G01 X49.1581 Y34.4288
G01 X49.2779 Y34.2345
G01 X49.4023 Y34.0432
G01 X49.5315 Y33.8550
G01 X49.6652 Y33.6700
G01 X49.8034 Y33.4883
G01 X49.9460 Y33.3101
G01 X50.0930 Y33.1355
G01 X50.2442 Y32.9645
G01 X50.3995 Y32.7973
G01 X50.5589 Y32.6339
G01 X50.7223 Y32.4745
G01 X50.8895 Y32.3192
G01 X51.0605 Y32.1680
G01 X51.2351 Y32.0210
G01 X51.4133 Y31.8784
G01 X51.5950 Y31.7402
G01 X51.7800 Y31.6065
G01 X51.9682 Y31.4773
G01 X52.1595 Y31.3529
G01 X52.3538 Y31.2331
G01 X52.5510 Y31.1182
G01 X52.7510 Y31.0081
G01 X52.9536 Y30.9030
G01 X53.1587 Y30.8029
G01 X53.3663 Y30.7078
G01 X53.5760 Y30.6179
G01 X53.7880 Y30.5332
G01 X54.0019 Y30.4536
G01 X54.0363 Y30.4418
G00 Z3.0000
G00 X53.4524 Y30.0212
G01 F60.00
G01 Z-0.1000
G01 F60.00
G01 X53.3464 Y30.0636
G01 X53.1231 Y30.1593
G01 X52.9973 Y30.2169
G00 Z3.0000
G00 X53.2673 Y28.1685
G01 F60.00
G01 Z-0.1000
G01 F60.00
G01 X53.4224 Y28.1152
G01 X53.1903 Y27.5605
G01 X53.2767 Y27.5308
G01 X53.4597 Y27.4728
G01 X53.1903 Y26.9288
G01 X53.3903 Y26.8655
G01 X53.4597 Y26.8454
G01 X53.1903 Y26.2995
G01 X53.2162 Y26.2913
G01 X53.4597 Y26.2207
G00 Z3.0000
G00 X53.2919 Y25.6447
G01 F60.00
G01 Z-0.1000
G01 F60.00
G01 X53.3546 Y25.6265
G00 Z3.0000
G00 X53.3174 Y25.0153
G01 F60.00
G01 Z-0.1000
G01 F60.00
G01 X53.3326 Y25.0113
G01 X53.3174 Y24.3949
G01 X53.3326 Y24.3909
G00 Z3.0000
G00 X53.3135 Y23.7766
G01 F60.00
G01 Z-0.1000
G01 F60.00
G01 X53.3368 Y23.7710
G00 Z3.0000
G00 X53.3638 Y23.5919
G01 F60.00
G01 Z-0.1000
G01 F60.00
G01 X53.3213 Y23.5930
G01 X53.3088 Y23.5931
G01 X53.2863 Y23.5924
G01 X53.2906 Y23.6101
G01 X53.2954 Y23.6342
G01 X53.3099 Y23.7325
G01 X53.3113 Y23.7447
G01 X53.3131 Y23.7691
G01 X53.3172 Y23.8561
G01 X53.3174 Y25.3924
G01 X53.3168 Y25.4169
G01 X53.3124 Y25.5039
G01 X53.3099 Y25.5283
G01 X53.3083 Y25.5405
G01 X53.2973 Y25.6145
G01 X53.2931 Y25.6387
G01 X53.2877 Y25.6626
G01 X53.2664 Y25.7471
G01 X53.2630 Y25.7588
G01 X53.2553 Y25.7822
G01 X53.2258 Y25.8641
G01 X53.2165 Y25.8868
G01 X53.1903 Y25.9424
G01 X53.1903 Y28.0708
G01 X53.2066 Y28.0890
G01 X53.2222 Y28.1080
G01 X53.2881 Y28.1966
G01 X53.3022 Y28.2166
G01 X53.3089 Y28.2269
G01 X53.3250 Y28.2535
G01 X53.3411 Y28.2269
G01 X53.3478 Y28.2166
G01 X53.3619 Y28.1966
G01 X53.4278 Y28.1080
G01 X53.4434 Y28.0890
G01 X53.4597 Y28.0708
G01 X53.4597 Y25.9424
G01 X53.4387 Y25.8979
G01 X53.4287 Y25.8755
G01 X53.4199 Y25.8526
G01 X53.3907 Y25.7705
G01 X53.3870 Y25.7588
G01 X53.3804 Y25.7352
G01 X53.3594 Y25.6507
G01 X53.3546 Y25.6266
G01 X53.3527 Y25.6145
G01 X53.3417 Y25.5405
G01 X53.3387 Y25.5161
G01 X53.3369 Y25.4917
G01 X53.3328 Y25.4047
G01 X53.3328 Y23.8561
G01 X53.3369 Y23.7691
G01 X53.3376 Y23.7569
G01 X53.3401 Y23.7325
G01 X53.3546 Y23.6342
G01 X53.3594 Y23.6101
G01 X53.3638 Y23.5919
G00 Z3.0000
G00 X55.8574 Y23.9646
G01 F60.00
G01 Z-0.1000
G01 F60.00
G01 X55.8726 Y23.9632
G00 Z3.0000
G00 X55.9038 Y23.5919
G01 F60.00
G01 Z-0.1000
G01 F60.00
G01 X55.8613 Y23.5930
G01 X55.8488 Y23.5931
G01 X55.8263 Y23.5924
G01 X55.8306 Y23.6101
G01 X55.8354 Y23.6342
G01 X55.8499 Y23.7325
G01 X55.8513 Y23.7447
G01 X55.8531 Y23.7691
G01 X55.8572 Y23.8561
G01 X55.8574 Y25.3924
G01 X55.8568 Y25.4169
G01 X55.8524 Y25.5039
G01 X55.8499 Y25.5283
G01 X55.8483 Y25.5405
G01 X55.8373 Y25.6145
G01 X55.8331 Y25.6387
G01 X55.8277 Y25.6626
G01 X55.8064 Y25.7471
G01 X55.8030 Y25.7588
G01 X55.7953 Y25.7822
G01 X55.7658 Y25.8641
G01 X55.7565 Y25.8868
G01 X55.7303 Y25.9424
G01 X55.7303 Y28.0708
G01 X55.7466 Y28.0890
G01 X55.7622 Y28.1080
G01 X55.8281 Y28.1966
G01 X55.8422 Y28.2166
G01 X55.8489 Y28.2269
G01 X55.8650 Y28.2535
G01 X55.8811 Y28.2269
G01 X55.8878 Y28.2166
G01 X55.9019 Y28.1966
G01 X55.9678 Y28.1080
G01 X55.9834 Y28.0890
G01 X55.9997 Y28.0708
G01 X55.9997 Y25.9424
G01 X55.9787 Y25.8979
G01 X55.9687 Y25.8755
G01 X55.9599 Y25.8526
G01 X55.9307 Y25.7705
G01 X55.9270 Y25.7588
G01 X55.9204 Y25.7352
G01 X55.8994 Y25.6507
G01 X55.8946 Y25.6266
G01 X55.8927 Y25.6145
G01 X55.8817 Y25.5405
G01 X55.8787 Y25.5161
G01 X55.8769 Y25.4917
G01 X55.8728 Y25.4047
G01 X55.8728 Y23.8561
G01 X55.8769 Y23.7691
G01 X55.8776 Y23.7569
G01 X55.8801 Y23.7325
G01 X55.8946 Y23.6342
G01 X55.8994 Y23.6101
G01 X55.9038 Y23.5919
G00 Z3.0000
G00 X55.8726 Y24.5654
G01 F60.00
G01 Z-0.1000
G01 F60.00
G01 X55.8574 Y24.5667
G01 X55.8726 Y25.1676
G01 X55.8574 Y25.1689
G00 Z3.0000
G00 X55.9289 Y25.7649
G01 F60.00
G01 Z-0.1000
G01 F60.00
G01 X55.8118 Y25.7750
G01 X55.7972 Y25.7766
G00 Z3.0000
G00 X55.7303 Y26.3877
G01 F60.00
G01 Z-0.1000
G01 F60.00
G01 X55.8706 Y26.3721
G01 X55.9997 Y26.3610
G01 X55.9997 Y26.9632
G01 X55.9294 Y26.9692
G01 X55.7303 Y26.9913
G01 X55.7303 Y27.5949
G01 X55.9882 Y27.5663
G01 X55.9997 Y27.5653
G01 X55.9157 Y28.1780
G01 X55.8220 Y28.1884
G00 Z3.0000
G00 X55.9622 Y29.9846
G01 F60.00
G01 Z-0.1000
G01 F60.00
G01 X55.7704 Y30.0107
G01 X55.7430 Y30.0151
G00 Z3.0000
G00 X56.8207 Y30.5163
G01 F60.00
G01 Z-0.1000
G01 F60.00
G01 X56.7081 Y30.5205
G01 X56.4950 Y30.5336
G01 X56.2823 Y30.5519
G01 X56.0700 Y30.5754
G01 X55.8584 Y30.6042
G01 X55.6476 Y30.6381
G01 X55.4377 Y30.6772
G01 X55.2288 Y30.7214
G01 X55.0211 Y30.7707
G01 X54.8146 Y30.8251
G01 X54.6095 Y30.8846
G01 X54.4060 Y30.9491
G01 X54.2041 Y31.0186
G01 X54.0039 Y31.0930
G01 X53.8057 Y31.1722
G01 X53.6094 Y31.2564
G01 X53.4153 Y31.3453
G01 X53.2234 Y31.4389
G01 X53.0338 Y31.5373
G01 X52.8468 Y31.6402
G01 X52.6623 Y31.7478
G01 X52.4805 Y31.8598
G01 X52.3015 Y31.9762
G01 X52.1255 Y32.0970
G01 X51.9524 Y32.2221
G01 X51.7825 Y32.3514
G01 X51.6158 Y32.4848
G01 X51.4524 Y32.6223
G01 X51.2924 Y32.7637
G01 X51.1360 Y32.9091
G01 X50.9832 Y33.0582
G01 X50.8341 Y33.2110
G01 X50.6887 Y33.3674
G01 X50.5473 Y33.5274
G01 X50.4098 Y33.6908
G01 X50.2764 Y33.8575
G01 X50.1471 Y34.0274
G01 X50.0220 Y34.2005
G01 X49.9012 Y34.3765
G01 X49.7848 Y34.5555
G01 X49.6728 Y34.7373
G01 X49.5652 Y34.9218
G01 X49.4623 Y35.1088
G01 X49.3639 Y35.2984
G01 X49.2703 Y35.4903
G01 X49.1814 Y35.6844
G01 X49.0972 Y35.8807
G01 X49.0180 Y36.0789
G01 X48.9436 Y36.2791
G01 X48.8741 Y36.4810
G01 X48.8096 Y36.6845
G01 X48.7748 Y36.8047
G01 X49.4009 Y36.8047
G01 X49.4438 Y36.6692
G01 X49.5085 Y36.4812
G01 X49.5778 Y36.2949
G01 X49.6516 Y36.1103
G01 X49.7299 Y35.9275
G01 X49.8127 Y35.7468
G01 X49.8999 Y35.5681
G01 X49.9914 Y35.3917
G01 X50.0873 Y35.2175
G01 X50.1874 Y35.0458
G01 X50.2917 Y34.8765
G01 X50.4001 Y34.7099
G01 X50.5126 Y34.5460
G01 X50.6290 Y34.3848
G01 X50.7494 Y34.2266
G01 X50.8736 Y34.0714
G01 X51.0016 Y33.9193
G01 X51.1333 Y33.7704
G01 X51.2686 Y33.6247
G01 X51.4074 Y33.4824
G01 X51.5497 Y33.3436
G01 X51.6954 Y33.2083
G01 X51.8443 Y33.0766
G01 X51.9964 Y32.9486
G01 X52.1516 Y32.8244
G01 X52.3098 Y32.7040
G01 X52.4710 Y32.5876
G01 X52.6349 Y32.4751
G01 X52.8015 Y32.3667
G01 X52.9708 Y32.2624
G01 X53.1425 Y32.1623
G01 X53.3167 Y32.0664
G01 X53.4931 Y31.9749
G01 X53.6718 Y31.8877
G01 X53.8525 Y31.8049
G01 X54.0353 Y31.7266
G01 X54.2199 Y31.6528
G01 X54.4062 Y31.5835
G01 X54.5942 Y31.5188
G01 X54.7837 Y31.4588
G01 X54.9746 Y31.4034
G01 X55.1669 Y31.3527
G01 X55.3603 Y31.3068
G01 X55.5548 Y31.2656
G01 X55.7502 Y31.2293
G01 X55.9465 Y31.1977
G01 X56.1435 Y31.1709
G01 X56.3411 Y31.1490
G01 X56.5391 Y31.1319
G01 X56.7376 Y31.1198
G01 X56.9362 Y31.1124
G01 X57.1350 Y31.1100
G01 X57.3338 Y31.1124
G01 X57.5324 Y31.1198
G01 X57.7309 Y31.1319
G01 X57.9289 Y31.1490
G01 X58.1265 Y31.1709
G01 X58.3235 Y31.1977
G01 X58.5198 Y31.2293
G01 X58.7152 Y31.2656
G01 X58.9097 Y31.3068
G01 X59.1031 Y31.3527
G01 X59.2954 Y31.4034
G01 X59.4863 Y31.4588
G01 X59.6758 Y31.5188
G01 X59.8638 Y31.5835
G01 X60.0501 Y31.6528
G01 X60.2347 Y31.7266
G01 X60.4175 Y31.8049
G01 X60.5982 Y31.8877
G01 X60.7769 Y31.9749
G01 X60.9533 Y32.0664
G01 X61.0797 Y32.1360
G00 Z3.0000
G00 X61.0797 Y31.4561
G01 F60.00
G01 Z-0.1000
G01 F60.00
G01 X61.0466 Y31.4389
G01 X60.8547 Y31.3453
G01 X60.6606 Y31.2564
G01 X60.4643 Y31.1722
G01 X60.2661 Y31.0930
G01 X60.0659 Y31.0186
G01 X59.8640 Y30.9491
G01 X59.6605 Y30.8846
G01 X59.4554 Y30.8251
G01 X59.2489 Y30.7707
G01 X59.0412 Y30.7214
G01 X58.8323 Y30.6772
G01 X58.6224 Y30.6381
G01 X58.4116 Y30.6042
G01 X58.2000 Y30.5754
G01 X57.9877 Y30.5519
G01 X57.7750 Y30.5336
G01 X57.5619 Y30.5205
G01 X57.4493 Y30.5163
G00 Z3.0000
G00 X58.3078 Y29.9846
G01 F60.00
G01 Z-0.1000
G01 F60.00
G01 X58.4996 Y30.0107
G01 X58.5270 Y30.0151
G00 Z3.0000
G00 X60.2337 Y30.4418
G01 F60.00
G01 Z-0.1000
G01 F60.00
G01 X60.2681 Y30.4536
G01 X60.4820 Y30.5332
G01 X60.6940 Y30.6179
G01 X60.9037 Y30.7078
G01 X61.0797 Y30.7884
G00 Z3.0000
G00 X61.0797 Y30.1305
G01 F60.00
G01 Z-0.1000
G01 F60.00
G01 X60.9236 Y30.0636
G01 X60.8176 Y30.0212
G00 Z3.0000
G00 X61.0027 Y28.1685
G01 F60.00
G01 Z-0.1000
G01 F60.00
G01 X60.8476 Y28.1152
G01 X61.0797 Y27.5605
G01 X60.9933 Y27.5308
G01 X60.8103 Y27.4728
G01 X61.0797 Y26.9288
G01 X60.8797 Y26.8655
G01 X60.8103 Y26.8454
G01 X61.0797 Y26.2995
G01 X61.0538 Y26.2913
G01 X60.8103 Y26.2207
G00 Z3.0000
G00 X60.9781 Y25.6447
G01 F60.00
G01 Z-0.1000
G01 F60.00
G01 X60.9154 Y25.6265
G00 Z3.0000
G00 X60.9526 Y25.0153
G01 F60.00
G01 Z-0.1000
G01 F60.00
G01 X60.9374 Y25.0113
G01 X60.9526 Y24.3949
G01 X60.9374 Y24.3909
G00 Z3.0000
G00 X60.9565 Y23.7766
G01 F60.00
G01 Z-0.1000
G01 F60.00
G01 X60.9332 Y23.7710
G00 Z3.0000
G00 X60.9838 Y23.5919
G01 F60.00
G01 Z-0.1000
G01 F60.00
G01 X60.9413 Y23.5930
G01 X60.9288 Y23.5931
G01 X60.9063 Y23.5924
G01 X60.9106 Y23.6101
G01 X60.9154 Y23.6342
G01 X60.9299 Y23.7325
G01 X60.9313 Y23.7447
G01 X60.9331 Y23.7691
G01 X60.9372 Y23.8561
G01 X60.9374 Y25.3924
G01 X60.9368 Y25.4169
G01 X60.9324 Y25.5039
G01 X60.9299 Y25.5283
G01 X60.9283 Y25.5405
G01 X60.9173 Y25.6145
G01 X60.9131 Y25.6387
G01 X60.9077 Y25.6626
G01 X60.8864 Y25.7471
G01 X60.8830 Y25.7588
G01 X60.8753 Y25.7822
G01 X60.8458 Y25.8641
G01 X60.8365 Y25.8868
G01 X60.8103 Y25.9424
G01 X60.8103 Y28.0708
G01 X60.8266 Y28.0890
G01 X60.8422 Y28.1080
G01 X60.9081 Y28.1966
G01 X60.9222 Y28.2166
G01 X60.9289 Y28.2269
G01 X60.9450 Y28.2535
G01 X60.9611 Y28.2269
G01 X60.9678 Y28.2166
G01 X60.9819 Y28.1966
G01 X61.0478 Y28.1080
G01 X61.0634 Y28.0890
G01 X61.0797 Y28.0708
G01 X61.0797 Y25.9424
G01 X61.0587 Y25.8979
G01 X61.0487 Y25.8755
G01 X61.0399 Y25.8526
G01 X61.0107 Y25.7705
G01 X61.0070 Y25.7588
G01 X61.0004 Y25.7352
G01 X60.9794 Y25.6507
G01 X60.9746 Y25.6266
G01 X60.9727 Y25.6145
G01 X60.9617 Y25.5405
G01 X60.9587 Y25.5161
G01 X60.9569 Y25.4917
G01 X60.9528 Y25.4047
G01 X60.9528 Y23.8561
G01 X60.9569 Y23.7691
G01 X60.9576 Y23.7569
G01 X60.9601 Y23.7325
G01 X60.9746 Y23.6342
G01 X60.9794 Y23.6101
G01 X60.9838 Y23.5919
G00 Z3.0000
G00 X63.4774 Y23.9780
G01 F60.00
G01 Z-0.1000
G01 F60.00
G01 X63.4926 Y23.9846
G00 Z3.0000
G00 X63.5238 Y23.5919
G01 F60.00
G01 Z-0.1000
G01 F60.00
G01 X63.4813 Y23.5930
G01 X63.4688 Y23.5931
G01 X63.4463 Y23.5924
G01 X63.4506 Y23.6101
G01 X63.4554 Y23.6342
G01 X63.4699 Y23.7325
G01 X63.4713 Y23.7447
G01 X63.4731 Y23.7691
G01 X63.4772 Y23.8561
G01 X63.4774 Y25.3924
G01 X63.4768 Y25.4169
G01 X63.4724 Y25.5039
G01 X63.4699 Y25.5283
G01 X63.4683 Y25.5405
G01 X63.4573 Y25.6145
G01 X63.4531 Y25.6387
G01 X63.4477 Y25.6626
G01 X63.4264 Y25.7471
G01 X63.4230 Y25.7588
G01 X63.4153 Y25.7822
G01 X63.3858 Y25.8641
G01 X63.3765 Y25.8868
G01 X63.3503 Y25.9424
G01 X63.3503 Y28.0708
G01 X63.3666 Y28.0890
G01 X63.3822 Y28.1080
G01 X63.4481 Y28.1966
G01 X63.4622 Y28.2166
G01 X63.4689 Y28.2269
G01 X63.4850 Y28.2535
G01 X63.5011 Y28.2269
G01 X63.5078 Y28.2166
G01 X63.5219 Y28.1966
G01 X63.5878 Y28.1080
G01 X63.6034 Y28.0890
G01 X63.6197 Y28.0708
G01 X63.6197 Y25.9424
G01 X63.5987 Y25.8979
G01 X63.5887 Y25.8755
G01 X63.5799 Y25.8526
G01 X63.5507 Y25.7705
G01 X63.5470 Y25.7588
G01 X63.5404 Y25.7352
G01 X63.5194 Y25.6507
G01 X63.5146 Y25.6266
G01 X63.5127 Y25.6145
G01 X63.5017 Y25.5405
G01 X63.4987 Y25.5161
G01 X63.4969 Y25.4917
G01 X63.4928 Y25.4047
G01 X63.4928 Y23.8561
G01 X63.4969 Y23.7691
G01 X63.4976 Y23.7569
G01 X63.5001 Y23.7325
G01 X63.5146 Y23.6342
G01 X63.5194 Y23.6101
G01 X63.5238 Y23.5919
G00 Z3.0000
G00 X63.4774 Y24.6308
G01 F60.00
G01 Z-0.1000
G01 F60.00
G01 X63.4926 Y24.6373
G01 X63.4774 Y25.2877
G01 X63.4926 Y25.2947
G00 Z3.0000
G00 X63.3709 Y25.8988
G01 F60.00
G01 Z-0.1000
G01 F60.00
G01 X63.4201 Y25.9214
G01 X63.6197 Y26.0188
G01 X63.3503 Y26.5549
G01 X63.4745 Y26.6155
G01 X63.6197 Y26.6909
G01 X63.3503 Y27.2270
G01 X63.4989 Y27.3041
G01 X63.6197 Y27.3706
G01 X63.3503 Y27.9071
G01 X63.4934 Y27.9859
G01 X63.6197 Y28.0595
G00 Z3.0000
G00 X63.3588 Y30.0198
G01 F60.00
G01 Z-0.1000
G01 F60.00
G01 X63.5265 Y30.1348
G01 X63.6197 Y30.2022
G01 X63.3503 Y30.7478
G01 X63.3898 Y30.7763
G01 X63.5949 Y30.9324
G01 X63.6197 Y30.9522
G01 X63.3503 Y31.5050
G01 X63.4155 Y31.5572
G01 X63.6014 Y31.7136
G01 X63.6197 Y31.7298
G01 X63.3503 Y32.2925
G01 X63.3805 Y32.3192
G01 X63.5477 Y32.4745
G01 X63.6197 Y32.5447
G01 X63.3503 Y33.1232
G01 X63.4359 Y33.2110
G01 X63.5813 Y33.3674
G01 X63.6197 Y33.4109
G01 X63.3503 Y34.0167
G01 X63.3964 Y34.0714
G01 X63.5206 Y34.2266
G01 X63.6410 Y34.3848
G01 X63.6536 Y34.4023
G01 X63.1653 Y34.7510
G01 X63.2669 Y34.8914
G01 X63.3710 Y35.0432
G01 X63.4714 Y35.1975
G01 X63.5680 Y35.3542
G01 X63.6607 Y35.5133
G01 X63.7494 Y35.6745
G01 X63.8342 Y35.8379
G01 X63.9149 Y36.0033
G01 X63.9916 Y36.1707
G01 X64.0641 Y36.3399
G01 X64.1324 Y36.5108
G01 X64.1966 Y36.6833
G01 X64.2383 Y36.8047
G01 X64.8691 Y36.8047
G01 X64.8262 Y36.6692
G01 X64.7615 Y36.4812
G01 X64.6922 Y36.2949
G01 X64.6184 Y36.1103
G01 X64.5401 Y35.9275
G01 X64.4573 Y35.7468
G01 X64.3701 Y35.5681
G01 X64.2786 Y35.3917
G01 X64.1827 Y35.2175
G01 X64.1069 Y35.0875
G01 X62.7131 Y35.1495
G01 X62.7763 Y35.2369
G01 X62.8721 Y35.3766
G01 X62.9645 Y35.5185
G01 X63.0533 Y35.6627
G01 X63.1386 Y35.8090
G01 X63.2203 Y35.9574
G01 X63.2982 Y36.1077
G01 X63.3725 Y36.2599
G01 X63.4430 Y36.4138
G01 X63.5098 Y36.5695
G01 X63.5727 Y36.7267
G01 X63.6016 Y36.8047
G01 X62.9577 Y36.8047
G01 X62.8945 Y36.6570
G01 X62.8301 Y36.5164
G01 X62.7623 Y36.3774
G01 X62.6911 Y36.2402
G01 X62.6165 Y36.1047
G01 X62.5387 Y35.9712
G01 X62.4576 Y35.8395
G01 X62.3733 Y35.7099
G01 X62.2858 Y35.5824
G01 X62.1952 Y35.4571
G01 X62.1016 Y35.3340
G01 X62.0345 Y35.2502
G00 Z3.0000
G00 X61.0948 Y34.3105
G01 F60.00
G01 Z-0.1000
G01 F60.00
G01 X61.0110 Y34.2434
G01 X60.8879 Y34.1498
G01 X60.7626 Y34.0592
G01 X60.6351 Y33.9717
G01 X60.5055 Y33.8874
G01 X60.3738 Y33.8063
G01 X60.2403 Y33.7285
G01 X60.1048 Y33.6539
G01 X59.9676 Y33.5827
G01 X59.8286 Y33.5149
G01 X59.6880 Y33.4505
G01 X59.5459 Y33.3896
G01 X59.4023 Y33.3321
G01 X59.2574 Y33.2783
G01 X59.1112 Y33.2280
G01 X58.9638 Y33.1813
G01 X58.8153 Y33.1382
G01 X58.6658 Y33.0988
G01 X58.5153 Y33.0631
G01 X58.3641 Y33.0311
G01 X58.2121 Y33.0028
G01 X58.0594 Y32.9782
G01 X57.9062 Y32.9574
G01 X57.7525 Y32.9403
G01 X57.5985 Y32.9271
G01 X57.4441 Y32.9176
G01 X57.2896 Y32.9119
G01 X57.1350 Y32.9100
G01 X56.9804 Y32.9119
G01 X56.8259 Y32.9176
G01 X56.6715 Y32.9271
G01 X56.5175 Y32.9403
G01 X56.3638 Y32.9574
G01 X56.2106 Y32.9782
G01 X56.0579 Y33.0028
G01 X55.9059 Y33.0311
G01 X55.7547 Y33.0631
G01 X55.6042 Y33.0988
G01 X55.4547 Y33.1382
G01 X55.3062 Y33.1813
G01 X55.1588 Y33.2280
G01 X55.0126 Y33.2783
G01 X54.8677 Y33.3321
G01 X54.7241 Y33.3896
G01 X54.5820 Y33.4505
G01 X54.4414 Y33.5149
G01 X54.3024 Y33.5827
G01 X54.1652 Y33.6539
G01 X54.0297 Y33.7285
G01 X53.8962 Y33.8063
G01 X53.7645 Y33.8874
G01 X53.6349 Y33.9717
G01 X53.5074 Y34.0592
G01 X53.3821 Y34.1498
G01 X53.2590 Y34.2434
G01 X53.1383 Y34.3400
G01 X53.0200 Y34.4396
G01 X52.9042 Y34.5420
G01 X52.7909 Y34.6472
G01 X52.6802 Y34.7552
G01 X52.5722 Y34.8659
G01 X52.4670 Y34.9792
G01 X52.3646 Y35.0950
G01 X52.2650 Y35.2133
G01 X52.1684 Y35.3340
G01 X52.0748 Y35.4571
G01 X51.9842 Y35.5824
G01 X51.8967 Y35.7099
G01 X51.8124 Y35.8395
G01 X51.7313 Y35.9712
G01 X51.6535 Y36.1047
G01 X51.5789 Y36.2402
G01 X51.5077 Y36.3774
G01 X51.4399 Y36.5164
G01 X51.3755 Y36.6570
G01 X51.3123 Y36.8047
G01 X50.6684 Y36.8047
G01 X50.6973 Y36.7267
G01 X50.7602 Y36.5695
G01 X50.8270 Y36.4138
G01 X50.8975 Y36.2599
G01 X50.9718 Y36.1077
G01 X51.0497 Y35.9574
G01 X51.1314 Y35.8090
G01 X51.2167 Y35.6627
G01 X51.3055 Y35.5185
G01 X51.3979 Y35.3766
G01 X51.4937 Y35.2369
G01 X51.5929 Y35.0997
G01 X51.6954 Y34.9649
G01 X51.8012 Y34.8327
G01 X51.9103 Y34.7031
G01 X52.0224 Y34.5762
G01 X52.1377 Y34.4522
G01 X52.2560 Y34.3310
G01 X52.3772 Y34.2127
G01 X52.5012 Y34.0974
G01 X52.6281 Y33.9853
G01 X52.7577 Y33.8762
G01 X52.8899 Y33.7704
G01 X53.0247 Y33.6679
G01 X53.1619 Y33.5687
G01 X53.3016 Y33.4729
G01 X53.4435 Y33.3805
G01 X53.5877 Y33.2917
G01 X53.7340 Y33.2064
G01 X53.8824 Y33.1247
G01 X54.0327 Y33.0468
G01 X54.1849 Y32.9725
G01 X54.3388 Y32.9020
G01 X54.4945 Y32.8352
G01 X54.6517 Y32.7723
G01 X54.8105 Y32.7133
G01 X54.9706 Y32.6583
G01 X55.1320 Y32.6071
G01 X55.2947 Y32.5599
G01 X55.4584 Y32.5168
G01 X55.6232 Y32.4777
G01 X55.7889 Y32.4426
G01 X55.9554 Y32.4116
G01 X56.1226 Y32.3847
G01 X56.2904 Y32.3619
G01 X56.4587 Y32.3432
G01 X56.6274 Y32.3287
G01 X56.7964 Y32.3183
G01 X56.9657 Y32.3121
G01 X57.1350 Y32.3100
G01 X57.3043 Y32.3121
G01 X57.4736 Y32.3183
G01 X57.6426 Y32.3287
G01 X57.8113 Y32.3432
G01 X57.9796 Y32.3619
G01 X58.1474 Y32.3847
G01 X58.3146 Y32.4116
G01 X58.4811 Y32.4426
G01 X58.6468 Y32.4777
G01 X58.8116 Y32.5168
G01 X58.9753 Y32.5599
G01 X59.1380 Y32.6071
G01 X59.2994 Y32.6583
G01 X59.4595 Y32.7133
G01 X59.6183 Y32.7723
G01 X59.7755 Y32.8352
G01 X59.9312 Y32.9020
G01 X60.0851 Y32.9725
G01 X60.2373 Y33.0468
G01 X60.3876 Y33.1247
G01 X60.5360 Y33.2064
G01 X60.6823 Y33.2917
G01 X60.8265 Y33.3805
G01 X60.9684 Y33.4729
G01 X61.0797 Y33.5492
G00 Z3.0000
G00 X61.0797 Y32.8318
G01 F60.00
G01 Z-0.1000
G01 F60.00
G01 X60.9908 Y32.7770
G01 X60.8317 Y32.6843
G01 X60.6705 Y32.5956
G01 X60.5071 Y32.5108
G01 X60.3417 Y32.4301
G01 X60.1743 Y32.3534
G01 X60.0051 Y32.2809
G01 X59.8342 Y32.2126
G01 X59.6617 Y32.1484
G01 X59.4876 Y32.0885
G01 X59.3121 Y32.0329
G01 X59.1353 Y31.9817
G01 X58.9574 Y31.9348
G01 X58.7783 Y31.8922
G01 X58.5982 Y31.8541
G01 X58.4172 Y31.8204
G01 X58.2355 Y31.7912
G01 X58.0531 Y31.7664
G01 X57.8701 Y31.7461
G01 X57.6867 Y31.7303
G01 X57.5030 Y31.7190
G01 X57.3191 Y31.7123
G01 X57.1350 Y31.7100
G01 X56.9509 Y31.7123
G01 X56.7670 Y31.7190
G01 X56.5833 Y31.7303
G01 X56.3999 Y31.7461
G01 X56.2169 Y31.7664
G01 X56.0345 Y31.7912
G01 X55.8528 Y31.8204
G01 X55.6718 Y31.8541
G01 X55.4917 Y31.8922
G01 X55.3126 Y31.9348
G01 X55.1347 Y31.9817
G01 X54.9579 Y32.0329
G01 X54.7824 Y32.0885
G01 X54.6083 Y32.1484
G01 X54.4358 Y32.2126
G01 X54.2649 Y32.2809
G01 X54.0957 Y32.3534
G01 X53.9283 Y32.4301
G01 X53.7629 Y32.5108
G01 X53.5995 Y32.5956
G01 X53.4383 Y32.6843
G01 X53.2792 Y32.7770
G01 X53.1225 Y32.8736
G01 X52.9682 Y32.9740
G01 X52.8164 Y33.0781
G01 X52.6673 Y33.1859
G01 X52.5208 Y33.2974
G01 X52.3771 Y33.4124
G01 X52.2362 Y33.5309
G01 X52.0983 Y33.6529
G01 X51.9634 Y33.7781
G01 X51.8317 Y33.9067
G01 X51.7031 Y34.0384
G01 X51.5779 Y34.1733
G01 X51.4559 Y34.3112
G01 X51.3374 Y34.4521
G01 X51.2224 Y34.5958
G01 X51.1109 Y34.7423
G01 X51.0031 Y34.8914
G01 X50.8990 Y35.0432
G01 X50.7986 Y35.1975
G01 X50.7020 Y35.3542
G01 X50.6093 Y35.5133
G01 X50.5206 Y35.6745
G01 X50.4358 Y35.8379
G01 X50.3551 Y36.0033
G01 X50.2784 Y36.1707
G01 X50.2059 Y36.3399
G01 X50.1376 Y36.5108
G01 X50.0734 Y36.6833
G01 X50.0317 Y36.8047
G01 X51.9677 Y36.8047
G01 X51.9823 Y36.7729
G01 X52.0436 Y36.6472
G01 X52.1080 Y36.5230
G01 X52.1755 Y36.4005
G01 X52.2459 Y36.2796
G01 X52.3193 Y36.1605
G01 X52.3956 Y36.0432
G01 X52.4748 Y35.9279
G01 X52.5567 Y35.8145
G01 X52.6414 Y35.7032
G01 X52.7288 Y35.5940
G01 X52.8189 Y35.4869
G01 X52.9116 Y35.3821
G01 X53.0068 Y35.2796
G01 X53.1045 Y35.1795
G01 X53.2046 Y35.0818
G01 X53.3071 Y34.9866
G01 X53.4119 Y34.8939
G01 X53.5190 Y34.8038
G01 X53.6282 Y34.7164
G01 X53.7395 Y34.6317
G01 X53.8529 Y34.5498
G01 X53.9682 Y34.4706
G01 X54.0855 Y34.3943
G01 X54.2046 Y34.3209
G01 X54.3255 Y34.2505
G01 X54.4480 Y34.1830
G01 X54.5722 Y34.1186
G01 X54.6979 Y34.0573
G01 X54.8251 Y33.9990
G01 X54.9537 Y33.9439
G01 X55.0836 Y33.8919
G01 X55.2147 Y33.8432
G01 X55.3470 Y33.7977
G01 X55.4804 Y33.7554
G01 X55.6147 Y33.7165
G01 X55.7500 Y33.6808
G01 X55.8861 Y33.6485
G01 X56.0230 Y33.6195
G01 X56.1605 Y33.5939
G01 X56.2986 Y33.5717
G01 X56.4373 Y33.5529
G01 X56.5763 Y33.5374
G01 X56.7157 Y33.5254
G01 X56.8553 Y33.5169
G01 X56.9951 Y33.5117
G01 X57.1350 Y33.5100
G01 X57.2749 Y33.5117
G01 X57.4147 Y33.5169
G01 X57.5543 Y33.5254
G01 X57.6937 Y33.5374
G01 X57.8327 Y33.5529
G01 X57.9714 Y33.5717
G01 X58.1095 Y33.5939
G01 X58.2470 Y33.6195
G01 X58.3839 Y33.6485
G01 X58.5200 Y33.6808
G01 X58.6553 Y33.7165
G01 X58.7896 Y33.7554
G01 X58.9230 Y33.7977
G01 X59.0553 Y33.8432
G01 X59.1864 Y33.8919
G01 X59.3163 Y33.9439
G01 X59.4449 Y33.9990
G01 X59.5721 Y34.0573
G01 X59.6978 Y34.1186
G01 X59.8220 Y34.1830
G01 X59.9445 Y34.2505
G01 X60.0654 Y34.3209
G01 X60.1845 Y34.3943
G01 X60.3018 Y34.4706
G01 X60.4171 Y34.5498
G01 X60.5305 Y34.6317
G01 X60.6418 Y34.7164
G01 X60.7510 Y34.8038
G01 X60.8581 Y34.8939
G01 X60.9629 Y34.9866
G01 X61.0654 Y35.0818
G01 X61.1655 Y35.1795
G01 X61.2632 Y35.2796
G01 X61.3584 Y35.3821
G01 X61.4511 Y35.4869
G01 X61.5412 Y35.5940
G01 X61.6286 Y35.7032
G01 X61.7133 Y35.8145
G01 X61.7952 Y35.9279
G01 X61.8744 Y36.0432
G01 X61.9507 Y36.1605
G01 X62.0241 Y36.2796
G01 X62.0945 Y36.4005
G01 X62.1620 Y36.5230
G01 X62.2264 Y36.6472
G01 X62.2877 Y36.7729
G01 X62.3023 Y36.8047
G01 X61.6321 Y36.8047
G01 X61.5724 Y36.6962
G01 X61.5094 Y36.5881
G01 X61.4438 Y36.4815
G01 X61.3755 Y36.3766
G01 X61.3047 Y36.2734
G01 X61.2314 Y36.1719
G01 X61.1556 Y36.0723
G01 X61.0774 Y35.9746
G01 X60.9968 Y35.8788
G01 X60.9139 Y35.7850
G01 X60.8287 Y35.6933
G01 X60.7412 Y35.6038
G01 X60.6517 Y35.5163
G01 X60.5600 Y35.4311
G01 X60.4662 Y35.3482
G01 X60.3704 Y35.2676
G01 X60.2727 Y35.1894
G01 X60.1731 Y35.1136
G01 X60.0716 Y35.0403
G01 X59.9684 Y34.9695
G01 X59.8635 Y34.9012
G01 X59.7569 Y34.8356
G01 X59.6488 Y34.7726
G01 X59.5391 Y34.7122
G01 X59.4280 Y34.6546
G01 X59.3155 Y34.5997
G01 X59.2017 Y34.5475
G01 X59.0867 Y34.4982
G01 X58.9705 Y34.4517
G01 X58.8531 Y34.4081
G01 X58.7348 Y34.3674
G01 X58.6155 Y34.3296
G01 X58.4952 Y34.2947
G01 X58.3742 Y34.2628
G01 X58.2524 Y34.2339
G01 X58.1300 Y34.2080
G01 X58.0069 Y34.1851
G01 X57.8833 Y34.1652
G01 X57.7593 Y34.1484
G01 X57.6349 Y34.1346
G01 X57.5102 Y34.1238
G01 X57.3852 Y34.1161
G01 X57.2602 Y34.1115
G01 X57.1350 Y34.1100
G01 X57.0098 Y34.1115
G01 X56.8848 Y34.1161
G01 X56.7598 Y34.1238
G01 X56.6351 Y34.1346
G01 X56.5107 Y34.1484
G01 X56.3867 Y34.1652
G01 X56.2631 Y34.1851
G01 X56.1400 Y34.2080
G01 X56.0176 Y34.2339
G01 X55.8958 Y34.2628
G01 X55.7748 Y34.2947
G01 X55.6545 Y34.3296
G01 X55.5352 Y34.3674
G01 X55.4169 Y34.4081
G01 X55.2995 Y34.4517
G01 X55.1833 Y34.4982
G01 X55.0683 Y34.5475
G01 X54.9545 Y34.5997
G01 X54.8420 Y34.6546
G01 X54.7309 Y34.7122
G01 X54.6212 Y34.7726
G01 X54.5131 Y34.8356
G01 X54.4065 Y34.9012
G01 X54.3016 Y34.9695
G01 X54.1984 Y35.0403
G01 X54.0969 Y35.1136
G01 X53.9973 Y35.1894
G01 X53.8996 Y35.2676
G01 X53.8038 Y35.3482
G01 X53.7100 Y35.4311
G01 X53.6183 Y35.5163
G01 X53.5288 Y35.6038
G01 X53.4413 Y35.6933
G01 X53.3561 Y35.7850
G01 X53.2732 Y35.8788
G01 X53.1926 Y35.9746
G01 X53.1144 Y36.0723
G01 X53.0386 Y36.1719
G01 X52.9653 Y36.2734
G01 X52.8945 Y36.3766
G01 X52.8262 Y36.4815
G01 X52.7606 Y36.5881
G01 X52.6976 Y36.6962
G01 X52.6379 Y36.8047
G01 X53.3318 Y36.8047
G01 X53.3934 Y36.7099
G01 X53.4559 Y36.6189
G01 X53.5206 Y36.5294
G01 X53.5874 Y36.4415
G01 X53.6565 Y36.3552
G01 X53.7276 Y36.2707
G01 X53.8007 Y36.1880
G01 X53.8759 Y36.1071
G01 X53.9530 Y36.0280
G01 X54.0321 Y35.9509
G01 X54.1130 Y35.8757
G01 X54.1957 Y35.8026
G01 X54.2802 Y35.7315
G01 X54.3665 Y35.6624
G01 X54.4544 Y35.5956
G01 X54.5439 Y35.5309
G01 X54.6349 Y35.4684
G01 X54.7275 Y35.4082
G01 X54.8215 Y35.3502
G01 X54.9170 Y35.2946
G01 X55.0137 Y35.2414
G01 X55.1117 Y35.1905
G01 X55.2110 Y35.1420
G01 X55.3114 Y35.0961
G01 X55.4129 Y35.0525
G01 X55.5155 Y35.0115
G01 X55.6190 Y34.9731
G01 X55.7234 Y34.9371
G01 X55.8287 Y34.9038
G01 X55.9348 Y34.8730
G01 X56.0416 Y34.8449
G01 X56.1490 Y34.8193
G01 X56.2571 Y34.7965
G01 X56.3657 Y34.7763
G01 X56.4747 Y34.7587
G01 X56.5842 Y34.7438
G01 X56.6939 Y34.7317
G01 X56.8040 Y34.7222
G01 X56.9142 Y34.7154
G01 X57.0246 Y34.7114
G01 X57.1350 Y34.7100
G01 X57.2454 Y34.7114
G01 X57.3558 Y34.7154
G01 X57.4660 Y34.7222
G01 X57.5761 Y34.7317
G01 X57.6858 Y34.7438
G01 X57.7953 Y34.7587
G01 X57.9043 Y34.7763
G01 X58.0129 Y34.7965
G01 X58.1210 Y34.8193
G01 X58.2284 Y34.8449
G01 X58.3352 Y34.8730
G01 X58.4413 Y34.9038
G01 X58.5466 Y34.9371
G01 X58.6510 Y34.9731
G01 X58.7545 Y35.0115
G01 X58.8571 Y35.0525
G01 X58.9586 Y35.0961
G01 X59.0590 Y35.1420
G01 X59.1583 Y35.1905
G01 X59.2563 Y35.2414
G01 X59.3530 Y35.2946
G01 X59.4485 Y35.3502
G01 X59.5425 Y35.4082
G01 X59.6351 Y35.4684
G01 X59.7261 Y35.5309
G01 X59.8156 Y35.5956
G01 X59.9035 Y35.6624
G01 X59.9898 Y35.7315
G01 X60.0743 Y35.8026
G01 X60.1570 Y35.8757
G01 X60.2379 Y35.9509
G01 X60.3170 Y36.0280
G01 X60.3941 Y36.1071
G01 X60.4693 Y36.1880
G01 X60.5424 Y36.2707
G01 X60.6135 Y36.3552
G01 X60.6826 Y36.4415
G01 X60.7494 Y36.5294
G01 X60.8141 Y36.6189
G01 X60.8766 Y36.7099
G01 X60.9382 Y36.8047
G01 X60.2048 Y36.8047
G01 X60.1497 Y36.7359
G01 X60.0881 Y36.6626
G01 X60.0247 Y36.5909
G01 X59.9596 Y36.5208
G01 X59.8927 Y36.4523
G01 X59.8242 Y36.3854
G01 X59.7541 Y36.3203
G01 X59.6824 Y36.2569
G01 X59.6091 Y36.1953
G01 X59.5344 Y36.1354
G01 X59.4582 Y36.0775
G01 X59.3807 Y36.0214
G01 X59.3017 Y35.9673
G01 X59.2215 Y35.9151
G01 X59.1400 Y35.8649
G01 X59.0573 Y35.8167
G01 X58.9734 Y35.7705
G01 X58.8885 Y35.7264
G01 X58.8025 Y35.6844
G01 X58.7154 Y35.6446
G01 X58.6275 Y35.6069
G01 X58.5386 Y35.5713
G01 X58.4489 Y35.5380
G01 X58.3584 Y35.5068
G01 X58.2671 Y35.4779
G01 X58.1752 Y35.4513
G01 X58.0826 Y35.4269
G01 X57.9895 Y35.4048
G01 X57.8959 Y35.3849
G01 X57.8018 Y35.3674
G01 X57.7072 Y35.3522
G01 X57.6124 Y35.3393
G01 X57.5173 Y35.3288
G01 X57.4219 Y35.3206
G01 X57.3264 Y35.3147
G01 X57.2307 Y35.3112
G01 X57.1350 Y35.3100
G01 X57.0393 Y35.3112
G01 X56.9436 Y35.3147
G01 X56.8481 Y35.3206
G01 X56.7527 Y35.3288
G01 X56.6576 Y35.3393
G01 X56.5628 Y35.3522
G01 X56.4682 Y35.3674
G01 X56.3741 Y35.3849
G01 X56.2805 Y35.4048
G01 X56.1874 Y35.4269
G01 X56.0948 Y35.4513
G01 X56.0029 Y35.4779
G01 X55.9116 Y35.5068
G01 X55.8211 Y35.5380
G01 X55.7314 Y35.5713
G01 X55.6425 Y35.6069
G01 X55.5546 Y35.6446
G01 X55.4675 Y35.6844
G01 X55.3815 Y35.7264
G01 X55.2966 Y35.7705
G01 X55.2127 Y35.8167
G01 X55.1300 Y35.8649
G01 X55.0485 Y35.9151
G01 X54.9683 Y35.9673
G01 X54.8893 Y36.0214
G01 X54.8118 Y36.0775
G01 X54.7356 Y36.1354
G01 X54.6609 Y36.1953
G01 X54.5876 Y36.2569
G01 X54.5159 Y36.3203
G01 X54.4458 Y36.3854
G01 X54.3773 Y36.4523
G01 X54.3104 Y36.5208
G01 X54.2453 Y36.5909
G01 X54.1819 Y36.6626
G01 X54.1203 Y36.7359
G01 X54.0652 Y36.8047
G01 X54.8760 Y36.8047
G01 X54.9189 Y36.7649
G01 X54.9795 Y36.7112
G01 X55.0415 Y36.6591
G01 X55.1047 Y36.6085
G01 X55.1692 Y36.5594
G01 X55.2348 Y36.5120
G01 X55.3016 Y36.4662
G01 X55.3695 Y36.4220
G01 X55.4385 Y36.3795
G01 X55.5084 Y36.3387
G01 X55.5794 Y36.2997
G01 X55.6513 Y36.2624
G01 X55.7241 Y36.2268
G01 X55.7977 Y36.1931
G01 X55.8721 Y36.1612
G01 X55.9473 Y36.1311
G01 X56.0233 Y36.1029
G01 X56.0999 Y36.0766
G01 X56.1771 Y36.0521
G01 X56.2548 Y36.0295
G01 X56.3332 Y36.0089
G01 X56.4120 Y35.9902
G01 X56.4912 Y35.9734
G01 X56.5708 Y35.9586
G01 X56.6508 Y35.9457
G01 X56.7310 Y35.9348
G01 X56.8115 Y35.9259
G01 X56.8922 Y35.9189
G01 X56.9731 Y35.9140
G01 X57.0540 Y35.9110
G01 X57.1350 Y35.9100
G01 X57.2160 Y35.9110
G01 X57.2969 Y35.9140
G01 X57.3778 Y35.9189
G01 X57.4585 Y35.9259
G01 X57.5390 Y35.9348
G01 X57.6192 Y35.9457
G01 X57.6992 Y35.9586
G01 X57.7788 Y35.9734
G01 X57.8580 Y35.9902
G01 X57.9368 Y36.0089
G01 X58.0152 Y36.0295
G01 X58.0929 Y36.0521
G01 X58.1701 Y36.0766
G01 X58.2467 Y36.1029
G01 X58.3227 Y36.1311
G01 X58.3979 Y36.1612
G01 X58.4723 Y36.1931
G01 X58.5459 Y36.2268
G01 X58.6187 Y36.2624
G01 X58.6906 Y36.2997
G01 X58.7616 Y36.3387
G01 X58.8315 Y36.3795
G01 X58.9005 Y36.4220
G01 X58.9684 Y36.4662
G01 X59.0352 Y36.5120
G01 X59.1008 Y36.5594
G01 X59.1653 Y36.6085
G01 X59.2285 Y36.6591
G01 X59.2905 Y36.7112
G01 X59.3511 Y36.7649
G01 X59.3940 Y36.8047
G01 X58.3613 Y36.8047
G01 X58.3490 Y36.7983
G01 X58.2894 Y36.7692
G01 X58.2292 Y36.7416
G01 X58.1682 Y36.7155
G01 X58.1067 Y36.6909
G01 X58.0446 Y36.6678
G01 X57.9819 Y36.6463
G01 X57.9188 Y36.6263
G01 X57.8551 Y36.6078
G01 X57.7910 Y36.5909
G01 X57.7266 Y36.5756
G01 X57.6617 Y36.5619
G01 X57.5966 Y36.5498
G01 X57.5312 Y36.5392
G01 X57.4655 Y36.5303
G01 X57.3996 Y36.5230
G01 X57.3336 Y36.5173
G01 X57.2675 Y36.5133
G01 X57.2013 Y36.5108
G01 X57.1350 Y36.5100
G01 X57.0687 Y36.5108
G01 X57.0025 Y36.5133
G01 X56.9364 Y36.5173
G01 X56.8704 Y36.5230
G01 X56.8045 Y36.5303
G01 X56.7388 Y36.5392
G01 X56.6734 Y36.5498
G01 X56.6083 Y36.5619
G01 X56.5434 Y36.5756
G01 X56.4790 Y36.5909
G01 X56.4149 Y36.6078
G01 X56.3512 Y36.6263
G01 X56.2881 Y36.6463
G01 X56.2254 Y36.6678
G01 X56.1633 Y36.6909
G01 X56.1018 Y36.7155
G01 X56.0408 Y36.7416
G01 X55.9806 Y36.7692
G01 X55.9210 Y36.7983
G01 X55.9087 Y36.8047
G00 Z3.0000
G00 X55.6412 Y39.0753
G01 F60.00
G01 Z-0.1000
G01 F60.00
G01 X55.6391 Y39.0997
G01 X55.6368 Y39.1364
G01 X55.6355 Y39.1732
G01 X55.6350 Y39.2100
G01 X55.6355 Y39.2468
G01 X55.6368 Y39.2836
G01 X55.6391 Y39.3203
G01 X55.6412 Y39.3447
G00 Z3.0000
G00 X55.0395 Y39.3447
G01 F60.00
G01 Z-0.1000
G01 F60.00
G01 X55.0375 Y39.3130
G01 X55.0356 Y39.2615
G01 X55.0350 Y39.2100
G01 X55.0356 Y39.1585
G01 X55.0375 Y39.1070
G01 X55.0395 Y39.0753
G00 Z3.0000
G00 X54.4384 Y39.0753
G01 F60.00
G01 Z-0.1000
G01 F60.00
G01 X54.4358 Y39.1437
G01 X54.4350 Y39.2100
G01 X54.4358 Y39.2763
G01 X54.4384 Y39.3447
G00 Z3.0000
G00 X53.8380 Y39.3447
G01 F60.00
G01 Z-0.1000
G01 F60.00
G01 X53.8360 Y39.2910
G01 X53.8350 Y39.2100
G01 X53.8360 Y39.1290
G01 X53.8380 Y39.0753
G00 Z3.0000
G00 X53.2376 Y39.0753
G01 F60.00
G01 Z-0.1000
G01 F60.00
G01 X53.2362 Y39.1143
G01 X53.2350 Y39.2100
G01 X53.2362 Y39.3057
G01 X53.2376 Y39.3447
G00 Z3.0000
G00 X52.6372 Y39.3447
G01 F60.00
G01 Z-0.1000
G01 F60.00
G01 X52.6364 Y39.3204
G01 X52.6350 Y39.2100
G01 X52.6364 Y39.0996
G01 X52.6372 Y39.0753
G00 Z3.0000
G00 X52.0369 Y39.0753
G01 F60.00
G01 Z-0.1000
G01 F60.00
G01 X52.0350 Y39.2100
G01 X52.0369 Y39.3447
G00 Z3.0000
G00 X51.4367 Y39.3447
G01 F60.00
G01 Z-0.1000
G01 F60.00
G01 X51.4350 Y39.2100
G01 X51.4367 Y39.0753
G00 Z3.0000
G00 X50.8367 Y39.0753
G01 F60.00
G01 Z-0.1000
G01 F60.00
G01 X50.8350 Y39.2100
G01 X50.8367 Y39.3447
G00 Z3.0000
G00 X50.2367 Y39.3447
G01 F60.00
G01 Z-0.1000
G01 F60.00
G01 X50.2350 Y39.2100
G01 X50.2367 Y39.0753
G00 Z3.0000
G00 X49.6367 Y39.0753
G01 F60.00
G01 Z-0.1000
G01 F60.00
G01 X49.6350 Y39.2100
G01 X49.6367 Y39.3447
G00 Z3.0000
G00 X49.0367 Y39.3447
G01 F60.00
G01 Z-0.1000
G01 F60.00
G01 X49.0350 Y39.2100
G01 X49.0367 Y39.0753
G00 Z3.0000
G00 X48.4367 Y39.0753
G01 F60.00
G01 Z-0.1000
G01 F60.00
G01 X48.4350 Y39.2100
G01 X48.4367 Y39.3447
G00 Z3.0000
G00 X47.8367 Y39.3447
G01 F60.00
G01 Z-0.1000
G01 F60.00
G01 X47.8350 Y39.2100
G01 X47.8367 Y39.0753
G00 Z3.0000
G00 X47.2367 Y39.0753
G01 F60.00
G01 Z-0.1000
G01 F60.00
G01 X47.2350 Y39.2100
G01 X47.2367 Y39.3447
G00 Z3.0000
G00 X46.6367 Y39.3447
G01 F60.00
G01 Z-0.1000
G01 F60.00
G01 X46.6350 Y39.2100
G01 X46.6367 Y39.0753
G00 Z3.0000
G00 X46.0367 Y39.0753
G01 F60.00
G01 Z-0.1000
G01 F60.00
G01 X46.0350 Y39.2100
G01 X46.0367 Y39.3447
G00 Z3.0000
G00 X45.4367 Y39.3447
G01 F60.00
G01 Z-0.1000
G01 F60.00
G01 X45.4350 Y39.2100
G01 X45.4367 Y39.0753
G00 Z3.0000
G00 X44.8367 Y39.0753
G01 F60.00
G01 Z-0.1000
G01 F60.00
G01 X44.8350 Y39.2100
G01 X44.8370 Y39.3689
G01 X44.6523 Y39.0753
G01 X44.6633 Y39.0953
G01 X44.6685 Y39.1056
G01 X44.6735 Y39.1161
G01 X44.6893 Y39.1517
G01 X44.6987 Y39.1761
G01 X44.7148 Y39.2241
G01 X44.7184 Y39.2365
G01 X44.7259 Y39.2662
G01 X44.7314 Y39.2912
G01 X44.7337 Y39.3038
G01 X44.7397 Y39.3419
G01 X44.7414 Y39.3550
G01 X44.7427 Y39.3680
G01 X44.7443 Y39.3924
G01 X44.7641 Y39.3870
G01 X44.8246 Y39.3719
G01 X44.8485 Y39.3665
G01 X44.8727 Y39.3623
G01 X44.9344 Y39.3532
G01 X44.9465 Y39.3515
G01 X44.9709 Y39.3491
G01 X45.0455 Y39.3453
G01 X45.0700 Y39.3447
G01 X69.6177 Y39.3447
G01 X69.6119 Y39.3344
G01 X69.6011 Y39.3135
G01 X69.5832 Y39.2742
G01 X69.5787 Y39.2633
G01 X69.5704 Y39.2414
G01 X69.5552 Y39.1959
G01 X69.5516 Y39.1835
G01 X69.5441 Y39.1538
G01 X69.5386 Y39.1288
G01 X69.5363 Y39.1162
G01 X69.5303 Y39.0781
G01 X69.5286 Y39.0650
G01 X69.5273 Y39.0520
G01 X69.5257 Y39.0276
G01 X69.5059 Y39.0330
G01 X69.4454 Y39.0481
G01 X69.4215 Y39.0535
G01 X69.3973 Y39.0577
G01 X69.3356 Y39.0668
G01 X69.3235 Y39.0685
G01 X69.2991 Y39.0709
G01 X69.2245 Y39.0747
G01 X69.2000 Y39.0753
G01 X44.6523 Y39.0753
G00 Z3.0000
G00 X45.7050 Y47.6265
G01 F60.00
G01 Z-0.1000
G01 F60.00
G01 X45.6889 Y47.6531
G01 X45.6822 Y47.6634
G01 X45.6681 Y47.6834
G01 X45.6022 Y47.7720
G01 X45.5866 Y47.7910
G01 X45.5703 Y47.8092
G01 X45.5703 Y49.4550
G01 X45.5913 Y49.4995
G01 X45.6013 Y49.5219
G01 X45.6101 Y49.5448
G01 X45.6393 Y49.6269
G01 X45.6430 Y49.6386
G01 X45.6496 Y49.6622
G01 X45.6706 Y49.7467
G01 X45.6754 Y49.7708
G01 X45.6773 Y49.7829
G01 X45.6883 Y49.8569
G01 X45.6913 Y49.8813
G01 X45.6931 Y49.9057
G01 X45.6972 Y49.9927
G01 X45.6972 Y51.5413
G01 X45.6931 Y51.6283
G01 X45.6913 Y51.6527
G01 X45.6899 Y51.6649
G01 X45.6754 Y51.7632
G01 X45.6706 Y51.7873
G01 X45.6662 Y51.8055
G01 X45.7087 Y51.8044
G01 X45.7212 Y51.8043
G01 X45.7437 Y51.8050
G01 X45.7394 Y51.7873
G01 X45.7346 Y51.7632
G01 X45.7201 Y51.6649
G01 X45.7187 Y51.6527
G01 X45.7169 Y51.6283
G01 X45.7128 Y51.5413
G01 X45.7126 Y50.0050
G01 X45.7132 Y49.9805
G01 X45.7176 Y49.8935
G01 X45.7201 Y49.8691
G01 X45.7217 Y49.8569
G01 X45.7327 Y49.7829
G01 X45.7369 Y49.7587
G01 X45.7423 Y49.7348
G01 X45.7636 Y49.6503
G01 X45.7670 Y49.6386
G01 X45.7747 Y49.6152
G01 X45.8042 Y49.5333
G01 X45.8135 Y49.5106
G01 X45.8397 Y49.4550
G01 X45.8397 Y47.8092
G01 X45.8234 Y47.7910
G01 X45.8078 Y47.7720
G01 X45.7419 Y47.6834
G01 X45.7278 Y47.6634
G01 X45.7211 Y47.6531
G01 X45.7050 Y47.6265
G01 X45.5703 Y48.2839
G01 X45.7717 Y48.5356
G01 X45.8397 Y48.6163
G01 X45.5703 Y49.2269
G01 X45.7984 Y49.4849
G01 X45.8165 Y49.5043
G00 Z3.0000
G00 X45.6974 Y50.2535
G01 F60.00
G01 Z-0.1000
G01 F60.00
G01 X45.7126 Y50.2692
G01 X45.6974 Y51.1013
G01 X45.7126 Y51.1162
G00 Z3.0000
G00 X48.2374 Y50.9100
G01 F60.00
G01 Z-0.1000
G01 F60.00
G01 X48.2526 Y50.9216
G00 Z3.0000
G00 X48.2314 Y51.6513
G01 F60.00
G01 Z-0.1000
G01 F60.00
G01 X48.2611 Y51.6728
G00 Z3.0000
G00 X48.2526 Y50.1595
G01 F60.00
G01 Z-0.1000
G01 F60.00
G01 X48.2374 Y50.1473
G00 Z3.0000
G00 X48.3696 Y49.4764
G01 F60.00
G01 Z-0.1000
G01 F60.00
G01 X48.3172 Y49.4323
G01 X48.1103 Y49.2494
G01 X48.3797 Y48.6826
G01 X48.2399 Y48.5528
G01 X48.1103 Y48.4263
G01 X48.3797 Y47.8481
G01 X48.2268 Y47.6913
G01 X48.2130 Y47.6766
G00 Z3.0000
G00 X48.2450 Y47.6265
G01 F60.00
G01 Z-0.1000
G01 F60.00
G01 X48.2289 Y47.6531
G01 X48.2222 Y47.6634
G01 X48.2081 Y47.6834
G01 X48.1422 Y47.7720
G01 X48.1266 Y47.7910
G01 X48.1103 Y47.8092
G01 X48.1103 Y49.4550
G01 X48.1313 Y49.4995
G01 X48.1413 Y49.5219
G01 X48.1501 Y49.5448
G01 X48.1793 Y49.6269
G01 X48.1830 Y49.6386
G01 X48.1896 Y49.6622
G01 X48.2106 Y49.7467
G01 X48.2154 Y49.7708
G01 X48.2173 Y49.7829
G01 X48.2283 Y49.8569
G01 X48.2313 Y49.8813
G01 X48.2331 Y49.9057
G01 X48.2372 Y49.9927
G01 X48.2372 Y51.5413
G01 X48.2331 Y51.6283
G01 X48.2324 Y51.6405
G01 X48.2299 Y51.6649
G01 X48.2154 Y51.7632
G01 X48.2106 Y51.7873
G01 X48.2062 Y51.8055
G01 X48.2487 Y51.8044
G01 X48.2612 Y51.8043
G01 X48.2837 Y51.8050
G01 X48.2794 Y51.7873
G01 X48.2746 Y51.7632
G01 X48.2601 Y51.6649
G01 X48.2587 Y51.6527
G01 X48.2569 Y51.6283
G01 X48.2528 Y51.5413
G01 X48.2526 Y50.0050
G01 X48.2532 Y49.9805
G01 X48.2576 Y49.8935
G01 X48.2601 Y49.8691
G01 X48.2617 Y49.8569
G01 X48.2727 Y49.7829
G01 X48.2769 Y49.7587
G01 X48.2823 Y49.7348
G01 X48.3036 Y49.6503
G01 X48.3070 Y49.6386
G01 X48.3147 Y49.6152
G01 X48.3442 Y49.5333
G01 X48.3535 Y49.5106
G01 X48.3797 Y49.4550
G01 X48.3797 Y47.8092
G01 X48.3634 Y47.7910
G01 X48.3478 Y47.7720
G01 X48.2819 Y47.6834
G01 X48.2678 Y47.6634
G01 X48.2611 Y47.6531
G01 X48.2450 Y47.6265
G00 Z3.0000
G00 X50.6503 Y48.2178
G01 F60.00
G01 Z-0.1000
G01 F60.00
G01 X50.7435 Y48.2852
G01 X50.9197 Y48.4060
G01 X50.6503 Y48.9483
G01 X50.8755 Y49.0948
G01 X50.9197 Y49.1220
G01 X50.7436 Y49.7182
G01 X50.8161 Y49.7627
G00 Z3.0000
G00 X50.7774 Y50.4345
G01 F60.00
G01 Z-0.1000
G01 F60.00
G01 X50.7926 Y50.4429
G01 X50.7774 Y51.1192
G01 X50.7926 Y51.1271
G00 Z3.0000
G00 X50.7517 Y51.7818
G01 F60.00
G01 Z-0.1000
G01 F60.00
G01 X50.7948 Y51.8041
G00 Z3.0000
G00 X52.9616 Y52.6774
G01 F60.00
G01 Z-0.1000
G01 F60.00
G01 X53.0420 Y52.7029
G01 X53.3744 Y52.7992
G01 X53.6884 Y52.8820
G01 X53.5450 Y53.4647
G01 X53.2143 Y53.3775
G01 X52.9616 Y53.3042
G00 Z3.0000
G00 X52.9544 Y53.9268
G01 F60.00
G01 Z-0.1000
G01 F60.00
G01 X53.0540 Y53.9557
G00 Z3.0000
G00 X52.9184 Y54.0913
G01 F60.00
G01 Z-0.1000
G01 F60.00
G01 X53.6884 Y53.3213
G01 X53.6884 Y52.4070
G01 X53.6352 Y52.3484
G01 X53.6192 Y52.3298
G01 X53.6041 Y52.3105
G01 X53.5595 Y52.2504
G01 X53.5454 Y52.2303
G01 X53.5322 Y52.2096
G01 X53.4938 Y52.1454
G01 X53.4817 Y52.1241
G01 X53.4706 Y52.1022
G01 X53.4335 Y52.0234
G01 X53.4242 Y52.0007
G01 X53.4199 Y51.9892
G01 X53.3947 Y51.9188
G01 X53.3870 Y51.8954
G01 X53.3804 Y51.8718
G01 X53.3623 Y51.7992
G01 X53.3569 Y51.7753
G01 X53.3546 Y51.7632
G01 X53.3417 Y51.6771
G01 X53.3401 Y51.6649
G01 X53.3376 Y51.6405
G01 X53.3332 Y51.5535
G01 X53.3326 Y51.5290
G01 X53.3328 Y49.9927
G01 X53.3369 Y49.9057
G01 X53.3387 Y49.8813
G01 X53.3417 Y49.8569
G01 X53.3527 Y49.7829
G01 X53.3546 Y49.7708
G01 X53.3594 Y49.7467
G01 X53.3804 Y49.6622
G01 X53.3870 Y49.6386
G01 X53.3907 Y49.6269
G01 X53.4199 Y49.5448
G01 X53.4287 Y49.5219
G01 X53.4387 Y49.4995
G01 X53.4597 Y49.4550
G01 X53.4597 Y47.8092
G01 X53.4434 Y47.7910
G01 X53.4278 Y47.7720
G01 X53.3619 Y47.6834
G01 X53.3478 Y47.6634
G01 X53.3411 Y47.6531
G01 X53.3250 Y47.6265
G01 X53.3089 Y47.6531
G01 X53.3022 Y47.6634
G01 X53.2881 Y47.6834
G01 X53.2222 Y47.7720
G01 X53.2066 Y47.7910
G01 X53.1903 Y47.8092
G01 X53.1903 Y49.4550
G01 X53.2113 Y49.4995
G01 X53.2213 Y49.5219
G01 X53.2301 Y49.5448
G01 X53.2593 Y49.6269
G01 X53.2630 Y49.6386
G01 X53.2696 Y49.6622
G01 X53.2906 Y49.7467
G01 X53.2954 Y49.7708
G01 X53.2973 Y49.7829
G01 X53.3083 Y49.8569
G01 X53.3113 Y49.8813
G01 X53.3131 Y49.9057
G01 X53.3172 Y49.9927
G01 X53.3174 Y51.5290
G01 X53.3168 Y51.5535
G01 X53.3124 Y51.6405
G01 X53.3099 Y51.6649
G01 X53.3083 Y51.6771
G01 X53.2954 Y51.7632
G01 X53.2931 Y51.7753
G01 X53.2877 Y51.7992
G01 X53.2696 Y51.8718
G01 X53.2630 Y51.8954
G01 X53.2553 Y51.9188
G01 X53.2301 Y51.9892
G01 X53.2213 Y52.0121
G01 X53.2165 Y52.0234
G01 X53.1794 Y52.1022
G01 X53.1683 Y52.1241
G01 X53.1562 Y52.1454
G01 X53.1178 Y52.2096
G01 X53.1046 Y52.2303
G01 X53.0905 Y52.2504
G01 X53.0459 Y52.3105
G01 X53.0308 Y52.3298
G01 X53.0148 Y52.3484
G01 X52.9616 Y52.4070
G01 X52.9615 Y53.8273
G01 X52.9590 Y53.8794
G01 X52.9572 Y53.9039
G01 X52.9542 Y53.9282
G01 X52.9464 Y53.9798
G01 X52.9416 Y54.0039
G01 X52.9291 Y54.0545
G01 X52.9226 Y54.0782
G01 X52.9184 Y54.0913
G00 Z3.0000
G00 X53.5403 Y52.2225
G01 F60.00
G01 Z-0.1000
G01 F60.00
G01 X53.2162 Y52.1287
G01 X53.1730 Y52.1150
G00 Z3.0000
G00 X53.3327 Y51.5363
G01 F60.00
G01 Z-0.1000
G01 F60.00
G01 X53.3174 Y51.5314
G01 X53.3326 Y50.9069
G01 X53.3174 Y50.9021
G01 X53.3326 Y50.2740
G01 X53.3174 Y50.2687
G00 Z3.0000
G00 X53.3820 Y49.6561
G01 F60.00
G01 Z-0.1000
G01 F60.00
G01 X53.2528 Y49.6081
G01 X53.4597 Y49.0449
G01 X53.3561 Y49.0064
G01 X53.1903 Y48.9401
G01 X53.4597 Y48.4017
G01 X53.3464 Y48.3564
G01 X53.1903 Y48.2895
G01 X53.3911 Y47.7228
G01 X53.3663 Y47.7122
G01 X53.2919 Y47.6781
G00 Z3.0000
G00 X55.7413 Y47.7970
G01 F60.00
G01 Z-0.1000
G01 F60.00
G01 X55.8584 Y47.8158
G01 X55.9997 Y47.8350
G00 Z3.0000
G00 X55.8650 Y47.6265
G01 F60.00
G01 Z-0.1000
G01 F60.00
G01 X55.8489 Y47.6531
G01 X55.8422 Y47.6634
G01 X55.8281 Y47.6834
G01 X55.7622 Y47.7720
G01 X55.7466 Y47.7910
G01 X55.7303 Y47.8092
G01 X55.7303 Y49.4550
G01 X55.7513 Y49.4995
G01 X55.7613 Y49.5219
G01 X55.7701 Y49.5448
G01 X55.7993 Y49.6269
G01 X55.8030 Y49.6386
G01 X55.8096 Y49.6622
G01 X55.8306 Y49.7467
G01 X55.8354 Y49.7708
G01 X55.8373 Y49.7829
G01 X55.8483 Y49.8569
G01 X55.8513 Y49.8813
G01 X55.8531 Y49.9057
G01 X55.8572 Y49.9927
G01 X55.8572 Y51.5413
G01 X55.8531 Y51.6283
G01 X55.8513 Y51.6527
G01 X55.8499 Y51.6649
G01 X55.8354 Y51.7632
G01 X55.8306 Y51.7873
G01 X55.8263 Y51.8051
G01 X55.8511 Y51.8041
G01 X55.8638 Y51.8041
G01 X55.9037 Y51.8051
G01 X55.8994 Y51.7873
G01 X55.8946 Y51.7632
G01 X55.8801 Y51.6649
G01 X55.8787 Y51.6527
G01 X55.8769 Y51.6283
G01 X55.8728 Y51.5413
G01 X55.8726 Y50.0050
G01 X55.8732 Y49.9805
G01 X55.8776 Y49.8935
G01 X55.8801 Y49.8691
G01 X55.8817 Y49.8569
G01 X55.8927 Y49.7829
G01 X55.8969 Y49.7587
G01 X55.9023 Y49.7348
G01 X55.9236 Y49.6503
G01 X55.9270 Y49.6386
G01 X55.9347 Y49.6152
G01 X55.9642 Y49.5333
G01 X55.9735 Y49.5106
G01 X55.9997 Y49.4550
G01 X55.9997 Y47.8092
G01 X55.9834 Y47.7910
G01 X55.9678 Y47.7720
G01 X55.9019 Y47.6834
G01 X55.8878 Y47.6634
G01 X55.8811 Y47.6531
G01 X55.8650 Y47.6265
G01 X55.7303 Y48.4029
G01 X55.7704 Y48.4093
G01 X55.9997 Y48.4404
G01 X55.9997 Y49.0440
G01 X55.9231 Y49.0355
G01 X55.7303 Y49.0094
G01 X55.7984 Y49.6241
G01 X55.8497 Y49.6310
G01 X55.9267 Y49.6396
G00 Z3.0000
G00 X55.8574 Y50.2355
G01 F60.00
G01 Z-0.1000
G01 F60.00
G01 X55.8726 Y50.2372
G01 X55.8574 Y50.8392
G01 X55.8726 Y50.8408
G01 X55.8574 Y51.4428
G01 X55.8726 Y51.4445
G00 Z3.0000
G00 X58.3662 Y51.8055
G01 F60.00
G01 Z-0.1000
G01 F60.00
G01 X58.4087 Y51.8044
G01 X58.4212 Y51.8043
G01 X58.4437 Y51.8050
G01 X58.4394 Y51.7873
G01 X58.4346 Y51.7632
G01 X58.4201 Y51.6649
G01 X58.4187 Y51.6527
G01 X58.4169 Y51.6283
G01 X58.4128 Y51.5413
G01 X58.4126 Y50.0050
G01 X58.4132 Y49.9805
G01 X58.4176 Y49.8935
G01 X58.4201 Y49.8691
G01 X58.4217 Y49.8569
G01 X58.4327 Y49.7829
G01 X58.4369 Y49.7587
G01 X58.4423 Y49.7348
G01 X58.4636 Y49.6503
G01 X58.4670 Y49.6386
G01 X58.4747 Y49.6152
G01 X58.5042 Y49.5333
G01 X58.5135 Y49.5106
G01 X58.5397 Y49.4550
G01 X58.5397 Y47.8092
G01 X58.5234 Y47.7910
G01 X58.5078 Y47.7720
G01 X58.4419 Y47.6834
G01 X58.4278 Y47.6634
G01 X58.4211 Y47.6531
G01 X58.4050 Y47.6265
G01 X58.3889 Y47.6531
G01 X58.3822 Y47.6634
G01 X58.3681 Y47.6834
G01 X58.3022 Y47.7720
G01 X58.2866 Y47.7910
G01 X58.2703 Y47.8092
G01 X58.2703 Y49.4550
G01 X58.2913 Y49.4995
G01 X58.3013 Y49.5219
G01 X58.3101 Y49.5448
G01 X58.3393 Y49.6269
G01 X58.3430 Y49.6386
G01 X58.3496 Y49.6622
G01 X58.3706 Y49.7467
G01 X58.3754 Y49.7708
G01 X58.3773 Y49.7829
G01 X58.3883 Y49.8569
G01 X58.3913 Y49.8813
G01 X58.3931 Y49.9057
G01 X58.3972 Y49.9927
G01 X58.3972 Y51.5413
G01 X58.3931 Y51.6283
G01 X58.3924 Y51.6405
G01 X58.3899 Y51.6649
G01 X58.3754 Y51.7632
G01 X58.3706 Y51.7873
G01 X58.3662 Y51.8055
G00 Z3.0000
G00 X58.3974 Y51.4445
G01 F60.00
G01 Z-0.1000
G01 F60.00
G01 X58.4126 Y51.4428
G01 X58.3974 Y50.8408
G01 X58.4126 Y50.8392
G01 X58.3974 Y50.2372
G01 X58.4126 Y50.2355
G00 Z3.0000
G00 X58.3433 Y49.6396
G01 F60.00
G01 Z-0.1000
G01 F60.00
G01 X58.4203 Y49.6310
G01 X58.4716 Y49.6241
G00 Z3.0000
G00 X58.2703 Y49.0440
G01 F60.00
G01 Z-0.1000
G01 F60.00
G01 X58.3469 Y49.0355
G01 X58.5397 Y49.0094
G01 X58.5397 Y48.4029
G01 X58.4996 Y48.4093
G01 X58.2703 Y48.4404
G01 X58.2703 Y47.8350
G01 X58.4116 Y47.8158
G01 X58.5287 Y47.7970
G00 Z3.0000
G00 X60.8789 Y47.7228
G01 F60.00
G01 Z-0.1000
G01 F60.00
G01 X60.9037 Y47.7122
G01 X60.9781 Y47.6781
G00 Z3.0000
G00 X61.0797 Y48.2895
G01 F60.00
G01 Z-0.1000
G01 F60.00
G01 X60.9236 Y48.3564
G01 X60.8103 Y48.4017
G01 X61.0797 Y48.9401
G01 X60.9139 Y49.0064
G01 X60.8103 Y49.0449
G01 X61.0172 Y49.6081
G01 X60.8880 Y49.6561
G00 Z3.0000
G00 X60.9526 Y50.2687
G01 F60.00
G01 Z-0.1000
G01 F60.00
G01 X60.9374 Y50.2740
G01 X60.9526 Y50.9021
G01 X60.9374 Y50.9069
G01 X60.9526 Y51.5314
G01 X60.9373 Y51.5363
G00 Z3.0000
G00 X60.9062 Y51.8055
G01 F60.00
G01 Z-0.1000
G01 F60.00
G01 X60.9487 Y51.8044
G01 X60.9612 Y51.8043
G01 X60.9837 Y51.8050
G01 X60.9794 Y51.7873
G01 X60.9746 Y51.7632
G01 X60.9601 Y51.6649
G01 X60.9587 Y51.6527
G01 X60.9569 Y51.6283
G01 X60.9528 Y51.5413
G01 X60.9526 Y50.0050
G01 X60.9532 Y49.9805
G01 X60.9576 Y49.8935
G01 X60.9601 Y49.8691
G01 X60.9617 Y49.8569
G01 X60.9727 Y49.7829
G01 X60.9769 Y49.7587
G01 X60.9823 Y49.7348
G01 X61.0036 Y49.6503
G01 X61.0070 Y49.6386
G01 X61.0147 Y49.6152
G01 X61.0442 Y49.5333
G01 X61.0535 Y49.5106
G01 X61.0797 Y49.4550
G01 X61.0797 Y47.8092
G01 X61.0634 Y47.7910
G01 X61.0478 Y47.7720
G01 X60.9819 Y47.6834
G01 X60.9678 Y47.6634
G01 X60.9611 Y47.6531
G01 X60.9450 Y47.6265
G01 X60.9289 Y47.6531
G01 X60.9222 Y47.6634
G01 X60.9081 Y47.6834
G01 X60.8422 Y47.7720
G01 X60.8266 Y47.7910
G01 X60.8103 Y47.8092
G01 X60.8103 Y49.4550
G01 X60.8313 Y49.4995
G01 X60.8413 Y49.5219
G01 X60.8501 Y49.5448
G01 X60.8793 Y49.6269
G01 X60.8830 Y49.6386
G01 X60.8896 Y49.6622
G01 X60.9106 Y49.7467
G01 X60.9154 Y49.7708
G01 X60.9173 Y49.7829
G01 X60.9283 Y49.8569
G01 X60.9313 Y49.8813
G01 X60.9331 Y49.9057
G01 X60.9372 Y49.9927
G01 X60.9372 Y51.5413
G01 X60.9331 Y51.6283
G01 X60.9313 Y51.6527
G01 X60.9299 Y51.6649
G01 X60.9154 Y51.7632
G01 X60.9106 Y51.7873
G01 X60.9062 Y51.8055
G00 Z3.0000
G00 X63.4774 Y51.4971
G01 F60.00
G01 Z-0.1000
G01 F60.00
G01 X63.4926 Y51.4931
G01 X63.4927 Y49.9983
G01 X63.4772 Y49.9936
G01 X63.4774 Y51.4971
G00 Z3.0000
G00 X63.4774 Y51.1271
G01 F60.00
G01 Z-0.1000
G01 F60.00
G01 X63.4926 Y51.1192
G01 X63.4774 Y50.4429
G01 X63.4926 Y50.4345
G00 Z3.0000
G00 X66.0174 Y50.1595
G01 F60.00
G01 Z-0.1000
G01 F60.00
G01 X66.0326 Y50.1473
G00 Z3.0000
G00 X66.0328 Y49.9935
G01 F60.00
G01 Z-0.1000
G01 F60.00
G01 X66.0173 Y49.9985
G01 X66.0174 Y51.4929
G01 X66.0326 Y51.4970
G01 X66.0328 Y49.9935
G00 Z3.0000
G00 X66.0326 Y50.9100
G01 F60.00
G01 Z-0.1000
G01 F60.00
G01 X66.0174 Y50.9216
G00 Z3.0000
G00 X68.5574 Y50.2692
G01 F60.00
G01 Z-0.1000
G01 F60.00
G01 X68.6505 Y50.1737
G01 X68.9161 Y49.8878
G01 X69.1746 Y49.5954
G01 X69.4259 Y49.2969
G01 X69.6697 Y48.9922
G01 X69.9060 Y48.6816
G01 X69.9697 Y48.5935
G01 X69.8110 Y47.7766
G01 X69.6440 Y48.0199
G01 X69.4241 Y48.3242
G01 X69.1967 Y48.6230
G01 X68.9621 Y48.9162
G01 X68.7203 Y49.2035
G01 X68.4716 Y49.4849
G01 X68.4535 Y49.5043
G01 X68.4303 Y48.6163
G01 X68.4983 Y48.5356
G01 X68.7237 Y48.2539
G01 X68.9422 Y47.9668
G01 X69.1535 Y47.6744
G01 X69.3576 Y47.3769
G01 X69.3788 Y47.3443
G01 X68.9451 Y46.9107
G01 X68.8587 Y47.0435
G01 X68.7451 Y47.2091
G00 Z3.0000
G00 X67.3674 Y45.3330
G01 F60.00
G01 Z-0.1000
G01 F60.00
G01 X67.3391 Y45.3047
G01 X67.3307 Y45.3312
G01 X67.3674 Y45.3330
G00 Z3.0000
G00 X67.2440 Y42.0473
G01 F60.00
G01 Z-0.1000
G01 F60.00
G01 X67.2546 Y42.0105
G01 X67.3203 Y41.7613
G01 X67.3550 Y41.6153
G00 Z3.0000
G00 X67.5539 Y41.6153
G01 F60.00
G01 Z-0.1000
G01 F60.00
G01 X61.7973 Y41.6153
G01 X61.8083 Y41.6353
G01 X61.8135 Y41.6456
G01 X61.8185 Y41.6561
G01 X61.8343 Y41.6917
G01 X61.8437 Y41.7161
G01 X61.8598 Y41.7641
G01 X61.8634 Y41.7765
G01 X61.8709 Y41.8062
G01 X61.8764 Y41.8312
G01 X61.8787 Y41.8438
G01 X61.8847 Y41.8819
G01 X61.8864 Y41.8950
G01 X61.8877 Y41.9080
G01 X61.8893 Y41.9324
G01 X61.9091 Y41.9270
G01 X61.9696 Y41.9119
G01 X61.9935 Y41.9065
G01 X62.0177 Y41.9023
G01 X62.0794 Y41.8932
G01 X62.0915 Y41.8915
G01 X62.1159 Y41.8891
G01 X62.1905 Y41.8853
G01 X62.2150 Y41.8847
G01 X66.6600 Y41.8847
G01 X66.6845 Y41.8853
G01 X66.7468 Y41.8883
G01 X66.7713 Y41.8901
G01 X66.7956 Y41.8932
G01 X66.8573 Y41.9023
G01 X66.8815 Y41.9065
G01 X66.9054 Y41.9119
G01 X66.9659 Y41.9270
G01 X66.9896 Y41.9336
G01 X67.0129 Y41.9413
G01 X67.0716 Y41.9623
G01 X67.0945 Y41.9711
G01 X67.1169 Y41.9810
G01 X67.1733 Y42.0077
G01 X67.1952 Y42.0187
G01 X67.2165 Y42.0308
G01 X67.2805 Y42.0693
G01 X67.3009 Y42.0830
G01 X67.3108 Y42.0901
G01 X67.3707 Y42.1347
G01 X67.3896 Y42.1503
G01 X67.4319 Y42.1884
G01 X67.4298 Y42.1433
G01 X67.4298 Y42.1187
G01 X67.4341 Y42.0319
G01 X67.4351 Y42.0197
G01 X67.4382 Y41.9954
G01 X67.4493 Y41.9216
G01 X67.4540 Y41.8975
G01 X67.4752 Y41.8132
G01 X67.4786 Y41.8014
G01 X67.4863 Y41.7781
G01 X67.5073 Y41.7194
G01 X67.5161 Y41.6965
G01 X67.5260 Y41.6741
G01 X67.5539 Y41.6153
G00 Z3.0000
G00 X66.7384 Y41.6153
G01 F60.00
G01 Z-0.1000
G01 F60.00
G01 X66.6764 Y41.8505
G01 X66.6664 Y41.8848
G00 Z3.0000
G00 X66.1179 Y41.6153
G01 F60.00
G01 Z-0.1000
G01 F60.00
G01 X66.0981 Y41.6904
G01 X66.0418 Y41.8847
G01 X65.4952 Y41.6153
G01 X65.4604 Y41.7355
G01 X65.4131 Y41.8847
G01 X64.8691 Y41.6153
G01 X64.8262 Y41.7508
G01 X64.7801 Y41.8847
G01 X64.2383 Y41.6153
G01 X64.1966 Y41.7367
G01 X64.1416 Y41.8847
G01 X63.6016 Y41.6153
G01 X63.5727 Y41.6933
G01 X63.5098 Y41.8505
G01 X63.4951 Y41.8847
G01 X62.9577 Y41.6153
G01 X62.8945 Y41.7630
G01 X62.8388 Y41.8847
G01 X62.3023 Y41.6153
G01 X62.2877 Y41.6471
G01 X62.2264 Y41.7728
G01 X62.1674 Y41.8864
G00 Z3.0000
G00 X62.2331 Y39.3447
G01 F60.00
G01 Z-0.1000
G01 F60.00
G01 X62.2350 Y39.2100
G01 X62.2331 Y39.0753
G00 Z3.0000
G00 X62.8333 Y39.0753
G01 F60.00
G01 Z-0.1000
G01 F60.00
G01 X62.8350 Y39.2100
G01 X62.8333 Y39.3447
G00 Z3.0000
G00 X63.4333 Y39.3447
G01 F60.00
G01 Z-0.1000
G01 F60.00
G01 X63.4350 Y39.2100
G01 X63.4333 Y39.0753
G00 Z3.0000
G00 X64.0333 Y39.0753
G01 F60.00
G01 Z-0.1000
G01 F60.00
G01 X64.0350 Y39.2100
G01 X64.0333 Y39.3447
G00 Z3.0000
G00 X64.6333 Y39.3447
G01 F60.00
G01 Z-0.1000
G01 F60.00
G01 X64.6350 Y39.2100
G01 X64.6333 Y39.0753
G00 Z3.0000
G00 X65.2333 Y39.0753
G01 F60.00
G01 Z-0.1000
G01 F60.00
G01 X65.2350 Y39.2100
G01 X65.2333 Y39.3447
G00 Z3.0000
G00 X65.8333 Y39.3447
G01 F60.00
G01 Z-0.1000
G01 F60.00
G01 X65.8350 Y39.2100
G01 X65.8333 Y39.0753
G00 Z3.0000
G00 X66.4333 Y39.0753
G01 F60.00
G01 Z-0.1000
G01 F60.00
G01 X66.4350 Y39.2100
G01 X66.4333 Y39.3447
G00 Z3.0000
G00 X67.0333 Y39.3447
G01 F60.00
G01 Z-0.1000
G01 F60.00
G01 X67.0350 Y39.2100
G01 X67.0333 Y39.0753
G00 Z3.0000
G00 X67.6333 Y39.0753
G01 F60.00
G01 Z-0.1000
G01 F60.00
G01 X67.6350 Y39.2100
G01 X67.6333 Y39.3447
G00 Z3.0000
G00 X68.2333 Y39.3447
G01 F60.00
G01 Z-0.1000
G01 F60.00
G01 X68.2350 Y39.2100
G01 X68.2333 Y39.0753
G00 Z3.0000
G00 X68.8333 Y39.0753
G01 F60.00
G01 Z-0.1000
G01 F60.00
G01 X68.8350 Y39.2100
G01 X68.8333 Y39.3447
G00 Z3.0000
G00 X69.4333 Y39.3447
G01 F60.00
G01 Z-0.1000
G01 F60.00
G01 X69.4350 Y39.2100
G01 X69.4330 Y39.0511
G00 Z3.0000
G00 X69.8079 Y41.6153
G01 F60.00
G01 Z-0.1000
G01 F60.00
G01 X69.7871 Y41.7267
G01 X69.7835 Y41.7439
G01 X70.4181 Y41.6153
G01 X70.3756 Y41.8437
G01 X70.3070 Y42.1679
G01 X70.2879 Y42.2483
G01 X70.7839 Y42.7443
G01 X70.8124 Y42.6360
G01 X70.8924 Y42.2993
G01 X70.9641 Y41.9608
G01 X71.0283 Y41.6153
G00 Z3.0000
G00 X71.6359 Y41.6153
G01 F60.00
G01 Z-0.1000
G01 F60.00
G01 X71.6186 Y41.7231
G01 X71.5525 Y42.0778
G01 X71.4778 Y42.4308
G01 X71.3945 Y42.7818
G01 X71.3025 Y43.1307
G01 X71.2728 Y43.2332
G01 X71.7557 Y43.7161
G01 X71.7762 Y43.6514
G01 X71.8808 Y43.2907
G01 X71.9765 Y42.9276
G01 X72.0632 Y42.5622
G01 X72.1410 Y42.1949
G01 X72.2097 Y41.8257
G01 X72.2621 Y41.5002
G00 Z3.0000
G00 X72.5097 Y41.3367
G01 F60.00
G01 Z-0.1000
G01 F60.00
G01 X72.4857 Y41.3576
G01 X72.4664 Y41.3727
G01 X72.4064 Y41.4170
G01 X72.3860 Y41.4307
G01 X72.3220 Y41.4692
G01 X72.3007 Y41.4813
G01 X72.2788 Y41.4923
G01 X72.2112 Y41.5241
G01 X72.1886 Y41.5335
G01 X72.1184 Y41.5587
G01 X72.0951 Y41.5664
G01 X72.0714 Y41.5730
G01 X72.0109 Y41.5881
G01 X71.9870 Y41.5935
G01 X71.9628 Y41.5977
G01 X71.9011 Y41.6068
G01 X71.8768 Y41.6099
G01 X71.8523 Y41.6117
G01 X71.7900 Y41.6147
G01 X71.7655 Y41.6153
G01 X69.6549 Y41.6153
G01 X72.5274 Y44.4878
G01 X72.5182 Y44.4256
G01 X72.5151 Y44.4013
G01 X72.5133 Y44.3768
G01 X72.5103 Y44.3145
G01 X72.5097 Y44.2900
G01 X72.5097 Y41.3367
G00 Z3.0000
G00 X72.5097 Y43.2586
G01 F60.00
G01 Z-0.1000
G01 F60.00
G01 X72.4590 Y43.4507
G01 X72.3504 Y43.8255
G01 X72.2336 Y44.1940
G00 Z3.0000
G00 X72.2382 Y47.4098
G01 F60.00
G01 Z-0.1000
G01 F60.00
G01 X72.2397 Y47.4405
G01 X72.2403 Y47.4650
G01 X72.2403 Y50.8047
G01 X73.4803 Y52.0447
G01 X73.6030 Y52.0447
G01 X73.6475 Y52.0237
G01 X73.6699 Y52.0137
G01 X73.6928 Y52.0049
G01 X73.7749 Y51.9757
G01 X73.7866 Y51.9720
G01 X73.8102 Y51.9654
G01 X73.8947 Y51.9444
G01 X73.9188 Y51.9396
G01 X73.9309 Y51.9377
G01 X74.0049 Y51.9267
G01 X74.0293 Y51.9237
G01 X74.0537 Y51.9219
G01 X74.1407 Y51.9178
G01 X75.6893 Y51.9178
G01 X75.7885 Y51.9226
G01 X75.8129 Y51.9251
G01 X75.8251 Y51.9267
G01 X75.8991 Y51.9377
G01 X75.9233 Y51.9419
G01 X75.9472 Y51.9473
G01 X76.0317 Y51.9686
G01 X76.0434 Y51.9720
G01 X76.0668 Y51.9797
G01 X76.1372 Y52.0049
G01 X76.1601 Y52.0137
G01 X76.1825 Y52.0237
G01 X76.2502 Y52.0556
G01 X76.2721 Y52.0667
G01 X76.2934 Y52.0788
G01 X76.3576 Y52.1172
G01 X76.3783 Y52.1304
G01 X76.3984 Y52.1445
G01 X76.4585 Y52.1891
G01 X76.4778 Y52.2042
G01 X76.4964 Y52.2202
G01 X76.5519 Y52.2704
G01 X76.5696 Y52.2874
G01 X76.5866 Y52.3051
G01 X76.6449 Y52.3698
G01 X76.6528 Y52.3792
G01 X76.6679 Y52.3985
G01 X76.7125 Y52.4586
G01 X76.7266 Y52.4787
G01 X76.7398 Y52.4994
G01 X76.7782 Y52.5636
G01 X76.7903 Y52.5849
G01 X76.8014 Y52.6068
G01 X76.8385 Y52.6856
G01 X76.8478 Y52.7083
G01 X76.8521 Y52.7198
G01 X76.8773 Y52.7902
G01 X76.8850 Y52.8136
G01 X76.8884 Y52.8253
G01 X76.9097 Y52.9098
G01 X76.9151 Y52.9337
G01 X76.9193 Y52.9579
G01 X76.9281 Y53.0174
G01 X77.0309 Y52.9146
G01 X77.0309 Y49.2815
G01 X76.0326 Y48.2832
G01 X76.0418 Y48.3454
G01 X76.0449 Y48.3697
G01 X76.0467 Y48.3942
G01 X76.0502 Y48.4687
G01 X76.0503 Y49.4342
G01 X76.0668 Y49.4397
G01 X76.1372 Y49.4649
G01 X76.1601 Y49.4737
G01 X76.1825 Y49.4837
G01 X76.2502 Y49.5156
G01 X76.2721 Y49.5267
G01 X76.2934 Y49.5388
G01 X76.3576 Y49.5772
G01 X76.3783 Y49.5904
G01 X76.3984 Y49.6045
G01 X76.4585 Y49.6491
G01 X76.4778 Y49.6642
G01 X76.4964 Y49.6802
G01 X76.5519 Y49.7304
G01 X76.5696 Y49.7474
G01 X76.5866 Y49.7651
G01 X76.6368 Y49.8206
G01 X76.6528 Y49.8392
G01 X76.6679 Y49.8585
G01 X76.7125 Y49.9186
G01 X76.7266 Y49.9387
G01 X76.7398 Y49.9594
G01 X76.7782 Y50.0236
G01 X76.7903 Y50.0449
G01 X76.8014 Y50.0668
G01 X76.8333 Y50.1345
G01 X76.8433 Y50.1569
G01 X76.8521 Y50.1798
G01 X76.8773 Y50.2502
G01 X76.8850 Y50.2736
G01 X76.8916 Y50.2972
G01 X76.9097 Y50.3698
G01 X76.9151 Y50.3937
G01 X76.9193 Y50.4179
G01 X76.9319 Y50.5041
G01 X76.9333 Y50.5163
G01 X76.9351 Y50.5407
G01 X76.9388 Y50.6155
G01 X76.9394 Y50.6400
G01 X76.9388 Y50.6645
G01 X76.9351 Y50.7393
G01 X76.9333 Y50.7637
G01 X76.9303 Y50.7881
G01 X76.9193 Y50.8621
G01 X76.9151 Y50.8863
G01 X76.9097 Y50.9102
G01 X76.8916 Y50.9828
G01 X76.8850 Y51.0064
G01 X76.8773 Y51.0298
G01 X76.8521 Y51.1002
G01 X76.8433 Y51.1231
G01 X76.8333 Y51.1455
G01 X76.8014 Y51.2132
G01 X76.7903 Y51.2351
G01 X76.7782 Y51.2564
G01 X76.7398 Y51.3206
G01 X76.7266 Y51.3413
G01 X76.7125 Y51.3614
G01 X76.6679 Y51.4215
G01 X76.6528 Y51.4408
G01 X76.6368 Y51.4594
G01 X76.5866 Y51.5149
G01 X76.5696 Y51.5326
G01 X76.5519 Y51.5496
G01 X76.4964 Y51.5998
G01 X76.4778 Y51.6158
G01 X76.4585 Y51.6309
G01 X76.3984 Y51.6755
G01 X76.3783 Y51.6896
G01 X76.3576 Y51.7028
G01 X76.2828 Y51.7474
G01 X76.2612 Y51.7590
G01 X76.2502 Y51.7644
G01 X76.1825 Y51.7963
G01 X76.1714 Y51.8015
G01 X76.1487 Y51.8108
G01 X76.0668 Y51.8403
G01 X76.0434 Y51.8480
G01 X76.0198 Y51.8546
G01 X75.9472 Y51.8727
G01 X75.9233 Y51.8781
G01 X75.8991 Y51.8823
G01 X75.8251 Y51.8933
G01 X75.8129 Y51.8949
G01 X75.7885 Y51.8974
G01 X75.7015 Y51.9018
G01 X75.6770 Y51.9024
G01 X74.1530 Y51.9024
G01 X74.1285 Y51.9018
G01 X74.0537 Y51.8981
G01 X74.0293 Y51.8963
G01 X74.0049 Y51.8933
G01 X73.9309 Y51.8823
G01 X73.9067 Y51.8781
G01 X73.8828 Y51.8727
G01 X73.8102 Y51.8546
G01 X73.7866 Y51.8480
G01 X73.7632 Y51.8403
G01 X73.6813 Y51.8108
G01 X73.6699 Y51.8063
G01 X73.6475 Y51.7963
G01 X73.5798 Y51.7644
G01 X73.5579 Y51.7533
G01 X73.5366 Y51.7412
G01 X73.4724 Y51.7028
G01 X73.4517 Y51.6896
G01 X73.4316 Y51.6755
G01 X73.3715 Y51.6309
G01 X73.3522 Y51.6158
G01 X73.3336 Y51.5998
G01 X73.2781 Y51.5496
G01 X73.2604 Y51.5326
G01 X73.2434 Y51.5149
G01 X73.1932 Y51.4594
G01 X73.1772 Y51.4408
G01 X73.1621 Y51.4215
G01 X73.1175 Y51.3614
G01 X73.1034 Y51.3413
G01 X73.0902 Y51.3206
G01 X73.0518 Y51.2564
G01 X73.0397 Y51.2351
G01 X73.0286 Y51.2132
G01 X72.9967 Y51.1455
G01 X72.9867 Y51.1231
G01 X72.9779 Y51.1002
G01 X72.9527 Y51.0298
G01 X72.9450 Y51.0064
G01 X72.9384 Y50.9828
G01 X72.9203 Y50.9102
G01 X72.9149 Y50.8863
G01 X72.9107 Y50.8621
G01 X72.8997 Y50.7881
G01 X72.8967 Y50.7637
G01 X72.8949 Y50.7393
G01 X72.8912 Y50.6645
G01 X72.8906 Y50.6400
G01 X72.8908 Y50.6277
G01 X72.8949 Y50.5407
G01 X72.8967 Y50.5163
G01 X72.8997 Y50.4919
G01 X72.9126 Y50.4058
G01 X72.9149 Y50.3937
G01 X72.9203 Y50.3698
G01 X72.9384 Y50.2972
G01 X72.9450 Y50.2736
G01 X72.9527 Y50.2502
G01 X72.9779 Y50.1798
G01 X72.9867 Y50.1569
G01 X72.9967 Y50.1345
G01 X73.0286 Y50.0668
G01 X73.0397 Y50.0449
G01 X73.0518 Y50.0236
G01 X73.0902 Y49.9594
G01 X73.1034 Y49.9387
G01 X73.1175 Y49.9186
G01 X73.1621 Y49.8585
G01 X73.1772 Y49.8392
G01 X73.1932 Y49.8206
G01 X73.2434 Y49.7651
G01 X73.2518 Y49.7561
G01 X73.2691 Y49.7388
G01 X73.3336 Y49.6802
G01 X73.3522 Y49.6642
G01 X73.3715 Y49.6491
G01 X73.4415 Y49.5973
G01 X73.4619 Y49.5837
G01 X73.4724 Y49.5772
G01 X73.5366 Y49.5388
G01 X73.5579 Y49.5267
G01 X73.5798 Y49.5156
G01 X73.6475 Y49.4837
G01 X73.6699 Y49.4737
G01 X73.6928 Y49.4649
G01 X73.7632 Y49.4397
G01 X73.7797 Y49.4342
G01 X73.7797 Y48.9513
G01 X72.2382 Y47.4098
G00 Z3.0000
G00 X72.6162 Y47.7878
G01 F60.00
G01 Z-0.1000
G01 F60.00
G01 X72.5355 Y47.9343
G01 X72.3168 Y48.3096
G01 X72.2403 Y48.4337
G01 X73.0579 Y48.2295
G01 X72.8314 Y48.6181
G01 X72.5958 Y49.0005
G01 X72.3509 Y49.3769
G01 X72.2403 Y49.5381
G00 Z3.0000
G00 X72.2403 Y50.5677
G01 F60.00
G01 Z-0.1000
G01 F60.00
G01 X72.3156 Y50.4687
G01 X72.5874 Y50.0928
G01 X72.8498 Y49.7103
G01 X73.1027 Y49.3215
G01 X73.3461 Y48.9265
G01 X73.4966 Y48.6682
G01 X73.7797 Y49.3665
G01 X73.7265 Y49.4528
G00 Z3.0000
G00 X72.8927 Y50.6945
G01 F60.00
G01 Z-0.1000
G01 F60.00
G01 X72.7975 Y50.8261
G01 X72.5660 Y51.1304
G01 X72.9941 Y51.5586
G01 X73.1307 Y51.3791
G00 Z3.0000
G00 X73.5884 Y51.7684
G01 F60.00
G01 Z-0.1000
G01 F60.00
G01 X73.4538 Y51.9453
G01 X73.4214 Y51.9858
G00 Z3.0000
G00 X74.2287 Y51.9176
G01 F60.00
G01 Z-0.1000
G01 F60.00
G01 X74.2403 Y51.9024
G01 X74.9697 Y51.9176
G01 X74.9807 Y51.9024
G00 Z3.0000
G00 X75.7005 Y51.9182
G01 F60.00
G01 Z-0.1000
G01 F60.00
G01 X75.7121 Y51.9013
G00 Z3.0000
G00 X76.3107 Y52.0892
G01 F60.00
G01 Z-0.1000
G01 F60.00
G01 X76.3419 Y52.0437
G01 X76.6511 Y51.5684
G01 X76.9485 Y51.0858
G01 X77.0309 Y50.9445
G00 Z3.0000
G00 X76.8194 Y50.1050
G01 F60.00
G01 Z-0.1000
G01 F60.00
G01 X76.9782 Y49.8164
G01 X77.0309 Y49.7149
G01 X76.4067 Y49.6106
G01 X76.4491 Y49.5336
G01 X76.6966 Y49.0565
G01 X76.7325 Y48.9830
G01 X76.2838 Y48.5344
G01 X76.1607 Y48.7867
G01 X76.0503 Y48.9994
G00 Z3.0000
G00 X77.0309 Y52.0849
G01 F60.00
G01 Z-0.1000
G01 F60.00
G01 X76.8408 Y52.3770
G01 X76.7477 Y52.5127
G00 Z3.0000
G00 X75.5031 Y54.4424
G01 F60.00
G01 Z-0.1000
G01 F60.00
G01 X74.1530 Y54.4424
G01 X74.1285 Y54.4418
G01 X74.0415 Y54.4374
G01 X74.0171 Y54.4349
G01 X74.0049 Y54.4333
G01 X73.9309 Y54.4223
G01 X73.9067 Y54.4181
G01 X73.8828 Y54.4127
G01 X73.7983 Y54.3914
G01 X73.7866 Y54.3880
G01 X73.7632 Y54.3803
G01 X73.6813 Y54.3508
G01 X73.6586 Y54.3415
G01 X73.6030 Y54.3153
G01 X73.0100 Y54.3153
G01 X72.9855 Y54.3147
G01 X72.9232 Y54.3117
G01 X72.8987 Y54.3099
G01 X72.8744 Y54.3068
G01 X72.8127 Y54.2977
G01 X72.7885 Y54.2935
G01 X72.7646 Y54.2881
G01 X72.7041 Y54.2730
G01 X72.6804 Y54.2664
G01 X72.6687 Y54.2627
G01 X72.5984 Y54.2377
G01 X72.5755 Y54.2289
G01 X72.5531 Y54.2190
G01 X72.4967 Y54.1923
G01 X72.4748 Y54.1813
G01 X72.4535 Y54.1692
G01 X72.4000 Y54.1371
G01 X72.3793 Y54.1240
G01 X72.3592 Y54.1099
G01 X72.3091 Y54.0727
G01 X72.2898 Y54.0576
G01 X72.2712 Y54.0416
G01 X72.2160 Y53.9914
G01 X70.3022 Y52.0778
G01 X70.2853 Y52.0600
G01 X70.2353 Y52.0046
G01 X70.2197 Y51.9857
G01 X70.1751 Y51.9258
G01 X70.1610 Y51.9057
G01 X70.1479 Y51.8850
G01 X70.1158 Y51.8315
G01 X70.1037 Y51.8102
G01 X70.0927 Y51.7883
G01 X70.0660 Y51.7319
G01 X70.0561 Y51.7095
G01 X70.0473 Y51.6866
G01 X70.0263 Y51.6279
G01 X70.0186 Y51.6046
G01 X70.0120 Y51.5809
G01 X69.9969 Y51.5204
G01 X69.9915 Y51.4965
G01 X69.9873 Y51.4723
G01 X69.9765 Y51.3985
G01 X69.9741 Y51.3741
G01 X69.9703 Y51.2995
G01 X69.9697 Y51.2750
G01 X69.9697 Y47.9353
G01 X68.7920 Y46.7576
G01 X68.7948 Y46.8177
G01 X68.7948 Y46.8423
G01 X68.7896 Y46.9526
G01 X68.7878 Y46.9770
G01 X68.7864 Y46.9892
G01 X68.7704 Y47.0985
G01 X68.7662 Y47.1226
G01 X68.7608 Y47.1466
G01 X68.7370 Y47.2418
G01 X68.7338 Y47.2536
G01 X68.7267 Y47.2771
G01 X68.6897 Y47.3811
G01 X68.6808 Y47.4040
G01 X68.6709 Y47.4265
G01 X68.6289 Y47.5152
G01 X68.6179 Y47.5371
G01 X68.6120 Y47.5478
G01 X68.5553 Y47.6426
G01 X68.5489 Y47.6531
G01 X68.5353 Y47.6735
G01 X68.4622 Y47.7720
G01 X68.4466 Y47.7910
G01 X68.4303 Y47.8092
G01 X68.4303 Y49.4550
G01 X68.4565 Y49.5106
G01 X68.4658 Y49.5333
G01 X68.4953 Y49.6152
G01 X68.5030 Y49.6386
G01 X68.5064 Y49.6503
G01 X68.5277 Y49.7348
G01 X68.5331 Y49.7587
G01 X68.5373 Y49.7829
G01 X68.5499 Y49.8691
G01 X68.5513 Y49.8813
G01 X68.5531 Y49.9057
G01 X68.5572 Y49.9927
G01 X68.5574 Y50.4238
G01 X72.7183 Y54.5847
G01 X73.6030 Y54.5847
G01 X73.6586 Y54.5585
G01 X73.6813 Y54.5492
G01 X73.7632 Y54.5197
G01 X73.7866 Y54.5120
G01 X73.7983 Y54.5086
G01 X73.8828 Y54.4873
G01 X73.9067 Y54.4819
G01 X73.9188 Y54.4796
G01 X74.0171 Y54.4651
G01 X74.0293 Y54.4637
G01 X74.0537 Y54.4619
G01 X74.1285 Y54.4582
G01 X74.1530 Y54.4576
G01 X75.4879 Y54.4576
G01 X75.5031 Y54.4424
G01 X75.2894 Y54.4424
G01 X75.2765 Y54.4576
G01 X74.4991 Y54.4424
G01 X74.4856 Y54.4576
G00 Z3.0000
G00 X73.7536 Y54.3769
G01 F60.00
G01 Z-0.1000
G01 F60.00
G01 X73.5606 Y54.5847
G00 Z3.0000
G00 X72.9921 Y54.3150
G01 F60.00
G01 Z-0.1000
G01 F60.00
G01 X72.7289 Y54.5847
G01 X72.2994 Y54.1658
G01 X72.3562 Y54.1076
G00 Z3.0000
G00 X71.9200 Y53.6956
G01 F60.00
G01 Z-0.1000
G01 F60.00
G01 X71.8751 Y53.7415
G01 X71.4509 Y53.3173
G01 X71.4957 Y53.2713
G01 X71.0715 Y52.8470
G01 X71.0266 Y52.8930
G01 X70.6023 Y52.4687
G01 X70.6472 Y52.4228
G00 Z3.0000
G00 X70.2268 Y51.9945
G01 F60.00
G01 Z-0.1000
G01 F60.00
G01 X70.1781 Y52.0445
G01 X69.7538 Y51.6202
G01 X69.9542 Y51.4149
G01 X69.9757 Y51.3916
G00 Z3.0000
G00 X69.3295 Y51.1960
G01 F60.00
G01 Z-0.1000
G01 F60.00
G01 X69.5196 Y51.0011
G01 X69.8053 Y50.6937
G01 X69.9697 Y50.5077
G00 Z3.0000
G00 X69.9697 Y49.5775
G01 F60.00
G01 Z-0.1000
G01 F60.00
G01 X69.8897 Y49.6775
G01 X69.6289 Y49.9874
G01 X69.3607 Y50.2907
G01 X69.0851 Y50.5874
G01 X68.9053 Y50.7717
G00 Z3.0000
G00 X69.3887 Y54.4663
G01 F60.00
G01 Z-0.1000
G01 F60.00
G01 X69.3700 Y54.5219
G01 X69.3612 Y54.5452
G01 X69.3563 Y54.5566
G01 X69.3485 Y54.5741
G01 X69.3369 Y54.5972
G01 X69.3117 Y54.6427
G01 X69.2996 Y54.6630
G01 X69.2931 Y54.6729
G01 X69.2743 Y54.6997
G01 X69.2662 Y54.7103
G01 X69.2333 Y54.7509
G01 X69.2159 Y54.7707
G01 X69.2025 Y54.7847
G01 X69.1848 Y54.8019
G01 X69.1394 Y54.8415
G01 X69.1307 Y54.8487
G01 X69.1130 Y54.8625
G01 X69.0894 Y54.8791
G01 X69.0702 Y54.8914
G01 X69.0264 Y54.9173
G01 X69.0050 Y54.9290
G01 X68.9885 Y54.9371
G01 X68.9639 Y54.9481
G01 X68.9514 Y54.9532
G01 X68.9223 Y54.9639
G01 X68.9835 Y54.9930
G01 X69.0052 Y55.0045
G01 X69.1637 Y55.0994
G01 X69.1845 Y55.1125
G01 X69.1946 Y55.1195
G01 X69.3431 Y55.2294
G01 X69.3625 Y55.2445
G01 X69.3810 Y55.2606
G01 X69.5089 Y55.3764
G01 X69.5266 Y55.3934
G01 X69.5352 Y55.4021
G01 X69.6594 Y55.5390
G01 X69.6755 Y55.5575
G01 X69.6906 Y55.5769
G01 X69.7933 Y55.7155
G01 X69.8075 Y55.7355
G01 X69.8206 Y55.7563
G01 X69.9093 Y55.9042
G01 X69.9214 Y55.9256
G01 X69.9324 Y55.9475
G01 X70.0062 Y56.1035
G01 X70.0161 Y56.1259
G01 X70.0250 Y56.1488
G01 X70.0831 Y56.3112
G01 X70.0908 Y56.3345
G01 X70.0973 Y56.3582
G01 X70.1392 Y56.5255
G01 X70.1446 Y56.5495
G01 X70.1488 Y56.5737
G01 X70.1741 Y56.7443
G01 X70.1771 Y56.7687
G01 X70.1789 Y56.7932
G01 X70.1874 Y56.9655
G01 X70.1880 Y56.9900
G01 X70.1878 Y57.0023
G01 X70.1789 Y57.1868
G01 X70.1771 Y57.2113
G01 X70.1741 Y57.2357
G01 X70.1488 Y57.4063
G01 X70.1446 Y57.4305
G01 X70.1421 Y57.4425
G01 X70.0973 Y57.6218
G01 X70.0908 Y57.6455
G01 X70.0871 Y57.6572
G01 X70.0207 Y57.8427
G01 X70.0113 Y57.8654
G01 X69.9829 Y57.9257
G01 X70.0053 Y57.9183
G01 X70.0656 Y57.9009
G01 X70.0766 Y57.8982
G01 X70.0988 Y57.8936
G01 X70.1149 Y57.8907
G01 X70.1364 Y57.8877
G01 X70.1885 Y57.8821
G01 X70.2131 Y57.8805
G01 X70.2309 Y57.8800
G01 X70.2570 Y57.8802
G01 X70.2700 Y57.8808
G01 X70.3224 Y57.8847
G01 X70.3350 Y57.8859
G01 X70.3601 Y57.8894
G01 X70.3899 Y57.8948
G01 X70.4509 Y57.9100
G01 X70.4730 Y57.9164
G01 X70.5000 Y57.9257
G01 X70.5106 Y57.9297
G01 X70.5315 Y57.9384
G01 X70.5768 Y57.9590
G01 X70.6047 Y57.9733
G01 X70.6048 Y57.6127
G01 X70.6091 Y57.5259
G01 X70.6101 Y57.5137
G01 X70.6132 Y57.4894
G01 X70.6223 Y57.4277
G01 X70.6265 Y57.4035
G01 X70.6319 Y57.3796
G01 X70.6470 Y57.3191
G01 X70.6536 Y57.2954
G01 X70.6613 Y57.2721
G01 X70.6823 Y57.2134
G01 X70.6911 Y57.1905
G01 X70.7010 Y57.1681
G01 X70.7277 Y57.1117
G01 X70.7331 Y57.1007
G01 X70.7447 Y57.0791
G01 X70.7829 Y57.0150
G01 X70.7960 Y56.9943
G01 X70.8101 Y56.9742
G01 X70.8547 Y56.9143
G01 X70.8703 Y56.8954
G01 X70.8784 Y56.8862
G01 X70.9203 Y56.8400
G01 X70.9372 Y56.8222
G01 X71.3409 Y56.4185
G01 X69.3887 Y54.4663
G01 X69.7661 Y54.8437
G01 X69.5012 Y55.0558
G01 X69.3075 Y55.2031
G00 Z3.0000
G00 X69.7326 Y55.6336
G01 F60.00
G01 Z-0.1000
G01 F60.00
G01 X69.8703 Y55.5288
G01 X70.1930 Y55.2705
G01 X70.6198 Y55.6974
G01 X70.2394 Y56.0018
G01 X70.0295 Y56.1615
G00 Z3.0000
G00 X70.1793 Y56.8013
G01 F60.00
G01 Z-0.1000
G01 F60.00
G01 X70.6086 Y56.4748
G01 X71.0282 Y56.1389
G01 X71.0462 Y56.1238
G01 X70.7083 Y57.1528
G01 X70.5382 Y57.2822
G01 X70.1037 Y57.5962
G00 Z3.0000
G00 X72.8753 Y58.4814
G01 F60.00
G01 Z-0.1000
G01 F60.00
G01 X72.8960 Y58.4701
G01 X72.9080 Y58.4640
G01 X72.8981 Y58.3959
G01 X72.8956 Y58.3715
G01 X72.8912 Y58.2845
G01 X72.8906 Y58.2600
G01 X72.8912 Y58.2355
G01 X72.8956 Y58.1485
G01 X72.8981 Y58.1241
G01 X72.9068 Y58.0637
G01 X72.8753 Y58.0953
G01 X72.8753 Y58.4814
G00 Z3.0000
G00 X73.9567 Y57.0138
G01 F60.00
G01 Z-0.1000
G01 F60.00
G01 X74.0171 Y57.0051
G01 X74.0415 Y57.0026
G01 X74.1285 Y56.9982
G01 X74.1530 Y56.9976
G01 X75.6770 Y56.9976
G01 X75.7054 Y56.9984
G01 X75.6892 Y56.9822
G01 X74.1530 Y56.9824
G01 X74.1285 Y56.9818
G01 X74.0415 Y56.9774
G01 X74.0171 Y56.9749
G01 X73.9983 Y56.9723
G01 X73.9567 Y57.0138
G00 Z3.0000
G00 X74.5568 Y56.9976
G01 F60.00
G01 Z-0.1000
G01 F60.00
G01 X74.5724 Y56.9824
G01 X75.4039 Y56.9976
G01 X75.4188 Y56.9824
G00 Z3.0000
G00 X79.3015 Y49.2544
G01 F60.00
G01 Z-0.1000
G01 F60.00
G01 X79.3215 Y49.2434
G01 X79.3318 Y49.2382
G01 X79.3528 Y49.2285
G01 X79.3789 Y49.2171
G01 X79.4011 Y49.2085
G01 X79.4379 Y49.1958
G01 X79.4546 Y49.1906
G01 X79.3015 Y49.0376
G01 X79.3015 Y49.2544
G00 Z3.0000
G00 X79.3015 Y49.1639
G01 F60.00
G01 Z-0.1000
G01 F60.00
G01 X79.3412 Y49.0773
G00 Z3.0000
G00 X75.6847 Y44.5073
G01 F60.00
G01 Z-0.1000
G01 F60.00
G01 X75.6647 Y44.5183
G01 X75.6544 Y44.5235
G01 X75.6439 Y44.5285
G01 X75.6083 Y44.5443
G01 X75.5839 Y44.5537
G01 X75.5483 Y44.5659
G01 X75.5316 Y44.5711
G01 X75.6847 Y44.7241
G01 X75.6847 Y44.5073
G00 Z3.0000
G00 X77.2287 Y38.7097
G01 F60.00
G01 Z-0.1000
G01 F60.00
G01 X77.2280 Y38.6922
G00 Z3.0000
G00 X77.1739 Y38.5566
G01 F60.00
G01 Z-0.1000
G01 F60.00
G01 X77.0209 Y38.7097
G01 X77.2377 Y38.7097
G01 X77.2267 Y38.6897
G01 X77.2215 Y38.6794
G01 X77.2165 Y38.6689
G01 X77.2007 Y38.6333
G01 X77.1913 Y38.6089
G01 X77.1791 Y38.5733
G01 X77.1739 Y38.5566
G00 Z3.0000
G00 X77.2377 Y32.9947
G01 F60.00
G01 Z-0.1000
G01 F60.00
G01 X77.2267 Y32.9747
G01 X77.2215 Y32.9644
G01 X77.2165 Y32.9539
G01 X77.2007 Y32.9183
G01 X77.1913 Y32.8939
G01 X77.1752 Y32.8459
G01 X77.1716 Y32.8335
G01 X77.1641 Y32.8038
G01 X77.1586 Y32.7788
G01 X77.1563 Y32.7662
G01 X77.1503 Y32.7281
G01 X77.1486 Y32.7150
G01 X77.1473 Y32.7020
G01 X77.1457 Y32.6776
G01 X77.1259 Y32.6830
G01 X77.0654 Y32.6981
G01 X77.0415 Y32.7035
G01 X77.0173 Y32.7077
G01 X76.9556 Y32.7168
G01 X76.9435 Y32.7185
G01 X76.9191 Y32.7209
G01 X76.8445 Y32.7247
G01 X76.8200 Y32.7253
G01 X76.7955 Y32.7247
G01 X76.7209 Y32.7209
G01 X76.7087 Y32.7199
G01 X76.6844 Y32.7168
G01 X76.6227 Y32.7077
G01 X76.5985 Y32.7035
G01 X76.5746 Y32.6981
G01 X76.5141 Y32.6830
G01 X76.4945 Y32.6776
G01 X76.4900 Y32.7246
G01 X76.4886 Y32.7367
G01 X76.4847 Y32.7607
G01 X76.4766 Y32.8016
G01 X76.4708 Y32.8241
G01 X76.4631 Y32.8511
G01 X76.4597 Y32.8624
G01 X76.4521 Y32.8848
G01 X76.4379 Y32.9215
G01 X76.4281 Y32.9437
G01 X76.4104 Y32.9800
G01 X76.4026 Y32.9947
G01 X77.2377 Y32.9947
G00 Z3.0000
G00 X76.8783 Y32.9947
G01 F60.00
G01 Z-0.1000
G01 F60.00
G01 X76.7927 Y32.7246
G00 Z3.0000
G00 X84.6832 Y35.2676
G01 F60.00
G01 Z-0.1000
G01 F60.00
G01 X84.6769 Y35.2881
G01 X84.6594 Y35.3366
G01 X84.6499 Y35.3597
G01 X84.6429 Y35.3749
G01 X84.6793 Y35.3593
G01 X84.7019 Y35.3504
G01 X84.7248 Y35.3425
G01 X84.7502 Y35.3346
G01 X84.6832 Y35.2676
G00 Z3.0000
G00 X89.6389 Y35.7445
G01 F60.00
G01 Z-0.1000
G01 F60.00
G01 X89.6379 Y35.7835
G01 X89.6339 Y35.8313
G01 X89.6305 Y35.8560
G01 X89.6235 Y35.8956
G01 X89.6209 Y35.9082
G01 X89.6148 Y35.9332
G01 X89.6072 Y35.9607
G01 X89.6035 Y35.9729
G01 X89.5859 Y36.0218
G01 X89.5812 Y36.0338
G01 X89.5709 Y36.0573
G01 X89.5614 Y36.0771
G01 X89.5505 Y36.0986
G01 X89.5277 Y36.1383
G01 X89.5217 Y36.1482
G01 X89.5090 Y36.1676
G01 X89.4899 Y36.1945
G01 X89.4757 Y36.2129
G01 X89.4683 Y36.2219
G01 X89.4480 Y36.2457
G01 X89.4323 Y36.2630
G01 X89.4159 Y36.2796
G01 X89.3967 Y36.2981
G01 X89.3787 Y36.3141
G01 X89.3471 Y36.3400
G01 X89.3280 Y36.3545
G01 X89.3183 Y36.3613
G01 X89.2998 Y36.3739
G01 X89.2790 Y36.3873
G01 X89.2384 Y36.4103
G01 X89.2283 Y36.4157
G01 X89.2075 Y36.4259
G01 X89.1839 Y36.4365
G01 X89.1597 Y36.4466
G01 X89.1119 Y36.4633
G01 X89.0871 Y36.4708
G01 X89.0574 Y36.4783
G01 X89.0324 Y36.4838
G01 X88.9817 Y36.4921
G01 X88.9556 Y36.4951
G01 X88.9117 Y36.4979
G01 X88.8864 Y36.4983
G01 X88.8473 Y36.4974
G01 X88.8211 Y36.4957
G01 X88.7779 Y36.4907
G01 X88.7654 Y36.4888
G01 X88.7451 Y36.4850
G01 X88.7467 Y36.5070
G01 X88.7497 Y36.5693
G01 X88.7503 Y36.5938
G01 X88.7503 Y51.9100
G01 X88.7497 Y51.9345
G01 X88.7467 Y51.9968
G01 X88.7451 Y52.0186
G01 X88.7808 Y52.0126
G01 X88.7938 Y52.0109
G01 X88.8068 Y52.0096
G01 X88.8458 Y52.0065
G01 X88.8713 Y52.0055
G01 X88.9150 Y52.0060
G01 X88.9407 Y52.0076
G01 X88.9903 Y52.0128
G01 X89.0023 Y52.0146
G01 X89.0325 Y52.0201
G01 X89.0552 Y52.0248
G01 X89.0665 Y52.0276
G01 X89.1160 Y52.0417
G01 X89.1384 Y52.0493
G01 X89.1495 Y52.0535
G01 X89.1863 Y52.0683
G01 X89.2336 Y52.0910
G01 X89.2552 Y52.1026
G01 X89.2658 Y52.1088
G01 X89.2936 Y52.1257
G01 X89.3043 Y52.1327
G01 X89.3148 Y52.1400
G01 X89.3466 Y52.1634
G01 X89.3671 Y52.1798
G01 X89.3979 Y52.2069
G01 X89.4163 Y52.2246
G01 X89.4519 Y52.2624
G01 X89.4673 Y52.2807
G01 X89.4812 Y52.2980
G01 X89.4957 Y52.3173
G01 X89.5026 Y52.3272
G01 X89.5255 Y52.3619
G01 X89.5381 Y52.3828
G01 X89.5440 Y52.3935
G01 X89.5582 Y52.4200
G01 X89.5638 Y52.4313
G01 X89.5848 Y52.4791
G01 X89.5942 Y52.5036
G01 X89.5985 Y52.5160
G01 X89.6079 Y52.5454
G01 X89.6112 Y52.5571
G01 X89.6234 Y52.6077
G01 X89.6279 Y52.6314
G01 X89.6298 Y52.6434
G01 X89.6343 Y52.6762
G01 X89.6356 Y52.6885
G01 X89.6381 Y52.7310
G01 X89.6389 Y52.7593
G01 X89.6389 Y35.7445
G00 Z3.0000
G00 X89.6388 Y22.0567
G01 F60.00
G01 Z-0.1000
G01 F60.00
G01 X89.6388 Y22.0578
G01 X89.6389 Y22.0650
G01 X89.6389 Y22.0614
G01 X89.6388 Y22.0567
G00 Z3.0000
G00 X89.5867 Y21.7893
G01 F60.00
G01 Z-0.1000
G01 F60.00
G01 X89.5935 Y21.8073
G01 X89.6019 Y21.8327
G01 X89.6159 Y21.8815
G01 X89.6219 Y21.9059
G01 X89.6244 Y21.9182
G01 X89.6280 Y21.9375
G01 X89.6316 Y21.9630
G01 X89.6368 Y22.0129
G01 X89.6384 Y22.0382
G01 X89.6387 Y22.0509
G01 X89.6384 Y22.0289
G01 X89.6300 Y21.9468
G01 X89.6203 Y21.8968
G01 X89.5974 Y21.8166
G01 X89.5867 Y21.7893
G00 Z3.0000
G00 X89.5331 Y21.6798
G01 F60.00
G01 Z-0.1000
G01 F60.00
G01 X89.5394 Y21.6907
G01 X89.5500 Y21.7107
G01 X89.5717 Y21.7546
G01 X89.5817 Y21.7770
G01 X89.5863 Y21.7884
G01 X89.5786 Y21.7685
G01 X89.5436 Y21.6976
G01 X89.5331 Y21.6798
G00 Z3.0000
G00 X89.4524 Y21.5686
G01 F60.00
G01 Z-0.1000
G01 F60.00
G01 X89.4687 Y21.5880
G01 X89.4765 Y21.5981
G01 X89.5046 Y21.6361
G01 X89.5179 Y21.6553
G01 X89.5302 Y21.6750
G01 X89.5173 Y21.6532
G01 X89.4667 Y21.5848
G01 X89.4524 Y21.5686
G00 Z3.0000
G00 X89.3503 Y21.4718
G01 F60.00
G01 Z-0.1000
G01 F60.00
G01 X89.3704 Y21.4881
G01 X89.3869 Y21.5029
G01 X89.4212 Y21.5355
G01 X89.4393 Y21.5539
G01 X89.4479 Y21.5635
G01 X89.4333 Y21.5469
G01 X89.3722 Y21.4889
G01 X89.3503 Y21.4718
G00 Z3.0000
G00 X89.2347 Y21.3971
G01 F60.00
G01 Z-0.1000
G01 F60.00
G01 X89.2604 Y21.4112
G01 X89.2800 Y21.4233
G01 X89.3279 Y21.4551
G01 X89.3478 Y21.4698
G01 X89.3316 Y21.4571
G01 X89.2621 Y21.4115
G01 X89.2347 Y21.3971
G00 Z3.0000
G00 X88.8850 Y21.3111
G01 F60.00
G01 Z-0.1000
G01 F60.00
G01 X88.9154 Y21.3120
G01 X88.9466 Y21.3139
G01 X88.9701 Y21.3159
G01 X88.9818 Y21.3173
G01 X88.9997 Y21.3198
G01 X89.0218 Y21.3238
G01 X89.0767 Y21.3362
G01 X89.0884 Y21.3392
G01 X89.1118 Y21.3460
G01 X89.1313 Y21.3524
G01 X89.1440 Y21.3571
G01 X89.1567 Y21.3620
G01 X89.2031 Y21.3819
G01 X89.2239 Y21.3916
G01 X89.2342 Y21.3968
G01 X89.2166 Y21.3876
G01 X89.1412 Y21.3554
G01 X89.0925 Y21.3399
G01 X89.0123 Y21.3214
G01 X88.9643 Y21.3150
G01 X88.9002 Y21.3111
G01 X88.8850 Y21.3111
G00 Z3.0000
G00 X66.0638 Y23.5919
G01 F60.00
G01 Z-0.1000
G01 F60.00
G01 X66.0213 Y23.5930
G01 X66.0088 Y23.5931
G01 X65.9863 Y23.5924
G01 X65.9906 Y23.6101
G01 X65.9954 Y23.6342
G01 X66.0099 Y23.7325
G01 X66.0113 Y23.7447
G01 X66.0131 Y23.7691
G01 X66.0172 Y23.8561
G01 X66.0172 Y25.4047
G01 X66.0131 Y25.4917
G01 X66.0113 Y25.5161
G01 X66.0083 Y25.5405
G01 X65.9973 Y25.6145
G01 X65.9954 Y25.6266
G01 X65.9906 Y25.6507
G01 X65.9696 Y25.7352
G01 X65.9630 Y25.7588
G01 X65.9593 Y25.7705
G01 X65.9301 Y25.8526
G01 X65.9213 Y25.8755
G01 X65.9113 Y25.8979
G01 X65.8903 Y25.9424
G01 X65.8903 Y27.7564
G01 X65.9008 Y27.7424
G01 X65.9164 Y27.7234
G01 X65.9329 Y27.7052
G01 X65.9414 Y27.6964
G01 X65.9592 Y27.6795
G01 X65.9778 Y27.6635
G01 X65.9874 Y27.6558
G01 X66.0071 Y27.6412
G01 X66.0275 Y27.6276
G01 X66.0486 Y27.6150
G01 X66.0593 Y27.6090
G01 X66.0812 Y27.5980
G01 X66.1037 Y27.5881
G01 X66.1151 Y27.5835
G01 X66.1382 Y27.5752
G01 X66.1597 Y27.5687
G01 X66.1597 Y25.9424
G01 X66.1387 Y25.8979
G01 X66.1287 Y25.8755
G01 X66.1199 Y25.8526
G01 X66.0907 Y25.7705
G01 X66.0870 Y25.7588
G01 X66.0804 Y25.7352
G01 X66.0594 Y25.6507
G01 X66.0546 Y25.6266
G01 X66.0527 Y25.6145
G01 X66.0417 Y25.5405
G01 X66.0387 Y25.5161
G01 X66.0369 Y25.4917
G01 X66.0328 Y25.4047
G01 X66.0328 Y23.8561
G01 X66.0369 Y23.7691
G01 X66.0376 Y23.7569
G01 X66.0401 Y23.7325
G01 X66.0546 Y23.6342
G01 X66.0594 Y23.6101
G01 X66.0638 Y23.5919
G00 Z3.0000
G00 X66.0174 Y23.9016
G01 F60.00
G01 Z-0.1000
G01 F60.00
G01 X66.0326 Y23.9105
G01 X66.0174 Y24.5991
G01 X66.0326 Y24.6084
G01 X66.0174 Y25.3056
G01 X66.0326 Y25.3156
G00 Z3.0000
G00 X65.8916 Y25.9396
G01 F60.00
G01 Z-0.1000
G01 F60.00
G01 X65.9686 Y25.9896
G01 X66.1597 Y26.1208
G01 X65.8903 Y26.6635
G01 X65.9449 Y26.7010
G01 X66.1597 Y26.8562
G01 X65.8903 Y27.4018
G01 X66.1246 Y27.5800
G00 Z3.0000
G00 X58.5397 Y27.5949
G01 F60.00
G01 Z-0.1000
G01 F60.00
G01 X58.2818 Y27.5663
G01 X58.2703 Y27.5653
G01 X58.2703 Y26.9632
G01 X58.3406 Y26.9692
G01 X58.5397 Y26.9913
G01 X58.5397 Y26.3877
G01 X58.3994 Y26.3721
G01 X58.2703 Y26.3610
G00 Z3.0000
G00 X58.3411 Y25.7649
G01 F60.00
G01 Z-0.1000
G01 F60.00
G01 X58.4582 Y25.7750
G01 X58.4728 Y25.7766
G00 Z3.0000
G00 X58.4126 Y25.1689
G01 F60.00
G01 Z-0.1000
G01 F60.00
G01 X58.3974 Y25.1676
G01 X58.4126 Y24.5667
G01 X58.3974 Y24.5654
G01 X58.4126 Y23.9646
G01 X58.3974 Y23.9632
G00 Z3.0000
G00 X58.4438 Y23.5919
G01 F60.00
G01 Z-0.1000
G01 F60.00
G01 X58.4013 Y23.5930
G01 X58.3888 Y23.5931
G01 X58.3663 Y23.5924
G01 X58.3706 Y23.6101
G01 X58.3754 Y23.6342
G01 X58.3899 Y23.7325
G01 X58.3913 Y23.7447
G01 X58.3931 Y23.7691
G01 X58.3972 Y23.8561
G01 X58.3974 Y25.3924
G01 X58.3968 Y25.4169
G01 X58.3924 Y25.5039
G01 X58.3899 Y25.5283
G01 X58.3883 Y25.5405
G01 X58.3773 Y25.6145
G01 X58.3731 Y25.6387
G01 X58.3677 Y25.6626
G01 X58.3464 Y25.7471
G01 X58.3430 Y25.7588
G01 X58.3353 Y25.7822
G01 X58.3058 Y25.8641
G01 X58.2965 Y25.8868
G01 X58.2703 Y25.9424
G01 X58.2703 Y28.0708
G01 X58.2866 Y28.0890
G01 X58.3022 Y28.1080
G01 X58.3681 Y28.1966
G01 X58.3822 Y28.2166
G01 X58.3889 Y28.2269
G01 X58.4050 Y28.2535
G01 X58.4211 Y28.2269
G01 X58.4278 Y28.2166
G01 X58.4419 Y28.1966
G01 X58.5078 Y28.1080
G01 X58.5234 Y28.0890
G01 X58.5397 Y28.0708
G01 X58.5397 Y25.9424
G01 X58.5187 Y25.8979
G01 X58.5087 Y25.8755
G01 X58.4999 Y25.8526
G01 X58.4707 Y25.7705
G01 X58.4670 Y25.7588
G01 X58.4604 Y25.7352
G01 X58.4394 Y25.6507
G01 X58.4346 Y25.6266
G01 X58.4327 Y25.6145
G01 X58.4217 Y25.5405
G01 X58.4187 Y25.5161
G01 X58.4169 Y25.4917
G01 X58.4128 Y25.4047
G01 X58.4128 Y23.8561
G01 X58.4169 Y23.7691
G01 X58.4176 Y23.7569
G01 X58.4201 Y23.7325
G01 X58.4346 Y23.6342
G01 X58.4394 Y23.6101
G01 X58.4438 Y23.5919
G00 Z3.0000
G00 X58.3543 Y28.1780
G01 F60.00
G01 Z-0.1000
G01 F60.00
G01 X58.4480 Y28.1884
G00 Z3.0000
G00 X65.3335 Y36.2997
G01 F60.00
G01 Z-0.1000
G01 F60.00
G01 X65.3959 Y36.4810
G01 X65.4604 Y36.6845
G01 X65.4952 Y36.8047
G00 Z3.0000
G00 X66.0417 Y36.5350
G01 F60.00
G01 Z-0.1000
G01 F60.00
G01 X66.0981 Y36.7296
G01 X66.1179 Y36.8047
G01 X66.4427 Y36.8047
G01 X66.4317 Y36.7847
G01 X66.4265 Y36.7744
G01 X66.4215 Y36.7639
G01 X66.4057 Y36.7283
G01 X66.3963 Y36.7039
G01 X66.3802 Y36.6559
G01 X66.3766 Y36.6435
G01 X66.3691 Y36.6138
G01 X66.3636 Y36.5888
G01 X66.3613 Y36.5762
G01 X66.3553 Y36.5381
G01 X66.3536 Y36.5250
G01 X66.3523 Y36.5120
G01 X66.3507 Y36.4876
G01 X66.3309 Y36.4930
G01 X66.2585 Y36.5110
G01 X66.2344 Y36.5157
G01 X66.2223 Y36.5177
G01 X66.1606 Y36.5268
G01 X66.1363 Y36.5299
G01 X66.1118 Y36.5317
G01 X66.0495 Y36.5347
G01 X66.0250 Y36.5353
G01 X66.0127 Y36.5352
G01 X65.9382 Y36.5317
G01 X65.9137 Y36.5299
G01 X65.8894 Y36.5268
G01 X65.8277 Y36.5177
G01 X65.8035 Y36.5135
G01 X65.7796 Y36.5081
G01 X65.7191 Y36.4930
G01 X65.6954 Y36.4864
G01 X65.6721 Y36.4787
G01 X65.6019 Y36.4535
G01 X65.5905 Y36.4489
G01 X65.5681 Y36.4390
G01 X65.5117 Y36.4123
G01 X65.4898 Y36.4013
G01 X65.4685 Y36.3892
G01 X65.4150 Y36.3571
G01 X65.4045 Y36.3507
G01 X65.3841 Y36.3370
G01 X65.3241 Y36.2927
G01 X65.3048 Y36.2776
G01 X65.2862 Y36.2616
G01 X65.2400 Y36.2197
G01 X65.2222 Y36.2028
G01 X63.9436 Y34.9240
