(G-CODE GENERATED BY FLATCAM v8.994 - www.flatcam.org - Version Date: 2020/11/7)

(Name: copper_bottom.gbr_iso_combined_cnc)
(Type: G-code from Geometry)
(Units: MM)

(Created on Wednesday, 09 August 2023 at 20:47)

(This preprocessor is the default preprocessor used by FlatCAM.)
(It is made to work with MACH3 compatible motion controllers.)

(TOOL DIAMETER: 0.1 mm)
(Feedrate_XY: 60.0 mm/min)
(Feedrate_Z: 60.0 mm/min)
(Feedrate rapids 1500.0 mm/min)

(Z_Cut: 0.0 mm)
(Z_Move: 3.0 mm)
(Z Start: None mm)
(Z End: 15.0 mm)
(X,Y End: None mm)
(Steps per circle: 64)
(Preprocessor Geometry: default)

(X range:   20.9661 ...   89.1889  mm)
(Y range:   21.7611 ...   89.0339  mm)

(Spindle Speed: 0.0 RPM)
G21
G90
G94

G01 F60.00

M5
G00 Z15.0000
G00 X0.0000 Y0.0000
T1
M6    
(MSG, Change to Tool Dia = 0.1000)
M0
G00 Z15.0000

M03
G01 F60.00
G00 X23.2469 Y25.5473
G01 F60.00
G01 Z0.0000
G01 F60.00
G01 X23.2555 Y25.3676
G01 X23.2815 Y25.1921
G01 X23.3247 Y25.0200
G01 X23.3844 Y24.8529
G01 X23.4603 Y24.6925
G01 X23.5515 Y24.5403
G01 X23.6572 Y24.3978
G01 X23.7764 Y24.2664
G01 X23.9078 Y24.1472
G01 X24.0503 Y24.0415
G01 X24.2025 Y23.9503
G01 X24.3629 Y23.8744
G01 X24.5300 Y23.8147
G01 X24.7021 Y23.7715
G01 X24.8776 Y23.7455
G01 X25.0548 Y23.7368
G01 X25.2320 Y23.7455
G01 X25.4075 Y23.7715
G01 X25.5796 Y23.8147
G01 X25.7467 Y23.8744
G01 X25.9071 Y23.9503
G01 X26.0593 Y24.0415
G01 X26.2018 Y24.1472
G01 X26.3332 Y24.2664
G01 X26.4524 Y24.3978
G01 X26.5581 Y24.5403
G01 X26.6493 Y24.6925
G01 X26.7252 Y24.8529
G01 X26.7849 Y25.0200
G01 X26.8281 Y25.1921
G01 X26.8541 Y25.3676
G01 X26.8628 Y25.5448
G01 X26.8541 Y25.7220
G01 X26.8281 Y25.8975
G01 X26.7849 Y26.0696
G01 X26.7252 Y26.2367
G01 X26.6493 Y26.3971
G01 X26.5581 Y26.5493
G01 X26.4524 Y26.6918
G01 X26.3332 Y26.8232
G01 X26.2018 Y26.9424
G01 X26.0593 Y27.0481
G01 X25.9071 Y27.1393
G01 X25.7467 Y27.2152
G01 X25.5796 Y27.2749
G01 X25.4075 Y27.3181
G01 X25.2320 Y27.3441
G01 X25.0548 Y27.3528
G01 X24.8776 Y27.3441
G01 X24.7021 Y27.3181
G01 X24.5300 Y27.2749
G01 X24.3629 Y27.2152
G01 X24.2025 Y27.1393
G01 X24.0503 Y27.0481
G01 X23.9078 Y26.9424
G01 X23.7764 Y26.8232
G01 X23.6572 Y26.6918
G01 X23.5515 Y26.5493
G01 X23.4603 Y26.3971
G01 X23.3844 Y26.2367
G01 X23.3247 Y26.0696
G01 X23.2815 Y25.8975
G01 X23.2555 Y25.7220
G01 X23.2469 Y25.5473
G00 Z3.0000
G00 X26.2005 Y23.2438
G01 F60.00
G01 Z0.0000
G01 F60.00
G01 X26.9543 Y23.8132
G01 X27.4517 Y24.6163
G01 X27.6252 Y25.5448
G01 X27.4517 Y26.4733
G01 X26.9543 Y27.2764
G01 X26.2005 Y27.8458
G01 X25.2920 Y28.1043
G01 X24.3514 Y28.0171
G01 X23.5058 Y27.5960
G01 X22.8693 Y26.8979
G01 X22.5282 Y26.0172
G01 X22.5282 Y25.0724
G01 X22.8693 Y24.1917
G01 X23.5058 Y23.4936
G01 X24.3514 Y23.0725
G01 X25.2920 Y22.9853
G01 X26.2005 Y23.2438
G00 Z3.0000
G00 X35.0874 Y25.3924
G01 F60.00
G01 Z0.0000
G01 F60.00
G01 X35.0832 Y25.4745
G01 X35.0718 Y25.5509
G01 X35.0524 Y25.6282
G01 X35.0245 Y25.7055
G01 X34.9915 Y25.7754
G01 X34.9603 Y25.8274
G01 X34.9603 Y28.2557
G01 X35.0175 Y28.3075
G01 X35.0851 Y28.3820
G01 X35.1480 Y28.4667
G01 X35.2021 Y28.5572
G01 X35.2451 Y28.6482
G01 X35.2790 Y28.7429
G01 X35.3048 Y28.8452
G01 X35.3201 Y28.9495
G01 X35.3250 Y29.0500
G01 X35.3201 Y29.1505
G01 X35.3046 Y29.2560
G01 X35.2798 Y29.3548
G01 X35.2451 Y29.4518
G01 X35.2010 Y29.5450
G01 X35.1480 Y29.6333
G01 X35.0867 Y29.7161
G01 X35.0175 Y29.7925
G01 X34.9411 Y29.8617
G01 X34.8583 Y29.9230
G01 X34.7700 Y29.9760
G01 X34.6768 Y30.0201
G01 X34.5798 Y30.0548
G01 X34.4798 Y30.0798
G01 X34.3779 Y30.0949
G01 X34.2750 Y30.1000
G01 X34.1721 Y30.0949
G01 X34.0690 Y30.0796
G01 X33.9702 Y30.0548
G01 X33.8732 Y30.0201
G01 X33.7800 Y29.9760
G01 X33.6937 Y29.9244
G01 X33.6070 Y29.8601
G01 X33.5325 Y29.7925
G01 X33.4633 Y29.7161
G01 X33.4020 Y29.6333
G01 X33.3502 Y29.5471
G01 X33.3040 Y29.4495
G01 X33.2702 Y29.3548
G01 X33.2452 Y29.2548
G01 X33.2301 Y29.1529
G01 X33.2250 Y29.0512
G01 X33.2301 Y28.9471
G01 X33.2452 Y28.8452
G01 X33.2702 Y28.7452
G01 X33.3059 Y28.6459
G01 X33.3490 Y28.5550
G01 X33.4034 Y28.4646
G01 X33.4649 Y28.3820
G01 X33.5325 Y28.3075
G01 X33.5897 Y28.2557
G01 X33.5897 Y25.8274
G01 X33.5585 Y25.7754
G01 X33.5255 Y25.7055
G01 X33.4984 Y25.6306
G01 X33.4782 Y25.5509
G01 X33.4664 Y25.4696
G01 X33.4626 Y25.3924
G01 X33.4626 Y23.8684
G01 X33.4667 Y23.7876
G01 X33.4788 Y23.7075
G01 X33.4976 Y23.6326
G01 X33.5236 Y23.5598
G01 X33.5585 Y23.4854
G01 X33.5995 Y23.4171
G01 X33.6470 Y23.3530
G01 X33.7023 Y23.2923
G01 X33.7596 Y23.2404
G01 X33.8217 Y23.1943
G01 X33.8920 Y23.1519
G01 X33.9641 Y23.1179
G01 X34.0392 Y23.0910
G01 X34.1165 Y23.0716
G01 X34.1954 Y23.0599
G01 X34.2750 Y23.0560
G01 X34.3546 Y23.0599
G01 X34.4335 Y23.0716
G01 X34.5108 Y23.0910
G01 X34.5859 Y23.1179
G01 X34.6580 Y23.1519
G01 X34.7263 Y23.1929
G01 X34.7904 Y23.2404
G01 X34.8494 Y23.2940
G01 X34.9030 Y23.3530
G01 X34.9505 Y23.4171
G01 X34.9915 Y23.4854
G01 X35.0255 Y23.5575
G01 X35.0524 Y23.6326
G01 X35.0718 Y23.7099
G01 X35.0836 Y23.7912
G01 X35.0874 Y23.8684
G01 X35.0874 Y25.3924
G00 Z3.0000
G00 X37.5003 Y25.8274
G01 F60.00
G01 Z0.0000
G01 F60.00
G01 X37.5003 Y28.2557
G01 X37.5575 Y28.3075
G01 X37.6251 Y28.3820
G01 X37.6880 Y28.4667
G01 X37.7421 Y28.5572
G01 X37.7851 Y28.6482
G01 X37.8190 Y28.7429
G01 X37.8448 Y28.8452
G01 X37.8601 Y28.9495
G01 X37.8650 Y29.0500
G01 X37.8601 Y29.1505
G01 X37.8448 Y29.2548
G01 X37.8198 Y29.3548
G01 X37.7851 Y29.4518
G01 X37.7410 Y29.5450
G01 X37.6880 Y29.6333
G01 X37.6267 Y29.7161
G01 X37.5575 Y29.7925
G01 X37.4811 Y29.8617
G01 X37.3983 Y29.9230
G01 X37.3100 Y29.9760
G01 X37.2168 Y30.0201
G01 X37.1198 Y30.0548
G01 X37.0198 Y30.0798
G01 X36.9179 Y30.0949
G01 X36.8150 Y30.1000
G01 X36.7121 Y30.0949
G01 X36.6102 Y30.0798
G01 X36.5102 Y30.0548
G01 X36.4132 Y30.0201
G01 X36.3200 Y29.9760
G01 X36.2337 Y29.9244
G01 X36.1470 Y29.8601
G01 X36.0725 Y29.7925
G01 X36.0033 Y29.7161
G01 X35.9420 Y29.6333
G01 X35.8890 Y29.5450
G01 X35.8449 Y29.4518
G01 X35.8110 Y29.3571
G01 X35.7848 Y29.2524
G01 X35.7701 Y29.1529
G01 X35.7650 Y29.0500
G01 X35.7701 Y28.9471
G01 X35.7852 Y28.8452
G01 X35.8102 Y28.7452
G01 X35.8459 Y28.6459
G01 X35.8890 Y28.5550
G01 X35.9434 Y28.4646
G01 X36.0049 Y28.3820
G01 X36.0725 Y28.3075
G01 X36.1297 Y28.2557
G01 X36.1297 Y25.8274
G01 X36.0985 Y25.7754
G01 X36.0655 Y25.7055
G01 X36.0384 Y25.6306
G01 X36.0182 Y25.5509
G01 X36.0064 Y25.4696
G01 X36.0026 Y25.3924
G01 X36.0026 Y23.8684
G01 X36.0068 Y23.7863
G01 X36.0182 Y23.7099
G01 X36.0369 Y23.6349
G01 X36.0645 Y23.5575
G01 X36.0998 Y23.4833
G01 X36.1395 Y23.4171
G01 X36.1870 Y23.3530
G01 X36.2423 Y23.2923
G01 X36.2996 Y23.2404
G01 X36.3637 Y23.1929
G01 X36.4342 Y23.1508
G01 X36.5041 Y23.1179
G01 X36.5780 Y23.0914
G01 X36.6565 Y23.0716
G01 X36.7354 Y23.0599
G01 X36.8150 Y23.0560
G01 X36.8946 Y23.0599
G01 X36.9735 Y23.0716
G01 X37.0508 Y23.0910
G01 X37.1259 Y23.1179
G01 X37.1980 Y23.1519
G01 X37.2663 Y23.1929
G01 X37.3304 Y23.2404
G01 X37.3894 Y23.2940
G01 X37.4430 Y23.3530
G01 X37.4905 Y23.4171
G01 X37.5315 Y23.4854
G01 X37.5655 Y23.5575
G01 X37.5920 Y23.6314
G01 X37.6122 Y23.7123
G01 X37.6235 Y23.7888
G01 X37.6274 Y23.8672
G01 X37.6273 Y25.3949
G01 X37.6235 Y25.4720
G01 X37.6122 Y25.5485
G01 X37.5924 Y25.6282
G01 X37.5645 Y25.7055
G01 X37.5315 Y25.7754
G01 X37.5003 Y25.8274
G00 Z3.0000
G00 X42.5803 Y25.8274
G01 F60.00
G01 Z0.0000
G01 F60.00
G01 X42.5803 Y28.2557
G01 X42.6375 Y28.3075
G01 X42.7051 Y28.3820
G01 X42.7666 Y28.4646
G01 X42.8210 Y28.5550
G01 X42.8641 Y28.6459
G01 X42.8998 Y28.7452
G01 X42.9248 Y28.8452
G01 X42.9399 Y28.9471
G01 X42.9450 Y29.0500
G01 X42.9399 Y29.1529
G01 X42.9248 Y29.2548
G01 X42.8998 Y29.3548
G01 X42.8641 Y29.4541
G01 X42.8210 Y29.5450
G01 X42.7666 Y29.6354
G01 X42.7051 Y29.7180
G01 X42.6375 Y29.7925
G01 X42.5803 Y29.8443
G01 X42.5803 Y31.3061
G01 X45.5546 Y34.2804
G01 X45.5998 Y34.3302
G01 X45.6398 Y34.3843
G01 X45.6744 Y34.4419
G01 X45.7040 Y34.5050
G01 X45.7258 Y34.5661
G01 X45.7416 Y34.6289
G01 X45.7520 Y34.6978
G01 X45.7553 Y34.7650
G01 X45.7517 Y34.8346
G01 X45.7416 Y34.9011
G01 X45.7258 Y34.9639
G01 X45.7040 Y35.0250
G01 X45.6744 Y35.0881
G01 X45.6398 Y35.1457
G01 X45.5998 Y35.1998
G01 X45.5528 Y35.2513
G01 X45.5028 Y35.2963
G01 X45.4507 Y35.3348
G01 X45.3952 Y35.3682
G01 X45.3323 Y35.3982
G01 X45.2678 Y35.4211
G01 X45.2013 Y35.4376
G01 X45.1372 Y35.4470
G01 X45.0725 Y35.4503
G01 X45.0028 Y35.4470
G01 X44.9363 Y35.4371
G01 X44.8687 Y35.4200
G01 X44.8077 Y35.3982
G01 X44.7491 Y35.3705
G01 X44.6893 Y35.3348
G01 X44.6334 Y35.2932
G01 X44.5854 Y35.2496
G01 X41.4096 Y32.0737
G01 X41.3637 Y32.0228
G01 X41.3252 Y31.9707
G01 X41.2918 Y31.9152
G01 X41.2618 Y31.8523
G01 X41.2389 Y31.7878
G01 X41.2229 Y31.7237
G01 X41.2133 Y31.6596
G01 X41.2097 Y31.5912
G01 X41.2097 Y29.8443
G01 X41.1525 Y29.7925
G01 X41.0849 Y29.7180
G01 X41.0234 Y29.6354
G01 X40.9690 Y29.5450
G01 X40.9259 Y29.4541
G01 X40.8902 Y29.3548
G01 X40.8652 Y29.2548
G01 X40.8501 Y29.1529
G01 X40.8450 Y29.0512
G01 X40.8501 Y28.9471
G01 X40.8652 Y28.8452
G01 X40.8902 Y28.7452
G01 X40.9259 Y28.6459
G01 X40.9690 Y28.5550
G01 X41.0234 Y28.4646
G01 X41.0849 Y28.3820
G01 X41.1525 Y28.3075
G01 X41.2097 Y28.2557
G01 X41.2097 Y25.8274
G01 X41.1785 Y25.7754
G01 X41.1455 Y25.7055
G01 X41.1184 Y25.6306
G01 X41.0982 Y25.5509
G01 X41.0864 Y25.4708
G01 X41.0826 Y25.3924
G01 X41.0827 Y23.8659
G01 X41.0865 Y23.7888
G01 X41.0978 Y23.7123
G01 X41.1184 Y23.6302
G01 X41.1445 Y23.5575
G01 X41.1785 Y23.4854
G01 X41.2195 Y23.4171
G01 X41.2655 Y23.3550
G01 X41.3223 Y23.2923
G01 X41.3796 Y23.2404
G01 X41.4437 Y23.1929
G01 X41.5142 Y23.1508
G01 X41.5841 Y23.1179
G01 X41.6580 Y23.0914
G01 X41.7365 Y23.0716
G01 X41.8154 Y23.0599
G01 X41.8950 Y23.0560
G01 X41.9746 Y23.0599
G01 X42.0535 Y23.0716
G01 X42.1308 Y23.0910
G01 X42.2059 Y23.1179
G01 X42.2780 Y23.1519
G01 X42.3463 Y23.1929
G01 X42.4104 Y23.2404
G01 X42.4694 Y23.2940
G01 X42.5230 Y23.3530
G01 X42.5705 Y23.4171
G01 X42.6115 Y23.4854
G01 X42.6455 Y23.5575
G01 X42.6720 Y23.6314
G01 X42.6922 Y23.7123
G01 X42.7035 Y23.7888
G01 X42.7074 Y23.8672
G01 X42.7073 Y25.3949
G01 X42.7035 Y25.4720
G01 X42.6922 Y25.5485
G01 X42.6724 Y25.6282
G01 X42.6445 Y25.7055
G01 X42.6115 Y25.7754
G01 X42.5803 Y25.8274
G00 Z3.0000
G00 X45.2474 Y25.3924
G01 F60.00
G01 Z0.0000
G01 F60.00
G01 X45.2432 Y25.4745
G01 X45.2318 Y25.5509
G01 X45.2124 Y25.6282
G01 X45.1845 Y25.7055
G01 X45.1515 Y25.7754
G01 X45.1203 Y25.8274
G01 X45.1203 Y28.2557
G01 X45.1775 Y28.3075
G01 X45.2451 Y28.3820
G01 X45.3080 Y28.4667
G01 X45.3621 Y28.5572
G01 X45.4051 Y28.6482
G01 X45.4390 Y28.7429
G01 X45.4648 Y28.8452
G01 X45.4801 Y28.9495
G01 X45.4850 Y29.0500
G01 X45.4801 Y29.1505
G01 X45.4646 Y29.2560
G01 X45.4398 Y29.3548
G01 X45.4051 Y29.4518
G01 X45.3610 Y29.5450
G01 X45.3080 Y29.6333
G01 X45.2467 Y29.7161
G01 X45.1775 Y29.7925
G01 X45.1011 Y29.8617
G01 X45.0183 Y29.9230
G01 X44.9300 Y29.9760
G01 X44.8368 Y30.0201
G01 X44.7398 Y30.0548
G01 X44.6398 Y30.0798
G01 X44.5379 Y30.0949
G01 X44.4350 Y30.1000
G01 X44.3321 Y30.0949
G01 X44.2290 Y30.0796
G01 X44.1302 Y30.0548
G01 X44.0332 Y30.0201
G01 X43.9400 Y29.9760
G01 X43.8537 Y29.9244
G01 X43.7670 Y29.8601
G01 X43.6925 Y29.7925
G01 X43.6233 Y29.7161
G01 X43.5620 Y29.6333
G01 X43.5102 Y29.5471
G01 X43.4640 Y29.4495
G01 X43.4302 Y29.3548
G01 X43.4052 Y29.2548
G01 X43.3901 Y29.1529
G01 X43.3850 Y29.0512
G01 X43.3901 Y28.9471
G01 X43.4052 Y28.8452
G01 X43.4302 Y28.7452
G01 X43.4659 Y28.6459
G01 X43.5090 Y28.5550
G01 X43.5634 Y28.4646
G01 X43.6249 Y28.3820
G01 X43.6925 Y28.3075
G01 X43.7497 Y28.2557
G01 X43.7497 Y25.8274
G01 X43.7185 Y25.7754
G01 X43.6855 Y25.7055
G01 X43.6584 Y25.6306
G01 X43.6382 Y25.5509
G01 X43.6264 Y25.4696
G01 X43.6226 Y25.3924
G01 X43.6226 Y23.8684
G01 X43.6267 Y23.7876
G01 X43.6388 Y23.7075
G01 X43.6576 Y23.6326
G01 X43.6836 Y23.5598
G01 X43.7185 Y23.4854
G01 X43.7595 Y23.4171
G01 X43.8070 Y23.3530
G01 X43.8623 Y23.2923
G01 X43.9196 Y23.2404
G01 X43.9817 Y23.1943
G01 X44.0520 Y23.1519
G01 X44.1241 Y23.1179
G01 X44.1992 Y23.0910
G01 X44.2765 Y23.0716
G01 X44.3554 Y23.0599
G01 X44.4350 Y23.0560
G01 X44.5146 Y23.0599
G01 X44.5935 Y23.0716
G01 X44.6708 Y23.0910
G01 X44.7459 Y23.1179
G01 X44.8180 Y23.1519
G01 X44.8863 Y23.1929
G01 X44.9504 Y23.2404
G01 X45.0094 Y23.2940
G01 X45.0630 Y23.3530
G01 X45.1105 Y23.4171
G01 X45.1515 Y23.4854
G01 X45.1855 Y23.5575
G01 X45.2124 Y23.6326
G01 X45.2318 Y23.7099
G01 X45.2436 Y23.7912
G01 X45.2474 Y23.8684
G01 X45.2474 Y25.3924
G00 Z3.0000
G00 X47.6603 Y25.8274
G01 F60.00
G01 Z0.0000
G01 F60.00
G01 X47.6603 Y28.2557
G01 X47.7175 Y28.3075
G01 X47.7851 Y28.3820
G01 X47.8480 Y28.4667
G01 X47.9021 Y28.5572
G01 X47.9451 Y28.6482
G01 X47.9790 Y28.7429
G01 X48.0048 Y28.8452
G01 X48.0201 Y28.9495
G01 X48.0250 Y29.0500
G01 X48.0201 Y29.1505
G01 X48.0048 Y29.2548
G01 X47.9798 Y29.3548
G01 X47.9451 Y29.4518
G01 X47.9010 Y29.5450
G01 X47.8480 Y29.6333
G01 X47.7867 Y29.7161
G01 X47.7175 Y29.7925
G01 X47.6411 Y29.8617
G01 X47.5583 Y29.9230
G01 X47.4700 Y29.9760
G01 X47.3768 Y30.0201
G01 X47.2798 Y30.0548
G01 X47.1798 Y30.0798
G01 X47.0779 Y30.0949
G01 X46.9750 Y30.1000
G01 X46.8721 Y30.0949
G01 X46.7702 Y30.0798
G01 X46.6702 Y30.0548
G01 X46.5732 Y30.0201
G01 X46.4800 Y29.9760
G01 X46.3937 Y29.9244
G01 X46.3070 Y29.8601
G01 X46.2325 Y29.7925
G01 X46.1633 Y29.7161
G01 X46.1020 Y29.6333
G01 X46.0490 Y29.5450
G01 X46.0049 Y29.4518
G01 X45.9710 Y29.3571
G01 X45.9448 Y29.2524
G01 X45.9301 Y29.1529
G01 X45.9250 Y29.0500
G01 X45.9301 Y28.9471
G01 X45.9452 Y28.8452
G01 X45.9702 Y28.7452
G01 X46.0059 Y28.6459
G01 X46.0490 Y28.5550
G01 X46.1034 Y28.4646
G01 X46.1649 Y28.3820
G01 X46.2325 Y28.3075
G01 X46.2897 Y28.2557
G01 X46.2897 Y25.8274
G01 X46.2585 Y25.7754
G01 X46.2255 Y25.7055
G01 X46.1984 Y25.6306
G01 X46.1782 Y25.5509
G01 X46.1664 Y25.4696
G01 X46.1626 Y25.3924
G01 X46.1626 Y23.8684
G01 X46.1668 Y23.7863
G01 X46.1782 Y23.7099
G01 X46.1969 Y23.6349
G01 X46.2245 Y23.5575
G01 X46.2598 Y23.4833
G01 X46.2995 Y23.4171
G01 X46.3470 Y23.3530
G01 X46.4023 Y23.2923
G01 X46.4596 Y23.2404
G01 X46.5237 Y23.1929
G01 X46.5942 Y23.1508
G01 X46.6641 Y23.1179
G01 X46.7380 Y23.0914
G01 X46.8165 Y23.0716
G01 X46.8954 Y23.0599
G01 X46.9750 Y23.0560
G01 X47.0546 Y23.0599
G01 X47.1335 Y23.0716
G01 X47.2108 Y23.0910
G01 X47.2859 Y23.1179
G01 X47.3580 Y23.1519
G01 X47.4263 Y23.1929
G01 X47.4904 Y23.2404
G01 X47.5494 Y23.2940
G01 X47.6030 Y23.3530
G01 X47.6505 Y23.4171
G01 X47.6915 Y23.4854
G01 X47.7255 Y23.5575
G01 X47.7520 Y23.6314
G01 X47.7722 Y23.7123
G01 X47.7835 Y23.7888
G01 X47.7874 Y23.8672
G01 X47.7873 Y25.3949
G01 X47.7835 Y25.4720
G01 X47.7722 Y25.5485
G01 X47.7524 Y25.6282
G01 X47.7245 Y25.7055
G01 X47.6915 Y25.7754
G01 X47.6603 Y25.8274
G00 Z3.0000
G00 X50.3274 Y25.3924
G01 F60.00
G01 Z0.0000
G01 F60.00
G01 X50.3232 Y25.4745
G01 X50.3118 Y25.5509
G01 X50.2924 Y25.6282
G01 X50.2645 Y25.7055
G01 X50.2315 Y25.7754
G01 X50.2003 Y25.8274
G01 X50.2003 Y28.2557
G01 X50.2575 Y28.3075
G01 X50.3251 Y28.3820
G01 X50.3880 Y28.4667
G01 X50.4421 Y28.5572
G01 X50.4851 Y28.6482
G01 X50.5190 Y28.7429
G01 X50.5448 Y28.8452
G01 X50.5601 Y28.9495
G01 X50.5650 Y29.0500
G01 X50.5601 Y29.1505
G01 X50.5446 Y29.2560
G01 X50.5198 Y29.3548
G01 X50.4851 Y29.4518
G01 X50.4410 Y29.5450
G01 X50.3880 Y29.6333
G01 X50.3267 Y29.7161
G01 X50.2575 Y29.7925
G01 X50.1811 Y29.8617
G01 X50.0983 Y29.9230
G01 X50.0100 Y29.9760
G01 X49.9168 Y30.0201
G01 X49.8198 Y30.0548
G01 X49.7198 Y30.0798
G01 X49.6179 Y30.0949
G01 X49.5150 Y30.1000
G01 X49.4121 Y30.0949
G01 X49.3090 Y30.0796
G01 X49.2102 Y30.0548
G01 X49.1132 Y30.0201
G01 X49.0200 Y29.9760
G01 X48.9337 Y29.9244
G01 X48.8470 Y29.8601
G01 X48.7725 Y29.7925
G01 X48.7033 Y29.7161
G01 X48.6420 Y29.6333
G01 X48.5902 Y29.5471
G01 X48.5440 Y29.4495
G01 X48.5102 Y29.3548
G01 X48.4852 Y29.2548
G01 X48.4701 Y29.1529
G01 X48.4650 Y29.0512
G01 X48.4701 Y28.9471
G01 X48.4852 Y28.8452
G01 X48.5102 Y28.7452
G01 X48.5459 Y28.6459
G01 X48.5890 Y28.5550
G01 X48.6434 Y28.4646
G01 X48.7049 Y28.3820
G01 X48.7725 Y28.3075
G01 X48.8297 Y28.2557
G01 X48.8297 Y25.8274
G01 X48.7985 Y25.7754
G01 X48.7655 Y25.7055
G01 X48.7384 Y25.6306
G01 X48.7182 Y25.5509
G01 X48.7064 Y25.4696
G01 X48.7026 Y25.3924
G01 X48.7026 Y23.8684
G01 X48.7067 Y23.7876
G01 X48.7188 Y23.7075
G01 X48.7376 Y23.6326
G01 X48.7636 Y23.5598
G01 X48.7985 Y23.4854
G01 X48.8395 Y23.4171
G01 X48.8870 Y23.3530
G01 X48.9423 Y23.2923
G01 X48.9996 Y23.2404
G01 X49.0617 Y23.1943
G01 X49.1320 Y23.1519
G01 X49.2041 Y23.1179
G01 X49.2792 Y23.0910
G01 X49.3565 Y23.0716
G01 X49.4354 Y23.0599
G01 X49.5150 Y23.0560
G01 X49.5946 Y23.0599
G01 X49.6735 Y23.0716
G01 X49.7508 Y23.0910
G01 X49.8259 Y23.1179
G01 X49.8980 Y23.1519
G01 X49.9663 Y23.1929
G01 X50.0304 Y23.2404
G01 X50.0894 Y23.2940
G01 X50.1430 Y23.3530
G01 X50.1905 Y23.4171
G01 X50.2315 Y23.4854
G01 X50.2655 Y23.5575
G01 X50.2924 Y23.6326
G01 X50.3118 Y23.7099
G01 X50.3236 Y23.7912
G01 X50.3274 Y23.8684
G01 X50.3274 Y25.3924
G00 Z3.0000
G00 X52.7403 Y25.8274
G01 F60.00
G01 Z0.0000
G01 F60.00
G01 X52.7403 Y28.2557
G01 X52.7975 Y28.3075
G01 X52.8651 Y28.3820
G01 X52.9280 Y28.4667
G01 X52.9821 Y28.5572
G01 X53.0251 Y28.6482
G01 X53.0590 Y28.7429
G01 X53.0848 Y28.8452
G01 X53.1001 Y28.9495
G01 X53.1050 Y29.0500
G01 X53.1001 Y29.1505
G01 X53.0848 Y29.2548
G01 X53.0598 Y29.3548
G01 X53.0251 Y29.4518
G01 X52.9810 Y29.5450
G01 X52.9280 Y29.6333
G01 X52.8667 Y29.7161
G01 X52.7975 Y29.7925
G01 X52.7211 Y29.8617
G01 X52.6383 Y29.9230
G01 X52.5500 Y29.9760
G01 X52.4568 Y30.0201
G01 X52.3598 Y30.0548
G01 X52.2598 Y30.0798
G01 X52.1579 Y30.0949
G01 X52.0550 Y30.1000
G01 X51.9521 Y30.0949
G01 X51.8502 Y30.0798
G01 X51.7502 Y30.0548
G01 X51.6532 Y30.0201
G01 X51.5600 Y29.9760
G01 X51.4737 Y29.9244
G01 X51.3870 Y29.8601
G01 X51.3125 Y29.7925
G01 X51.2433 Y29.7161
G01 X51.1820 Y29.6333
G01 X51.1290 Y29.5450
G01 X51.0849 Y29.4518
G01 X51.0510 Y29.3571
G01 X51.0248 Y29.2524
G01 X51.0101 Y29.1529
G01 X51.0050 Y29.0500
G01 X51.0101 Y28.9471
G01 X51.0252 Y28.8452
G01 X51.0502 Y28.7452
G01 X51.0859 Y28.6459
G01 X51.1290 Y28.5550
G01 X51.1834 Y28.4646
G01 X51.2449 Y28.3820
G01 X51.3125 Y28.3075
G01 X51.3697 Y28.2557
G01 X51.3697 Y25.8274
G01 X51.3385 Y25.7754
G01 X51.3055 Y25.7055
G01 X51.2784 Y25.6306
G01 X51.2582 Y25.5509
G01 X51.2464 Y25.4696
G01 X51.2426 Y25.3924
G01 X51.2426 Y23.8684
G01 X51.2468 Y23.7863
G01 X51.2582 Y23.7099
G01 X51.2769 Y23.6349
G01 X51.3045 Y23.5575
G01 X51.3398 Y23.4833
G01 X51.3795 Y23.4171
G01 X51.4270 Y23.3530
G01 X51.4823 Y23.2923
G01 X51.5396 Y23.2404
G01 X51.6037 Y23.1929
G01 X51.6742 Y23.1508
G01 X51.7441 Y23.1179
G01 X51.8180 Y23.0914
G01 X51.8965 Y23.0716
G01 X51.9754 Y23.0599
G01 X52.0550 Y23.0560
G01 X52.1346 Y23.0599
G01 X52.2135 Y23.0716
G01 X52.2908 Y23.0910
G01 X52.3659 Y23.1179
G01 X52.4380 Y23.1519
G01 X52.5063 Y23.1929
G01 X52.5704 Y23.2404
G01 X52.6294 Y23.2940
G01 X52.6830 Y23.3530
G01 X52.7305 Y23.4171
G01 X52.7715 Y23.4854
G01 X52.8055 Y23.5575
G01 X52.8320 Y23.6314
G01 X52.8522 Y23.7123
G01 X52.8635 Y23.7888
G01 X52.8674 Y23.8672
G01 X52.8673 Y25.3949
G01 X52.8635 Y25.4720
G01 X52.8522 Y25.5485
G01 X52.8324 Y25.6282
G01 X52.8045 Y25.7055
G01 X52.7715 Y25.7754
G01 X52.7403 Y25.8274
G00 Z3.0000
G00 X55.4074 Y25.3924
G01 F60.00
G01 Z0.0000
G01 F60.00
G01 X55.4032 Y25.4745
G01 X55.3918 Y25.5509
G01 X55.3724 Y25.6282
G01 X55.3445 Y25.7055
G01 X55.3115 Y25.7754
G01 X55.2803 Y25.8274
G01 X55.2803 Y28.2557
G01 X55.3375 Y28.3075
G01 X55.4051 Y28.3820
G01 X55.4680 Y28.4667
G01 X55.5221 Y28.5572
G01 X55.5651 Y28.6482
G01 X55.5990 Y28.7429
G01 X55.6248 Y28.8452
G01 X55.6401 Y28.9495
G01 X55.6450 Y29.0500
G01 X55.6401 Y29.1505
G01 X55.6246 Y29.2560
G01 X55.5998 Y29.3548
G01 X55.5651 Y29.4518
G01 X55.5210 Y29.5450
G01 X55.4680 Y29.6333
G01 X55.4067 Y29.7161
G01 X55.3375 Y29.7925
G01 X55.2611 Y29.8617
G01 X55.1783 Y29.9230
G01 X55.0900 Y29.9760
G01 X54.9968 Y30.0201
G01 X54.8998 Y30.0548
G01 X54.7998 Y30.0798
G01 X54.6979 Y30.0949
G01 X54.5950 Y30.1000
G01 X54.4921 Y30.0949
G01 X54.3890 Y30.0796
G01 X54.2902 Y30.0548
G01 X54.1932 Y30.0201
G01 X54.1000 Y29.9760
G01 X54.0137 Y29.9244
G01 X53.9270 Y29.8601
G01 X53.8525 Y29.7925
G01 X53.7833 Y29.7161
G01 X53.7220 Y29.6333
G01 X53.6702 Y29.5471
G01 X53.6240 Y29.4495
G01 X53.5902 Y29.3548
G01 X53.5652 Y29.2548
G01 X53.5501 Y29.1529
G01 X53.5450 Y29.0512
G01 X53.5501 Y28.9471
G01 X53.5652 Y28.8452
G01 X53.5902 Y28.7452
G01 X53.6259 Y28.6459
G01 X53.6690 Y28.5550
G01 X53.7234 Y28.4646
G01 X53.7849 Y28.3820
G01 X53.8525 Y28.3075
G01 X53.9097 Y28.2557
G01 X53.9097 Y25.8274
G01 X53.8785 Y25.7754
G01 X53.8455 Y25.7055
G01 X53.8184 Y25.6306
G01 X53.7982 Y25.5509
G01 X53.7864 Y25.4696
G01 X53.7826 Y25.3924
G01 X53.7826 Y23.8684
G01 X53.7867 Y23.7876
G01 X53.7988 Y23.7075
G01 X53.8176 Y23.6326
G01 X53.8436 Y23.5598
G01 X53.8785 Y23.4854
G01 X53.9195 Y23.4171
G01 X53.9670 Y23.3530
G01 X54.0223 Y23.2923
G01 X54.0796 Y23.2404
G01 X54.1417 Y23.1943
G01 X54.2120 Y23.1519
G01 X54.2841 Y23.1179
G01 X54.3592 Y23.0910
G01 X54.4365 Y23.0716
G01 X54.5154 Y23.0599
G01 X54.5950 Y23.0560
G01 X54.6746 Y23.0599
G01 X54.7535 Y23.0716
G01 X54.8308 Y23.0910
G01 X54.9059 Y23.1179
G01 X54.9780 Y23.1519
G01 X55.0463 Y23.1929
G01 X55.1104 Y23.2404
G01 X55.1694 Y23.2940
G01 X55.2230 Y23.3530
G01 X55.2705 Y23.4171
G01 X55.3115 Y23.4854
G01 X55.3455 Y23.5575
G01 X55.3724 Y23.6326
G01 X55.3918 Y23.7099
G01 X55.4036 Y23.7912
G01 X55.4074 Y23.8684
G01 X55.4074 Y25.3924
G00 Z3.0000
G00 X57.8203 Y25.8274
G01 F60.00
G01 Z0.0000
G01 F60.00
G01 X57.8203 Y28.2557
G01 X57.8775 Y28.3075
G01 X57.9451 Y28.3820
G01 X58.0080 Y28.4667
G01 X58.0621 Y28.5572
G01 X58.1051 Y28.6482
G01 X58.1390 Y28.7429
G01 X58.1648 Y28.8452
G01 X58.1801 Y28.9495
G01 X58.1850 Y29.0500
G01 X58.1801 Y29.1505
G01 X58.1648 Y29.2548
G01 X58.1398 Y29.3548
G01 X58.1051 Y29.4518
G01 X58.0610 Y29.5450
G01 X58.0080 Y29.6333
G01 X57.9467 Y29.7161
G01 X57.8775 Y29.7925
G01 X57.8011 Y29.8617
G01 X57.7183 Y29.9230
G01 X57.6300 Y29.9760
G01 X57.5368 Y30.0201
G01 X57.4398 Y30.0548
G01 X57.3398 Y30.0798
G01 X57.2379 Y30.0949
G01 X57.1350 Y30.1000
G01 X57.0321 Y30.0949
G01 X56.9302 Y30.0798
G01 X56.8302 Y30.0548
G01 X56.7332 Y30.0201
G01 X56.6400 Y29.9760
G01 X56.5537 Y29.9244
G01 X56.4670 Y29.8601
G01 X56.3925 Y29.7925
G01 X56.3233 Y29.7161
G01 X56.2620 Y29.6333
G01 X56.2090 Y29.5450
G01 X56.1649 Y29.4518
G01 X56.1310 Y29.3571
G01 X56.1048 Y29.2524
G01 X56.0901 Y29.1529
G01 X56.0850 Y29.0500
G01 X56.0901 Y28.9471
G01 X56.1052 Y28.8452
G01 X56.1302 Y28.7452
G01 X56.1659 Y28.6459
G01 X56.2090 Y28.5550
G01 X56.2634 Y28.4646
G01 X56.3249 Y28.3820
G01 X56.3925 Y28.3075
G01 X56.4497 Y28.2557
G01 X56.4497 Y25.8274
G01 X56.4185 Y25.7754
G01 X56.3855 Y25.7055
G01 X56.3584 Y25.6306
G01 X56.3382 Y25.5509
G01 X56.3264 Y25.4696
G01 X56.3226 Y25.3924
G01 X56.3226 Y23.8684
G01 X56.3268 Y23.7863
G01 X56.3382 Y23.7099
G01 X56.3569 Y23.6349
G01 X56.3845 Y23.5575
G01 X56.4198 Y23.4833
G01 X56.4595 Y23.4171
G01 X56.5070 Y23.3530
G01 X56.5623 Y23.2923
G01 X56.6196 Y23.2404
G01 X56.6837 Y23.1929
G01 X56.7542 Y23.1508
G01 X56.8241 Y23.1179
G01 X56.8980 Y23.0914
G01 X56.9765 Y23.0716
G01 X57.0554 Y23.0599
G01 X57.1350 Y23.0560
G01 X57.2146 Y23.0599
G01 X57.2935 Y23.0716
G01 X57.3708 Y23.0910
G01 X57.4459 Y23.1179
G01 X57.5180 Y23.1519
G01 X57.5863 Y23.1929
G01 X57.6504 Y23.2404
G01 X57.7094 Y23.2940
G01 X57.7630 Y23.3530
G01 X57.8105 Y23.4171
G01 X57.8515 Y23.4854
G01 X57.8855 Y23.5575
G01 X57.9120 Y23.6314
G01 X57.9322 Y23.7123
G01 X57.9435 Y23.7888
G01 X57.9474 Y23.8672
G01 X57.9473 Y25.3949
G01 X57.9435 Y25.4720
G01 X57.9322 Y25.5485
G01 X57.9124 Y25.6282
G01 X57.8845 Y25.7055
G01 X57.8515 Y25.7754
G01 X57.8203 Y25.8274
G00 Z3.0000
G00 X60.4874 Y25.3924
G01 F60.00
G01 Z0.0000
G01 F60.00
G01 X60.4832 Y25.4745
G01 X60.4718 Y25.5509
G01 X60.4524 Y25.6282
G01 X60.4245 Y25.7055
G01 X60.3915 Y25.7754
G01 X60.3603 Y25.8274
G01 X60.3603 Y28.2557
G01 X60.4175 Y28.3075
G01 X60.4851 Y28.3820
G01 X60.5480 Y28.4667
G01 X60.6021 Y28.5572
G01 X60.6451 Y28.6482
G01 X60.6790 Y28.7429
G01 X60.7048 Y28.8452
G01 X60.7201 Y28.9495
G01 X60.7250 Y29.0500
G01 X60.7201 Y29.1505
G01 X60.7046 Y29.2560
G01 X60.6798 Y29.3548
G01 X60.6451 Y29.4518
G01 X60.6010 Y29.5450
G01 X60.5480 Y29.6333
G01 X60.4867 Y29.7161
G01 X60.4175 Y29.7925
G01 X60.3411 Y29.8617
G01 X60.2583 Y29.9230
G01 X60.1700 Y29.9760
G01 X60.0768 Y30.0201
G01 X59.9798 Y30.0548
G01 X59.8798 Y30.0798
G01 X59.7779 Y30.0949
G01 X59.6750 Y30.1000
G01 X59.5721 Y30.0949
G01 X59.4690 Y30.0796
G01 X59.3702 Y30.0548
G01 X59.2732 Y30.0201
G01 X59.1800 Y29.9760
G01 X59.0937 Y29.9244
G01 X59.0070 Y29.8601
G01 X58.9325 Y29.7925
G01 X58.8633 Y29.7161
G01 X58.8020 Y29.6333
G01 X58.7502 Y29.5471
G01 X58.7040 Y29.4495
G01 X58.6702 Y29.3548
G01 X58.6452 Y29.2548
G01 X58.6301 Y29.1529
G01 X58.6250 Y29.0512
G01 X58.6301 Y28.9471
G01 X58.6452 Y28.8452
G01 X58.6702 Y28.7452
G01 X58.7059 Y28.6459
G01 X58.7490 Y28.5550
G01 X58.8034 Y28.4646
G01 X58.8649 Y28.3820
G01 X58.9325 Y28.3075
G01 X58.9897 Y28.2557
G01 X58.9897 Y25.8274
G01 X58.9585 Y25.7754
G01 X58.9255 Y25.7055
G01 X58.8984 Y25.6306
G01 X58.8782 Y25.5509
G01 X58.8664 Y25.4696
G01 X58.8626 Y25.3924
G01 X58.8626 Y23.8684
G01 X58.8667 Y23.7876
G01 X58.8788 Y23.7075
G01 X58.8976 Y23.6326
G01 X58.9236 Y23.5598
G01 X58.9585 Y23.4854
G01 X58.9995 Y23.4171
G01 X59.0470 Y23.3530
G01 X59.1023 Y23.2923
G01 X59.1596 Y23.2404
G01 X59.2217 Y23.1943
G01 X59.2920 Y23.1519
G01 X59.3641 Y23.1179
G01 X59.4392 Y23.0910
G01 X59.5165 Y23.0716
G01 X59.5954 Y23.0599
G01 X59.6750 Y23.0560
G01 X59.7546 Y23.0599
G01 X59.8335 Y23.0716
G01 X59.9108 Y23.0910
G01 X59.9859 Y23.1179
G01 X60.0580 Y23.1519
G01 X60.1263 Y23.1929
G01 X60.1904 Y23.2404
G01 X60.2494 Y23.2940
G01 X60.3030 Y23.3530
G01 X60.3505 Y23.4171
G01 X60.3915 Y23.4854
G01 X60.4255 Y23.5575
G01 X60.4524 Y23.6326
G01 X60.4718 Y23.7099
G01 X60.4836 Y23.7912
G01 X60.4874 Y23.8684
G01 X60.4874 Y25.3924
G00 Z3.0000
G00 X62.9003 Y25.8274
G01 F60.00
G01 Z0.0000
G01 F60.00
G01 X62.9003 Y28.2557
G01 X62.9575 Y28.3075
G01 X63.0251 Y28.3820
G01 X63.0866 Y28.4646
G01 X63.1410 Y28.5550
G01 X63.1841 Y28.6459
G01 X63.2198 Y28.7452
G01 X63.2448 Y28.8452
G01 X63.2599 Y28.9471
G01 X63.2650 Y29.0500
G01 X63.2599 Y29.1529
G01 X63.2448 Y29.2548
G01 X63.2198 Y29.3548
G01 X63.1841 Y29.4541
G01 X63.1410 Y29.5450
G01 X63.0866 Y29.6354
G01 X63.0251 Y29.7180
G01 X62.9575 Y29.7925
G01 X62.9003 Y29.8443
G01 X62.9003 Y34.1300
G01 X62.8971 Y34.1960
G01 X62.8871 Y34.2637
G01 X62.8708 Y34.3289
G01 X62.8482 Y34.3923
G01 X62.8194 Y34.4531
G01 X62.7848 Y34.5107
G01 X62.7448 Y34.5648
G01 X62.6996 Y34.6146
G01 X62.6498 Y34.6598
G01 X62.5957 Y34.6998
G01 X62.5381 Y34.7344
G01 X62.4773 Y34.7632
G01 X62.4139 Y34.7858
G01 X62.3487 Y34.8021
G01 X62.2822 Y34.8120
G01 X62.2150 Y34.8153
G01 X62.1490 Y34.8121
G01 X62.0789 Y34.8016
G01 X62.0161 Y34.7858
G01 X61.9527 Y34.7632
G01 X61.8919 Y34.7344
G01 X61.8363 Y34.7011
G01 X61.7784 Y34.6582
G01 X61.7304 Y34.6146
G01 X61.6852 Y34.5648
G01 X61.6452 Y34.5107
G01 X61.6118 Y34.4552
G01 X61.5810 Y34.3900
G01 X61.5592 Y34.3289
G01 X61.5426 Y34.2625
G01 X61.5330 Y34.1972
G01 X61.5297 Y34.1300
G01 X61.5297 Y29.8443
G01 X61.4725 Y29.7925
G01 X61.4049 Y29.7180
G01 X61.3434 Y29.6354
G01 X61.2890 Y29.5450
G01 X61.2459 Y29.4541
G01 X61.2102 Y29.3548
G01 X61.1852 Y29.2548
G01 X61.1701 Y29.1529
G01 X61.1650 Y29.0512
G01 X61.1701 Y28.9471
G01 X61.1852 Y28.8452
G01 X61.2102 Y28.7452
G01 X61.2459 Y28.6459
G01 X61.2890 Y28.5550
G01 X61.3434 Y28.4646
G01 X61.4049 Y28.3820
G01 X61.4725 Y28.3075
G01 X61.5297 Y28.2557
G01 X61.5297 Y25.8274
G01 X61.4985 Y25.7754
G01 X61.4655 Y25.7055
G01 X61.4384 Y25.6306
G01 X61.4182 Y25.5509
G01 X61.4064 Y25.4696
G01 X61.4026 Y25.3924
G01 X61.4026 Y23.8684
G01 X61.4068 Y23.7863
G01 X61.4182 Y23.7099
G01 X61.4369 Y23.6349
G01 X61.4645 Y23.5575
G01 X61.4998 Y23.4833
G01 X61.5395 Y23.4171
G01 X61.5870 Y23.3530
G01 X61.6406 Y23.2940
G01 X61.6978 Y23.2420
G01 X61.7637 Y23.1929
G01 X61.8342 Y23.1508
G01 X61.9041 Y23.1179
G01 X61.9780 Y23.0914
G01 X62.0565 Y23.0716
G01 X62.1354 Y23.0599
G01 X62.2150 Y23.0560
G01 X62.2946 Y23.0599
G01 X62.3735 Y23.0716
G01 X62.4508 Y23.0910
G01 X62.5259 Y23.1179
G01 X62.5980 Y23.1519
G01 X62.6663 Y23.1929
G01 X62.7304 Y23.2404
G01 X62.7894 Y23.2940
G01 X62.8430 Y23.3530
G01 X62.8905 Y23.4171
G01 X62.9315 Y23.4854
G01 X62.9655 Y23.5575
G01 X62.9920 Y23.6314
G01 X63.0122 Y23.7123
G01 X63.0235 Y23.7888
G01 X63.0274 Y23.8672
G01 X63.0273 Y25.3949
G01 X63.0235 Y25.4720
G01 X63.0122 Y25.5485
G01 X62.9924 Y25.6282
G01 X62.9645 Y25.7055
G01 X62.9315 Y25.7754
G01 X62.9003 Y25.8274
G00 Z3.0000
G00 X65.5674 Y25.3924
G01 F60.00
G01 Z0.0000
G01 F60.00
G01 X65.5632 Y25.4745
G01 X65.5518 Y25.5509
G01 X65.5324 Y25.6282
G01 X65.5045 Y25.7055
G01 X65.4715 Y25.7754
G01 X65.4403 Y25.8274
G01 X65.4403 Y28.2557
G01 X65.4975 Y28.3075
G01 X65.5651 Y28.3820
G01 X65.6266 Y28.4646
G01 X65.6810 Y28.5550
G01 X65.7241 Y28.6459
G01 X65.7598 Y28.7452
G01 X65.7848 Y28.8452
G01 X65.7999 Y28.9471
G01 X65.8050 Y29.0512
G01 X65.7999 Y29.1529
G01 X65.7848 Y29.2548
G01 X65.7598 Y29.3548
G01 X65.7241 Y29.4541
G01 X65.6810 Y29.5450
G01 X65.6266 Y29.6354
G01 X65.5651 Y29.7180
G01 X65.4975 Y29.7925
G01 X65.4403 Y29.8443
G01 X65.4403 Y33.8461
G01 X66.5096 Y34.9154
G01 X66.5548 Y34.9652
G01 X66.5948 Y35.0193
G01 X66.6282 Y35.0748
G01 X66.6590 Y35.1400
G01 X66.6808 Y35.2011
G01 X66.6971 Y35.2663
G01 X66.7070 Y35.3328
G01 X66.7103 Y35.3975
G01 X66.7070 Y35.4672
G01 X66.6971 Y35.5337
G01 X66.6808 Y35.5989
G01 X66.6582 Y35.6623
G01 X66.6294 Y35.7231
G01 X66.5948 Y35.7807
G01 X66.5548 Y35.8348
G01 X66.5096 Y35.8846
G01 X66.4598 Y35.9298
G01 X66.4057 Y35.9698
G01 X66.3481 Y36.0044
G01 X66.2873 Y36.0332
G01 X66.2239 Y36.0558
G01 X66.1587 Y36.0721
G01 X66.0922 Y36.0820
G01 X66.0275 Y36.0853
G01 X65.9578 Y36.0820
G01 X65.8913 Y36.0721
G01 X65.8261 Y36.0558
G01 X65.7627 Y36.0332
G01 X65.7019 Y36.0044
G01 X65.6443 Y35.9698
G01 X65.5902 Y35.9298
G01 X65.5413 Y35.8854
G01 X64.2704 Y34.6146
G01 X64.2260 Y34.5657
G01 X64.1839 Y34.5087
G01 X64.1506 Y34.4531
G01 X64.1218 Y34.3923
G01 X64.0985 Y34.3266
G01 X64.0829 Y34.2637
G01 X64.0731 Y34.1984
G01 X64.0697 Y34.1300
G01 X64.0697 Y29.8443
G01 X64.0125 Y29.7925
G01 X63.9449 Y29.7180
G01 X63.8834 Y29.6354
G01 X63.8290 Y29.5450
G01 X63.7859 Y29.4541
G01 X63.7502 Y29.3548
G01 X63.7252 Y29.2548
G01 X63.7101 Y29.1529
G01 X63.7050 Y29.0488
G01 X63.7101 Y28.9471
G01 X63.7252 Y28.8452
G01 X63.7502 Y28.7452
G01 X63.7859 Y28.6459
G01 X63.8290 Y28.5550
G01 X63.8834 Y28.4646
G01 X63.9449 Y28.3820
G01 X64.0125 Y28.3075
G01 X64.0697 Y28.2557
G01 X64.0697 Y25.8274
G01 X64.0385 Y25.7754
G01 X64.0055 Y25.7055
G01 X63.9784 Y25.6306
G01 X63.9582 Y25.5509
G01 X63.9464 Y25.4696
G01 X63.9426 Y25.3924
G01 X63.9426 Y23.8684
G01 X63.9467 Y23.7876
G01 X63.9588 Y23.7075
G01 X63.9776 Y23.6326
G01 X64.0036 Y23.5598
G01 X64.0385 Y23.4854
G01 X64.0795 Y23.4171
G01 X64.1270 Y23.3530
G01 X64.1823 Y23.2923
G01 X64.2396 Y23.2404
G01 X64.3017 Y23.1943
G01 X64.3720 Y23.1519
G01 X64.4441 Y23.1179
G01 X64.5192 Y23.0910
G01 X64.5965 Y23.0716
G01 X64.6754 Y23.0599
G01 X64.7550 Y23.0560
G01 X64.8346 Y23.0599
G01 X64.9135 Y23.0716
G01 X64.9908 Y23.0910
G01 X65.0659 Y23.1179
G01 X65.1380 Y23.1519
G01 X65.2063 Y23.1929
G01 X65.2704 Y23.2404
G01 X65.3294 Y23.2940
G01 X65.3830 Y23.3530
G01 X65.4305 Y23.4171
G01 X65.4715 Y23.4854
G01 X65.5055 Y23.5575
G01 X65.5324 Y23.6326
G01 X65.5518 Y23.7099
G01 X65.5636 Y23.7912
G01 X65.5674 Y23.8684
G01 X65.5674 Y25.3924
G00 Z3.0000
G00 X68.2950 Y28.0000
G01 F60.00
G01 Z0.0000
G01 F60.00
G01 X68.3048 Y28.0010
G01 X68.3141 Y28.0038
G01 X68.3217 Y28.0078
G01 X68.3295 Y28.0138
G01 X68.3359 Y28.0212
G01 X68.3407 Y28.0297
G01 X68.3438 Y28.0390
G01 X68.3450 Y28.0488
G01 X68.3450 Y30.0500
G01 X68.3440 Y30.0598
G01 X68.3416 Y30.0680
G01 X68.3372 Y30.0767
G01 X68.3312 Y30.0845
G01 X68.3238 Y30.0909
G01 X68.3153 Y30.0957
G01 X68.3060 Y30.0988
G01 X68.2999 Y30.0998
G01 X68.2950 Y30.1000
G01 X66.2950 Y30.1000
G01 X66.2865 Y30.0993
G01 X66.2770 Y30.0966
G01 X66.2683 Y30.0922
G01 X66.2605 Y30.0862
G01 X66.2541 Y30.0788
G01 X66.2493 Y30.0703
G01 X66.2475 Y30.0657
G01 X66.2460 Y30.0598
G01 X66.2450 Y30.0500
G01 X66.2450 Y28.0500
G01 X66.2457 Y28.0415
G01 X66.2475 Y28.0343
G01 X66.2509 Y28.0264
G01 X66.2548 Y28.0202
G01 X66.2605 Y28.0138
G01 X66.2662 Y28.0091
G01 X66.2736 Y28.0048
G01 X66.2805 Y28.0022
G01 X66.2889 Y28.0004
G01 X66.2950 Y28.0000
G01 X66.6097 Y28.0000
G01 X66.6097 Y25.8274
G01 X66.5785 Y25.7754
G01 X66.5455 Y25.7055
G01 X66.5184 Y25.6306
G01 X66.4982 Y25.5509
G01 X66.4864 Y25.4696
G01 X66.4826 Y25.3924
G01 X66.4826 Y23.8684
G01 X66.4867 Y23.7876
G01 X66.4982 Y23.7099
G01 X66.5169 Y23.6349
G01 X66.5455 Y23.5553
G01 X66.5785 Y23.4854
G01 X66.6195 Y23.4171
G01 X66.6670 Y23.3530
G01 X66.7189 Y23.2957
G01 X66.7816 Y23.2389
G01 X66.8437 Y23.1929
G01 X66.9120 Y23.1519
G01 X66.9864 Y23.1170
G01 X67.0592 Y23.0910
G01 X67.1353 Y23.0719
G01 X67.2154 Y23.0599
G01 X67.2950 Y23.0560
G01 X67.3746 Y23.0599
G01 X67.4535 Y23.0716
G01 X67.5308 Y23.0910
G01 X67.6059 Y23.1179
G01 X67.6780 Y23.1519
G01 X67.7463 Y23.1929
G01 X67.8104 Y23.2404
G01 X67.8694 Y23.2940
G01 X67.9230 Y23.3530
G01 X67.9705 Y23.4171
G01 X68.0115 Y23.4854
G01 X68.0455 Y23.5575
G01 X68.0724 Y23.6326
G01 X68.0915 Y23.7087
G01 X68.1035 Y23.7888
G01 X68.1074 Y23.8684
G01 X68.1074 Y25.3936
G01 X68.1035 Y25.4720
G01 X68.0922 Y25.5485
G01 X68.0724 Y25.6282
G01 X68.0445 Y25.7055
G01 X68.0115 Y25.7754
G01 X67.9803 Y25.8274
G01 X67.9803 Y28.0000
G01 X68.2950 Y28.0000
G00 Z3.0000
G00 X71.9133 Y24.9377
G01 F60.00
G01 Z0.0000
G01 F60.00
G01 X71.9219 Y24.7580
G01 X71.9479 Y24.5825
G01 X71.9911 Y24.4104
G01 X72.0508 Y24.2433
G01 X72.1267 Y24.0829
G01 X72.2179 Y23.9307
G01 X72.3236 Y23.7882
G01 X72.4428 Y23.6568
G01 X72.5742 Y23.5376
G01 X72.7167 Y23.4319
G01 X72.8689 Y23.3407
G01 X73.0293 Y23.2648
G01 X73.1964 Y23.2051
G01 X73.3685 Y23.1619
G01 X73.5440 Y23.1359
G01 X73.7212 Y23.1272
G01 X73.8984 Y23.1359
G01 X74.0739 Y23.1619
G01 X74.2460 Y23.2051
G01 X74.4131 Y23.2648
G01 X74.5735 Y23.3407
G01 X74.7257 Y23.4319
G01 X74.8682 Y23.5376
G01 X74.9996 Y23.6568
G01 X75.1188 Y23.7882
G01 X75.2245 Y23.9307
G01 X75.3157 Y24.0829
G01 X75.3916 Y24.2433
G01 X75.4513 Y24.4104
G01 X75.4945 Y24.5825
G01 X75.5205 Y24.7580
G01 X75.5292 Y24.9352
G01 X75.5205 Y25.1124
G01 X75.4945 Y25.2879
G01 X75.4513 Y25.4600
G01 X75.3916 Y25.6271
G01 X75.3157 Y25.7875
G01 X75.2245 Y25.9397
G01 X75.1188 Y26.0822
G01 X74.9996 Y26.2136
G01 X74.8682 Y26.3328
G01 X74.7257 Y26.4385
G01 X74.5735 Y26.5297
G01 X74.4131 Y26.6056
G01 X74.2460 Y26.6653
G01 X74.0739 Y26.7085
G01 X73.8984 Y26.7345
G01 X73.7212 Y26.7432
G01 X73.5440 Y26.7345
G01 X73.3685 Y26.7085
G01 X73.1964 Y26.6653
G01 X73.0293 Y26.6056
G01 X72.8689 Y26.5297
G01 X72.7167 Y26.4385
G01 X72.5742 Y26.3328
G01 X72.4428 Y26.2136
G01 X72.3236 Y26.0822
G01 X72.2179 Y25.9397
G01 X72.1267 Y25.7875
G01 X72.0508 Y25.6271
G01 X71.9911 Y25.4600
G01 X71.9479 Y25.2879
G01 X71.9219 Y25.1124
G01 X71.9133 Y24.9377
G00 Z3.0000
G00 X74.8669 Y22.6342
G01 F60.00
G01 Z0.0000
G01 F60.00
G01 X75.6207 Y23.2036
G01 X76.1181 Y24.0067
G01 X76.2916 Y24.9352
G01 X76.1181 Y25.8637
G01 X75.6207 Y26.6668
G01 X74.8669 Y27.2362
G01 X73.9584 Y27.4947
G01 X73.0178 Y27.4075
G01 X72.1722 Y26.9864
G01 X71.5357 Y26.2883
G01 X71.1946 Y25.4076
G01 X71.1946 Y24.4628
G01 X71.5357 Y23.5821
G01 X72.1722 Y22.8840
G01 X73.0178 Y22.4629
G01 X73.9584 Y22.3757
G01 X74.8669 Y22.6342
G00 Z3.0000
G00 X83.5256 Y25.4435
G01 F60.00
G01 Z0.0000
G01 F60.00
G01 X83.6301 Y25.4488
G01 X83.7287 Y25.4635
G01 X83.8278 Y25.4883
G01 X83.9263 Y25.5237
G01 X84.0164 Y25.5664
G01 X84.1040 Y25.6190
G01 X84.1861 Y25.6798
G01 X84.2600 Y25.7467
G01 X84.3304 Y25.8241
G01 X84.3912 Y25.9062
G01 X84.4426 Y25.9917
G01 X84.4874 Y26.0862
G01 X84.5225 Y26.1848
G01 X84.5467 Y26.2815
G01 X84.5617 Y26.3826
G01 X84.5667 Y26.4846
G01 X84.5619 Y26.5842
G01 X84.5467 Y26.6877
G01 X84.5211 Y26.7891
G01 X84.4874 Y26.8830
G01 X84.4438 Y26.9754
G01 X84.3912 Y27.0630
G01 X84.3319 Y27.1431
G01 X84.2600 Y27.2225
G01 X84.1861 Y27.2894
G01 X84.1040 Y27.3502
G01 X84.0164 Y27.4028
G01 X83.9263 Y27.4455
G01 X83.8254 Y27.4815
G01 X83.7287 Y27.5057
G01 X83.6289 Y27.5205
G01 X83.5256 Y27.5257
G01 X81.5444 Y27.5257
G01 X81.4424 Y27.5207
G01 X81.3413 Y27.5057
G01 X81.2422 Y27.4809
G01 X81.1449 Y27.4460
G01 X81.0536 Y27.4028
G01 X80.9650 Y27.3495
G01 X80.8821 Y27.2878
G01 X80.8082 Y27.2208
G01 X80.7621 Y27.1699
G01 X79.6693 Y27.1699
G01 X77.5053 Y29.3339
G01 X77.5053 Y31.5925
G01 X77.5020 Y31.6572
G01 X77.4926 Y31.7213
G01 X77.4758 Y31.7889
G01 X77.4532 Y31.8523
G01 X77.4255 Y31.9109
G01 X77.3898 Y31.9707
G01 X77.3498 Y32.0248
G01 X77.3028 Y32.0763
G01 X77.2548 Y32.1198
G01 X77.2027 Y32.1584
G01 X77.1452 Y32.1932
G01 X77.0823 Y32.2232
G01 X77.0189 Y32.2458
G01 X76.9537 Y32.2621
G01 X76.8872 Y32.2720
G01 X76.8200 Y32.2753
G01 X76.7504 Y32.2717
G01 X76.6839 Y32.2616
G01 X76.6211 Y32.2458
G01 X76.5600 Y32.2240
G01 X76.4969 Y32.1944
G01 X76.4393 Y32.1598
G01 X76.3852 Y32.1198
G01 X76.3337 Y32.0728
G01 X76.2902 Y32.0248
G01 X76.2502 Y31.9707
G01 X76.2156 Y31.9131
G01 X76.1868 Y31.8523
G01 X76.1642 Y31.7889
G01 X76.1479 Y31.7237
G01 X76.1380 Y31.6572
G01 X76.1347 Y31.5925
G01 X76.1347 Y29.0488
G01 X76.1380 Y28.9828
G01 X76.1479 Y28.9163
G01 X76.1642 Y28.8511
G01 X76.1868 Y28.7877
G01 X76.2156 Y28.7269
G01 X76.2502 Y28.6693
G01 X76.2902 Y28.6152
G01 X76.3346 Y28.5663
G01 X78.9026 Y25.9983
G01 X78.9506 Y25.9548
G01 X79.0047 Y25.9148
G01 X79.0623 Y25.8802
G01 X79.1209 Y25.8524
G01 X79.1888 Y25.8281
G01 X79.2517 Y25.8125
G01 X79.3182 Y25.8026
G01 X79.3854 Y25.7993
G01 X80.7621 Y25.7993
G01 X80.8082 Y25.7484
G01 X80.8849 Y25.6791
G01 X80.9660 Y25.6190
G01 X81.0547 Y25.5659
G01 X81.1460 Y25.5228
G01 X81.2422 Y25.4883
G01 X81.3413 Y25.4635
G01 X81.4411 Y25.4487
G01 X81.5444 Y25.4435
G01 X83.5256 Y25.4435
G00 Z3.0000
G00 X84.6583 Y36.8723
G01 F60.00
G01 Z0.0000
G01 F60.00
G01 X84.6328 Y36.9508
G01 X84.5473 Y37.1184
G01 X84.4369 Y37.2704
G01 X84.3038 Y37.4035
G01 X84.1518 Y37.5139
G01 X83.9842 Y37.5994
G01 X83.8054 Y37.6574
G01 X83.6197 Y37.6869
G01 X82.9151 Y37.6869
G01 X82.9151 Y37.5333
G01 X83.5256 Y37.5333
G01 X83.6264 Y37.5284
G01 X83.7287 Y37.5133
G01 X83.8254 Y37.4891
G01 X83.9263 Y37.4531
G01 X84.0164 Y37.4104
G01 X84.1040 Y37.3578
G01 X84.1861 Y37.2970
G01 X84.2618 Y37.2284
G01 X84.3304 Y37.1527
G01 X84.3912 Y37.0706
G01 X84.4443 Y36.9819
G01 X84.4870 Y36.8917
G01 X84.4941 Y36.8723
G01 X84.6583 Y36.8723
G00 Z3.0000
G00 X80.5759 Y36.8723
G01 F60.00
G01 Z0.0000
G01 F60.00
G01 X80.5830 Y36.8917
G01 X80.6274 Y36.9851
G01 X80.6788 Y37.0706
G01 X80.7412 Y37.1545
G01 X80.8082 Y37.2284
G01 X80.8839 Y37.2970
G01 X80.9660 Y37.3578
G01 X81.0547 Y37.4109
G01 X81.1460 Y37.4540
G01 X81.2422 Y37.4885
G01 X81.3413 Y37.5133
G01 X81.4411 Y37.5281
G01 X81.5444 Y37.5333
G01 X82.1549 Y37.5333
G01 X82.1549 Y37.6869
G01 X81.4503 Y37.6869
G01 X81.2646 Y37.6574
G01 X81.0858 Y37.5994
G01 X80.9182 Y37.5139
G01 X80.7662 Y37.4035
G01 X80.6331 Y37.2704
G01 X80.5227 Y37.1184
G01 X80.4372 Y36.9508
G01 X80.4117 Y36.8723
G01 X80.5759 Y36.8723
G00 Z3.0000
G00 X76.5426 Y38.5516
G01 F60.00
G01 Z0.0000
G01 F60.00
G01 X76.4928 Y38.5968
G01 X76.4407 Y38.6354
G01 X76.3789 Y38.6725
G01 X76.3203 Y38.7002
G01 X76.2569 Y38.7228
G01 X76.1917 Y38.7391
G01 X76.1252 Y38.7490
G01 X76.0580 Y38.7523
G01 X74.4624 Y38.7523
G01 X72.2483 Y40.9663
G01 X72.2003 Y41.0098
G01 X72.1462 Y41.0498
G01 X72.0886 Y41.0844
G01 X72.0300 Y41.1122
G01 X71.9621 Y41.1365
G01 X71.8992 Y41.1521
G01 X71.8315 Y41.1621
G01 X71.7655 Y41.1653
G01 X45.0688 Y41.1653
G01 X45.0028 Y41.1620
G01 X44.9363 Y41.1521
G01 X44.8711 Y41.1358
G01 X44.8077 Y41.1132
G01 X44.7469 Y41.0844
G01 X44.6893 Y41.0498
G01 X44.6352 Y41.0098
G01 X44.5872 Y40.9663
G01 X44.5402 Y40.9148
G01 X44.5016 Y40.8627
G01 X44.4645 Y40.8009
G01 X44.4368 Y40.7423
G01 X44.4142 Y40.6789
G01 X44.3979 Y40.6137
G01 X44.3879 Y40.5460
G01 X44.3847 Y40.4800
G01 X44.3880 Y40.4128
G01 X44.3979 Y40.3463
G01 X44.4150 Y40.2787
G01 X44.4368 Y40.2177
G01 X44.4668 Y40.1548
G01 X44.5016 Y40.0973
G01 X44.5402 Y40.0452
G01 X44.5837 Y39.9972
G01 X44.6352 Y39.9502
G01 X44.6893 Y39.9102
G01 X44.7469 Y39.8756
G01 X44.8077 Y39.8468
G01 X44.8711 Y39.8242
G01 X44.9363 Y39.8079
G01 X45.0028 Y39.7980
G01 X45.0688 Y39.7947
G01 X71.4816 Y39.7947
G01 X73.6939 Y37.5824
G01 X73.7457 Y37.5357
G01 X73.7978 Y37.4972
G01 X73.8544 Y37.4632
G01 X73.9162 Y37.4338
G01 X73.9819 Y37.4105
G01 X74.0448 Y37.3949
G01 X74.1089 Y37.3853
G01 X74.1760 Y37.3817
G01 X75.7741 Y37.3817
G01 X76.3363 Y36.8196
G01 X76.3852 Y36.7752
G01 X76.4403 Y36.7345
G01 X76.4969 Y36.7006
G01 X76.5577 Y36.6718
G01 X76.6211 Y36.6492
G01 X76.6863 Y36.6329
G01 X76.7528 Y36.6230
G01 X76.8200 Y36.6197
G01 X76.8872 Y36.6230
G01 X76.9549 Y36.6331
G01 X77.0189 Y36.6492
G01 X77.0823 Y36.6718
G01 X77.1431 Y36.7006
G01 X77.2007 Y36.7352
G01 X77.2548 Y36.7752
G01 X77.3046 Y36.8204
G01 X77.3498 Y36.8702
G01 X77.3898 Y36.9243
G01 X77.4244 Y36.9819
G01 X77.4532 Y37.0427
G01 X77.4758 Y37.1061
G01 X77.4921 Y37.1713
G01 X77.5020 Y37.2378
G01 X77.5053 Y37.3050
G01 X77.5020 Y37.3722
G01 X77.4919 Y37.4399
G01 X77.4750 Y37.5063
G01 X77.4532 Y37.5673
G01 X77.4255 Y37.6259
G01 X77.3898 Y37.6857
G01 X77.3490 Y37.7407
G01 X77.3046 Y37.7896
G01 X76.5426 Y38.5516
G00 Z3.0000
G00 X75.6003 Y49.8276
G01 F60.00
G01 Z0.0000
G01 F60.00
G01 X75.6782 Y49.8276
G01 X75.7566 Y49.8315
G01 X75.8355 Y49.8432
G01 X75.9105 Y49.8619
G01 X75.9901 Y49.8905
G01 X76.0600 Y49.9235
G01 X76.1283 Y49.9645
G01 X76.1924 Y50.0120
G01 X76.2497 Y50.0639
G01 X76.3065 Y50.1266
G01 X76.3525 Y50.1887
G01 X76.3935 Y50.2570
G01 X76.4275 Y50.3291
G01 X76.4536 Y50.4018
G01 X76.4742 Y50.4839
G01 X76.4855 Y50.5604
G01 X76.4894 Y50.6400
G01 X76.4855 Y50.7196
G01 X76.4742 Y50.7961
G01 X76.4536 Y50.8782
G01 X76.4275 Y50.9509
G01 X76.3935 Y51.0230
G01 X76.3525 Y51.0913
G01 X76.3065 Y51.1534
G01 X76.2497 Y51.2161
G01 X76.1924 Y51.2680
G01 X76.1283 Y51.3155
G01 X76.0578 Y51.3576
G01 X75.9879 Y51.3905
G01 X75.9152 Y51.4166
G01 X75.8355 Y51.4368
G01 X75.7554 Y51.4486
G01 X75.6770 Y51.4524
G01 X74.1505 Y51.4523
G01 X74.0734 Y51.4485
G01 X73.9945 Y51.4368
G01 X73.9172 Y51.4174
G01 X73.8421 Y51.3905
G01 X73.7700 Y51.3565
G01 X73.7017 Y51.3155
G01 X73.6376 Y51.2680
G01 X73.5769 Y51.2127
G01 X73.5250 Y51.1554
G01 X73.4789 Y51.0933
G01 X73.4365 Y51.0230
G01 X73.4016 Y50.9486
G01 X73.3756 Y50.8758
G01 X73.3568 Y50.8009
G01 X73.3445 Y50.7196
G01 X73.3407 Y50.6375
G01 X73.3445 Y50.5604
G01 X73.3558 Y50.4839
G01 X73.3753 Y50.4054
G01 X73.4025 Y50.3291
G01 X73.4354 Y50.2592
G01 X73.4789 Y50.1867
G01 X73.5250 Y50.1246
G01 X73.5786 Y50.0656
G01 X73.6376 Y50.0120
G01 X73.7017 Y49.9645
G01 X73.7700 Y49.9235
G01 X73.8399 Y49.8905
G01 X73.9195 Y49.8619
G01 X73.9945 Y49.8432
G01 X74.0734 Y49.8315
G01 X74.1518 Y49.8276
G01 X74.2297 Y49.8276
G01 X74.2297 Y48.7649
G01 X68.0804 Y42.6156
G01 X68.0360 Y42.5667
G01 X67.9952 Y42.5117
G01 X67.9606 Y42.4541
G01 X67.9318 Y42.3933
G01 X67.9092 Y42.3299
G01 X67.8929 Y42.2647
G01 X67.8830 Y42.1982
G01 X67.8797 Y42.1310
G01 X67.8828 Y42.0663
G01 X67.8934 Y41.9949
G01 X67.9092 Y41.9321
G01 X67.9328 Y41.8665
G01 X67.9606 Y41.8079
G01 X67.9952 Y41.7503
G01 X68.0352 Y41.6962
G01 X68.0822 Y41.6447
G01 X68.1302 Y41.6012
G01 X68.1843 Y41.5612
G01 X68.2419 Y41.5266
G01 X68.3027 Y41.4978
G01 X68.3661 Y41.4752
G01 X68.4313 Y41.4589
G01 X68.4978 Y41.4490
G01 X68.5625 Y41.4457
G01 X68.6322 Y41.4490
G01 X68.6963 Y41.4584
G01 X68.7663 Y41.4760
G01 X68.8273 Y41.4978
G01 X68.8881 Y41.5266
G01 X68.9457 Y41.5612
G01 X69.0007 Y41.6020
G01 X69.0496 Y41.6464
G01 X75.4013 Y47.9982
G01 X75.4448 Y48.0462
G01 X75.4848 Y48.1003
G01 X75.5194 Y48.1579
G01 X75.5472 Y48.2165
G01 X75.5715 Y48.2844
G01 X75.5871 Y48.3473
G01 X75.5970 Y48.4138
G01 X75.6003 Y48.4810
G01 X75.6003 Y49.8276
G00 Z3.0000
G00 X75.6770 Y52.3676
G01 F60.00
G01 Z0.0000
G01 F60.00
G01 X75.7566 Y52.3715
G01 X75.8331 Y52.3828
G01 X75.9152 Y52.4034
G01 X75.9879 Y52.4295
G01 X76.0600 Y52.4635
G01 X76.1283 Y52.5045
G01 X76.1924 Y52.5520
G01 X76.2514 Y52.6056
G01 X76.3034 Y52.6628
G01 X76.3538 Y52.7307
G01 X76.3935 Y52.7970
G01 X76.4275 Y52.8691
G01 X76.4544 Y52.9442
G01 X76.4738 Y53.0215
G01 X76.4855 Y53.1004
G01 X76.4893 Y53.1775
G01 X76.4852 Y53.2621
G01 X76.4738 Y53.3385
G01 X76.4544 Y53.4158
G01 X76.4275 Y53.4909
G01 X76.3935 Y53.5630
G01 X76.3525 Y53.6313
G01 X76.3065 Y53.6934
G01 X76.2497 Y53.7561
G01 X76.1924 Y53.8080
G01 X76.1283 Y53.8555
G01 X76.0600 Y53.8965
G01 X75.9890 Y53.9301
G01 X75.9128 Y53.9574
G01 X75.8355 Y53.9768
G01 X75.7566 Y53.9885
G01 X75.6782 Y53.9924
G01 X74.1530 Y53.9924
G01 X74.0758 Y53.9886
G01 X73.9945 Y53.9768
G01 X73.9148 Y53.9566
G01 X73.8399 Y53.9295
G01 X73.7700 Y53.8965
G01 X73.7180 Y53.8653
G01 X73.0100 Y53.8653
G01 X72.9428 Y53.8620
G01 X72.8739 Y53.8516
G01 X72.8111 Y53.8358
G01 X72.7500 Y53.8140
G01 X72.6869 Y53.7844
G01 X72.6282 Y53.7491
G01 X72.5752 Y53.7098
G01 X72.5254 Y53.6646
G01 X70.6196 Y51.7587
G01 X70.5752 Y51.7098
G01 X70.5352 Y51.6557
G01 X70.5006 Y51.5981
G01 X70.4710 Y51.5350
G01 X70.4492 Y51.4739
G01 X70.4329 Y51.4087
G01 X70.4230 Y51.3422
G01 X70.4197 Y51.2762
G01 X70.4197 Y47.7489
G01 X66.3761 Y43.7053
G01 X62.2150 Y43.7053
G01 X62.1478 Y43.7020
G01 X62.0801 Y43.6919
G01 X62.0137 Y43.6750
G01 X61.9527 Y43.6532
G01 X61.8941 Y43.6255
G01 X61.8343 Y43.5898
G01 X61.7802 Y43.5498
G01 X61.7304 Y43.5046
G01 X61.6837 Y43.4528
G01 X61.6452 Y43.4007
G01 X61.6118 Y43.3452
G01 X61.5818 Y43.2823
G01 X61.5585 Y43.2166
G01 X61.5429 Y43.1537
G01 X61.5333 Y43.0896
G01 X61.5297 Y43.0200
G01 X61.5330 Y42.9528
G01 X61.5434 Y42.8839
G01 X61.5592 Y42.8211
G01 X61.5810 Y42.7600
G01 X61.6106 Y42.6969
G01 X61.6459 Y42.6382
G01 X61.6868 Y42.5834
G01 X61.7304 Y42.5354
G01 X61.7784 Y42.4918
G01 X61.8343 Y42.4502
G01 X61.8919 Y42.4156
G01 X61.9527 Y42.3868
G01 X62.0184 Y42.3635
G01 X62.0813 Y42.3479
G01 X62.1454 Y42.3383
G01 X62.2138 Y42.3347
G01 X66.6612 Y42.3347
G01 X66.7272 Y42.3380
G01 X66.7913 Y42.3474
G01 X66.8589 Y42.3642
G01 X66.9223 Y42.3868
G01 X66.9809 Y42.4145
G01 X67.0418 Y42.4509
G01 X67.0948 Y42.4902
G01 X67.1446 Y42.5354
G01 X71.5896 Y46.9804
G01 X71.6363 Y47.0322
G01 X71.6748 Y47.0843
G01 X71.7088 Y47.1409
G01 X71.7382 Y47.2027
G01 X71.7615 Y47.2684
G01 X71.7771 Y47.3313
G01 X71.7867 Y47.3954
G01 X71.7903 Y47.4638
G01 X71.7903 Y50.9911
G01 X73.2939 Y52.4947
G01 X73.7180 Y52.4947
G01 X73.7700 Y52.4635
G01 X73.8399 Y52.4305
G01 X73.9148 Y52.4034
G01 X73.9945 Y52.3832
G01 X74.0758 Y52.3714
G01 X74.1530 Y52.3676
G01 X75.6770 Y52.3676
G00 Z3.0000
G00 X72.0276 Y56.3682
G01 F60.00
G01 Z0.0000
G01 F60.00
G01 X71.9857 Y56.3532
G01 X71.9271 Y56.3255
G01 X71.8683 Y56.2905
G01 X71.8132 Y56.2498
G01 X71.7634 Y56.2046
G01 X67.7561 Y52.1973
G01 X67.7453 Y52.2051
G01 X67.6780 Y52.2455
G01 X67.6059 Y52.2795
G01 X67.5308 Y52.3064
G01 X67.4535 Y52.3258
G01 X67.3746 Y52.3375
G01 X67.2950 Y52.3414
G01 X67.2154 Y52.3375
G01 X67.1341 Y52.3252
G01 X67.0592 Y52.3064
G01 X66.9864 Y52.2804
G01 X66.9142 Y52.2466
G01 X66.8437 Y52.2045
G01 X66.7816 Y52.1585
G01 X66.7206 Y52.1034
G01 X66.6670 Y52.0444
G01 X66.6195 Y51.9803
G01 X66.5785 Y51.9120
G01 X66.5445 Y51.8399
G01 X66.5176 Y51.7648
G01 X66.4982 Y51.6875
G01 X66.4864 Y51.6062
G01 X66.4826 Y51.5290
G01 X66.4826 Y50.0050
G01 X66.4868 Y49.9229
G01 X66.4982 Y49.8465
G01 X66.5176 Y49.7692
G01 X66.5455 Y49.6919
G01 X66.5785 Y49.6220
G01 X66.6097 Y49.5700
G01 X66.6097 Y47.6243
G01 X66.5525 Y47.5725
G01 X66.4849 Y47.4980
G01 X66.4234 Y47.4154
G01 X66.3690 Y47.3250
G01 X66.3259 Y47.2341
G01 X66.2902 Y47.1348
G01 X66.2652 Y47.0348
G01 X66.2501 Y46.9329
G01 X66.2450 Y46.8312
G01 X66.2501 Y46.7271
G01 X66.2648 Y46.6276
G01 X66.2910 Y46.5229
G01 X66.3249 Y46.4282
G01 X66.3690 Y46.3350
G01 X66.4220 Y46.2467
G01 X66.4826 Y46.1648
G01 X66.5525 Y46.0875
G01 X66.6308 Y46.0168
G01 X66.7117 Y45.9570
G01 X66.7979 Y45.9052
G01 X66.8909 Y45.8609
G01 X66.9902 Y45.8252
G01 X67.0902 Y45.8002
G01 X67.1921 Y45.7851
G01 X67.2975 Y45.7801
G01 X67.4004 Y45.7854
G01 X67.4998 Y45.8002
G01 X67.5974 Y45.8246
G01 X67.6968 Y45.8599
G01 X67.7900 Y45.9040
G01 X67.8783 Y45.9570
G01 X67.9630 Y46.0199
G01 X68.0375 Y46.0875
G01 X68.1051 Y46.1620
G01 X68.1680 Y46.2467
G01 X68.2221 Y46.3372
G01 X68.2651 Y46.4282
G01 X68.2998 Y46.5252
G01 X68.3248 Y46.6252
G01 X68.3396 Y46.7246
G01 X68.3450 Y46.8312
G01 X68.3399 Y46.9329
G01 X68.3248 Y47.0348
G01 X68.2998 Y47.1348
G01 X68.2641 Y47.2341
G01 X68.2210 Y47.3250
G01 X68.1666 Y47.4154
G01 X68.1051 Y47.4980
G01 X68.0375 Y47.5725
G01 X67.9803 Y47.6243
G01 X67.9803 Y49.5700
G01 X68.0115 Y49.6220
G01 X68.0445 Y49.6919
G01 X68.0716 Y49.7668
G01 X68.0918 Y49.8465
G01 X68.1033 Y49.9242
G01 X68.1074 Y50.0050
G01 X68.1074 Y50.6102
G01 X72.5319 Y55.0347
G01 X73.7180 Y55.0347
G01 X73.7700 Y55.0035
G01 X73.8399 Y54.9705
G01 X73.9172 Y54.9426
G01 X73.9969 Y54.9228
G01 X74.0734 Y54.9115
G01 X74.1505 Y54.9077
G01 X75.6743 Y54.9076
G01 X77.4809 Y53.1010
G01 X77.4809 Y49.0951
G01 X73.1604 Y44.7746
G01 X73.1137 Y44.7228
G01 X73.0752 Y44.6707
G01 X73.0406 Y44.6131
G01 X73.0118 Y44.5523
G01 X72.9885 Y44.4866
G01 X72.9729 Y44.4237
G01 X72.9633 Y44.3596
G01 X72.9597 Y44.2912
G01 X72.9597 Y41.1150
G01 X72.9633 Y41.0454
G01 X72.9729 Y40.9813
G01 X72.9892 Y40.9161
G01 X73.0128 Y40.8505
G01 X73.0406 Y40.7919
G01 X73.0739 Y40.7363
G01 X73.1152 Y40.6802
G01 X73.1604 Y40.6304
G01 X74.4304 Y39.3604
G01 X74.4793 Y39.3160
G01 X74.5343 Y39.2752
G01 X74.5898 Y39.2418
G01 X74.6550 Y39.2110
G01 X74.7161 Y39.1892
G01 X74.7813 Y39.1729
G01 X74.8478 Y39.1630
G01 X74.9150 Y39.1597
G01 X78.7250 Y39.1597
G01 X78.7946 Y39.1633
G01 X78.8587 Y39.1729
G01 X78.9239 Y39.1892
G01 X78.9873 Y39.2118
G01 X79.0502 Y39.2418
G01 X79.1057 Y39.2752
G01 X79.1578 Y39.3137
G01 X79.2087 Y39.3596
G01 X80.6853 Y40.8361
G01 X80.7621 Y40.8361
G01 X80.8082 Y40.7852
G01 X80.8821 Y40.7182
G01 X80.9650 Y40.6565
G01 X81.0536 Y40.6032
G01 X81.1460 Y40.5596
G01 X81.2422 Y40.5251
G01 X81.3413 Y40.5003
G01 X81.4424 Y40.4853
G01 X81.5432 Y40.4803
G01 X83.5256 Y40.4803
G01 X83.6276 Y40.4853
G01 X83.7287 Y40.5003
G01 X83.8254 Y40.5245
G01 X83.9240 Y40.5596
G01 X84.0185 Y40.6044
G01 X84.1040 Y40.6558
G01 X84.1851 Y40.7159
G01 X84.2635 Y40.7870
G01 X84.3304 Y40.8609
G01 X84.3912 Y40.9430
G01 X84.4438 Y41.0306
G01 X84.4865 Y41.1207
G01 X84.5219 Y41.2192
G01 X84.5467 Y41.3183
G01 X84.5614 Y41.4169
G01 X84.5667 Y41.5214
G01 X84.5617 Y41.6234
G01 X84.5471 Y41.7221
G01 X84.5219 Y41.8236
G01 X84.4874 Y41.9198
G01 X84.4449 Y42.0100
G01 X84.3912 Y42.0998
G01 X84.3288 Y42.1837
G01 X84.2618 Y42.2576
G01 X84.1861 Y42.3262
G01 X84.1040 Y42.3870
G01 X84.0185 Y42.4384
G01 X83.9240 Y42.4832
G01 X83.8278 Y42.5177
G01 X83.7311 Y42.5420
G01 X83.6264 Y42.5576
G01 X83.5256 Y42.5625
G01 X81.5444 Y42.5625
G01 X81.4411 Y42.5573
G01 X81.3413 Y42.5425
G01 X81.2422 Y42.5177
G01 X81.1460 Y42.4832
G01 X81.0547 Y42.4401
G01 X80.9660 Y42.3870
G01 X80.8849 Y42.3269
G01 X80.8082 Y42.2576
G01 X80.7621 Y42.2067
G01 X80.4014 Y42.2067
G01 X80.3354 Y42.2035
G01 X80.2653 Y42.1930
G01 X80.2025 Y42.1772
G01 X80.1403 Y42.1550
G01 X80.0783 Y42.1258
G01 X80.0207 Y42.0912
G01 X79.9666 Y42.0512
G01 X79.9177 Y42.0068
G01 X78.4411 Y40.5303
G01 X75.1989 Y40.5303
G01 X74.3303 Y41.3989
G01 X74.3303 Y44.0061
G01 X78.6516 Y48.3275
G01 X78.6960 Y48.3764
G01 X78.7346 Y48.4285
G01 X78.7706 Y48.4881
G01 X78.8002 Y48.5512
G01 X78.8220 Y48.6123
G01 X78.8378 Y48.6751
G01 X78.8482 Y48.7440
G01 X78.8515 Y48.8112
G01 X78.8515 Y53.3849
G01 X78.8479 Y53.4545
G01 X78.8383 Y53.5186
G01 X78.8223 Y53.5827
G01 X78.7994 Y53.6472
G01 X78.7694 Y53.7101
G01 X78.7360 Y53.7656
G01 X78.6975 Y53.8177
G01 X78.6516 Y53.8686
G01 X76.9010 Y55.6192
G01 X79.1342 Y57.8525
G01 X79.1786 Y57.9014
G01 X79.2186 Y57.9555
G01 X79.2532 Y58.0131
G01 X79.2828 Y58.0762
G01 X79.3046 Y58.1373
G01 X79.3209 Y58.2025
G01 X79.3308 Y58.2690
G01 X79.3341 Y58.3350
G01 X79.3341 Y62.2433
G01 X80.2789 Y63.1881
G01 X80.7621 Y63.1881
G01 X80.8082 Y63.1372
G01 X80.8849 Y63.0679
G01 X80.9660 Y63.0078
G01 X81.0547 Y62.9547
G01 X81.1460 Y62.9116
G01 X81.2422 Y62.8771
G01 X81.3413 Y62.8523
G01 X81.4436 Y62.8372
G01 X81.5444 Y62.8323
G01 X83.5281 Y62.8324
G01 X83.6301 Y62.8376
G01 X83.7287 Y62.8523
G01 X83.8254 Y62.8765
G01 X83.9240 Y62.9116
G01 X84.0174 Y62.9558
G01 X84.1040 Y63.0078
G01 X84.1841 Y63.0671
G01 X84.2618 Y63.1372
G01 X84.3319 Y63.2149
G01 X84.3912 Y63.2950
G01 X84.4438 Y63.3826
G01 X84.4874 Y63.4750
G01 X84.5211 Y63.5689
G01 X84.5467 Y63.6703
G01 X84.5619 Y63.7738
G01 X84.5667 Y63.8734
G01 X84.5619 Y63.9730
G01 X84.5462 Y64.0789
G01 X84.5219 Y64.1756
G01 X84.4883 Y64.2695
G01 X84.4438 Y64.3642
G01 X84.3898 Y64.4538
G01 X84.3304 Y64.5339
G01 X84.2635 Y64.6078
G01 X84.1861 Y64.6782
G01 X84.1040 Y64.7390
G01 X84.0185 Y64.7904
G01 X83.9229 Y64.8357
G01 X83.8278 Y64.8697
G01 X83.7287 Y64.8945
G01 X83.6276 Y64.9095
G01 X83.5268 Y64.9145
G01 X81.5444 Y64.9145
G01 X81.4436 Y64.9096
G01 X81.3413 Y64.8945
G01 X81.2422 Y64.8697
G01 X81.1460 Y64.8352
G01 X81.0547 Y64.7921
G01 X80.9660 Y64.7390
G01 X80.8849 Y64.6789
G01 X80.8082 Y64.6096
G01 X80.7621 Y64.5587
G01 X79.9938 Y64.5587
G01 X79.9278 Y64.5554
G01 X79.8637 Y64.5460
G01 X79.7937 Y64.5284
G01 X79.7327 Y64.5066
G01 X79.6741 Y64.4789
G01 X79.6163 Y64.4445
G01 X79.5602 Y64.4032
G01 X79.5113 Y64.3588
G01 X77.9077 Y62.7553
G01 X75.4164 Y62.7553
G01 X75.3863 Y62.7775
G01 X75.3146 Y62.8203
G01 X75.2403 Y62.8554
G01 X75.1629 Y62.8831
G01 X75.0808 Y62.9038
G01 X75.0008 Y62.9157
G01 X74.9138 Y62.9201
G01 X74.8317 Y62.9160
G01 X74.7492 Y62.9038
G01 X74.6682 Y62.8835
G01 X74.5897 Y62.8554
G01 X74.5143 Y62.8197
G01 X74.4427 Y62.7768
G01 X74.3757 Y62.7271
G01 X74.3130 Y62.6702
G01 X74.2564 Y62.6074
G01 X74.2082 Y62.5423
G01 X74.1665 Y62.4729
G01 X74.1296 Y62.3953
G01 X74.1015 Y62.3168
G01 X74.0808 Y62.2334
G01 X74.0690 Y62.1533
G01 X74.0650 Y62.0725
G01 X74.0690 Y61.9867
G01 X74.0818 Y61.9018
G01 X74.1015 Y61.8232
G01 X74.1287 Y61.7470
G01 X74.1653 Y61.6693
G01 X74.2096 Y61.5957
G01 X74.2579 Y61.5307
G01 X74.3122 Y61.4707
G01 X74.3757 Y61.4129
G01 X74.4448 Y61.3619
G01 X74.5165 Y61.3192
G01 X74.5897 Y61.2846
G01 X74.6659 Y61.2573
G01 X74.7492 Y61.2362
G01 X74.8341 Y61.2238
G01 X74.9150 Y61.2199
G01 X74.9959 Y61.2238
G01 X75.0796 Y61.2360
G01 X75.1618 Y61.2565
G01 X75.2414 Y61.2851
G01 X75.3168 Y61.3209
G01 X75.3863 Y61.3625
G01 X75.4164 Y61.3847
G01 X77.9635 Y61.3847
G01 X77.9635 Y58.6201
G01 X75.8553 Y56.5119
G01 X75.8343 Y56.5170
G01 X75.7578 Y56.5283
G01 X75.6770 Y56.5324
G01 X74.1518 Y56.5324
G01 X74.0734 Y56.5285
G01 X73.9945 Y56.5168
G01 X73.9172 Y56.4974
G01 X73.8579 Y56.4763
G01 X72.4253 Y57.9089
G01 X72.4253 Y60.1675
G01 X72.4220 Y60.2322
G01 X72.4126 Y60.2963
G01 X72.3958 Y60.3639
G01 X72.3722 Y60.4295
G01 X72.3444 Y60.4881
G01 X72.3098 Y60.5457
G01 X72.2698 Y60.5998
G01 X72.2246 Y60.6496
G01 X68.4137 Y64.4604
G01 X68.3648 Y64.5048
G01 X68.3127 Y64.5434
G01 X68.2509 Y64.5805
G01 X68.1923 Y64.6082
G01 X68.1289 Y64.6308
G01 X68.0637 Y64.6471
G01 X67.9984 Y64.6569
G01 X67.9300 Y64.6603
G01 X34.3004 Y64.6603
G01 X34.2332 Y64.6570
G01 X34.1679 Y64.6474
G01 X34.0991 Y64.6300
G01 X34.0381 Y64.6082
G01 X33.9773 Y64.5794
G01 X33.9197 Y64.5448
G01 X33.8676 Y64.5063
G01 X33.8158 Y64.4596
G01 X27.3619 Y58.0057
G01 X27.2181 Y58.0057
G01 X26.7053 Y58.5185
G01 X26.7053 Y62.2036
G01 X26.7275 Y62.2337
G01 X26.7691 Y62.3032
G01 X26.8058 Y62.3808
G01 X26.8341 Y62.4606
G01 X26.8538 Y62.5392
G01 X26.8659 Y62.6205
G01 X26.8701 Y62.7050
G01 X26.8657 Y62.7908
G01 X26.8538 Y62.8708
G01 X26.8341 Y62.9494
G01 X26.8049 Y63.0314
G01 X26.7697 Y63.1057
G01 X26.7281 Y63.1752
G01 X26.6755 Y63.2462
G01 X26.6211 Y63.3061
G01 X26.5593 Y63.3621
G01 X26.4923 Y63.4118
G01 X26.4229 Y63.4535
G01 X26.3430 Y63.4913
G01 X26.2668 Y63.5185
G01 X26.1858 Y63.5388
G01 X26.1033 Y63.5510
G01 X26.0225 Y63.5550
G01 X25.9342 Y63.5507
G01 X25.8542 Y63.5388
G01 X25.7732 Y63.5185
G01 X25.6947 Y63.4904
G01 X25.6215 Y63.4558
G01 X25.5457 Y63.4104
G01 X25.4807 Y63.3621
G01 X25.4189 Y63.3061
G01 X25.3629 Y63.2443
G01 X25.3146 Y63.1793
G01 X25.2692 Y63.1035
G01 X25.2346 Y63.0303
G01 X25.2065 Y62.9518
G01 X25.1862 Y62.8708
G01 X25.1743 Y62.7908
G01 X25.1699 Y62.7050
G01 X25.1740 Y62.6217
G01 X25.1862 Y62.5392
G01 X25.2062 Y62.4594
G01 X25.2346 Y62.3797
G01 X25.2697 Y62.3054
G01 X25.3125 Y62.2337
G01 X25.3347 Y62.2036
G01 X25.3347 Y58.2346
G01 X25.3379 Y58.1686
G01 X25.3479 Y58.1009
G01 X25.3642 Y58.0357
G01 X25.3868 Y57.9723
G01 X25.4150 Y57.9126
G01 X25.4502 Y57.8539
G01 X25.4895 Y57.8008
G01 X25.5346 Y57.7509
G01 X25.5744 Y57.7110
G01 X25.5615 Y57.6990
G01 X25.4946 Y57.6251
G01 X25.4324 Y57.5409
G01 X25.3812 Y57.4554
G01 X25.3385 Y57.3653
G01 X25.3031 Y57.2668
G01 X25.2783 Y57.1677
G01 X25.2631 Y57.0642
G01 X25.2584 Y56.9621
G01 X25.2633 Y56.8626
G01 X25.2779 Y56.7639
G01 X25.3039 Y56.6601
G01 X25.3376 Y56.5662
G01 X25.3812 Y56.4738
G01 X25.4338 Y56.3862
G01 X25.4931 Y56.3061
G01 X25.5650 Y56.2267
G01 X25.6389 Y56.1598
G01 X25.7190 Y56.1004
G01 X25.8108 Y56.0453
G01 X25.9010 Y56.0028
G01 X25.9972 Y55.9683
G01 X26.0963 Y55.9435
G01 X26.1949 Y55.9288
G01 X26.2994 Y55.9235
G01 X28.2806 Y55.9235
G01 X28.3814 Y55.9284
G01 X28.4861 Y55.9440
G01 X28.5828 Y55.9683
G01 X28.6790 Y56.0028
G01 X28.7714 Y56.0464
G01 X28.8569 Y56.0976
G01 X28.9420 Y56.1606
G01 X29.0168 Y56.2284
G01 X29.0854 Y56.3041
G01 X29.1462 Y56.3862
G01 X29.1999 Y56.4760
G01 X29.2433 Y56.5685
G01 X29.2769 Y56.6624
G01 X29.3012 Y56.7591
G01 X29.3167 Y56.8626
G01 X29.3216 Y56.9621
G01 X29.3167 Y57.0666
G01 X29.3017 Y57.1677
G01 X29.2769 Y57.2668
G01 X29.2424 Y57.3630
G01 X29.1988 Y57.4554
G01 X29.1462 Y57.5430
G01 X29.0854 Y57.6251
G01 X29.0185 Y57.6990
G01 X29.0056 Y57.7110
G01 X34.5843 Y63.2897
G01 X48.4955 Y63.2897
G01 X45.8546 Y60.6487
G01 X45.8087 Y60.5978
G01 X45.7702 Y60.5457
G01 X45.7368 Y60.4902
G01 X45.7068 Y60.4273
G01 X45.6842 Y60.3639
G01 X45.6679 Y60.2987
G01 X45.6583 Y60.2346
G01 X45.6547 Y60.1650
G01 X45.6547 Y57.7374
G01 X45.6213 Y57.7070
G01 X45.5560 Y57.6350
G01 X45.4952 Y57.5530
G01 X45.4436 Y57.4664
G01 X45.4021 Y57.3785
G01 X45.3689 Y57.2859
G01 X45.3443 Y57.1881
G01 X45.3295 Y57.0871
G01 X45.3249 Y56.9875
G01 X45.3297 Y56.8905
G01 X45.3439 Y56.7944
G01 X45.3685 Y56.6953
G01 X45.4012 Y56.6038
G01 X45.4459 Y56.5093
G01 X45.4959 Y56.4260
G01 X45.5552 Y56.3460
G01 X45.6221 Y56.2721
G01 X45.6960 Y56.2052
G01 X45.7760 Y56.1459
G01 X45.8614 Y56.0947
G01 X45.9515 Y56.0521
G01 X46.0430 Y56.0193
G01 X46.1444 Y55.9939
G01 X46.2405 Y55.9797
G01 X46.3400 Y55.9748
G01 X46.4395 Y55.9797
G01 X46.5381 Y55.9943
G01 X46.6347 Y56.0185
G01 X46.7262 Y56.0512
G01 X46.8207 Y56.0959
G01 X46.9040 Y56.1459
G01 X46.9840 Y56.2052
G01 X47.0579 Y56.2721
G01 X47.1248 Y56.3460
G01 X47.1841 Y56.4260
G01 X47.2341 Y56.5093
G01 X47.2788 Y56.6038
G01 X47.3115 Y56.6953
G01 X47.3359 Y56.7932
G01 X47.3505 Y56.8929
G01 X47.3552 Y56.9900
G01 X47.3505 Y57.0871
G01 X47.3357 Y57.1881
G01 X47.3111 Y57.2859
G01 X47.2769 Y57.3807
G01 X47.2353 Y57.4686
G01 X47.1848 Y57.5530
G01 X47.1240 Y57.6350
G01 X47.0587 Y57.7070
G01 X47.0253 Y57.7374
G01 X47.0253 Y59.8811
G01 X50.4339 Y63.2897
G01 X67.6461 Y63.2897
G01 X71.0547 Y59.8811
G01 X71.0547 Y57.6250
G01 X71.0583 Y57.5554
G01 X71.0679 Y57.4913
G01 X71.0839 Y57.4272
G01 X71.1068 Y57.3627
G01 X71.1356 Y57.3019
G01 X71.1702 Y57.2443
G01 X71.2118 Y57.1884
G01 X71.2554 Y57.1404
G01 X72.0276 Y56.3682
G00 Z3.0000
G00 X66.1221 Y56.9925
G01 F60.00
G01 Z0.0000
G01 F60.00
G01 X66.1307 Y56.8128
G01 X66.1567 Y56.6373
G01 X66.1999 Y56.4652
G01 X66.2596 Y56.2981
G01 X66.3355 Y56.1377
G01 X66.4267 Y55.9855
G01 X66.5324 Y55.8430
G01 X66.6516 Y55.7116
G01 X66.7830 Y55.5924
G01 X66.9255 Y55.4867
G01 X67.0777 Y55.3955
G01 X67.2381 Y55.3196
G01 X67.4052 Y55.2599
G01 X67.5773 Y55.2167
G01 X67.7528 Y55.1907
G01 X67.9300 Y55.1820
G01 X68.1072 Y55.1907
G01 X68.2827 Y55.2167
G01 X68.4548 Y55.2599
G01 X68.6219 Y55.3196
G01 X68.7823 Y55.3955
G01 X68.9345 Y55.4867
G01 X69.0770 Y55.5924
G01 X69.2084 Y55.7116
G01 X69.3276 Y55.8430
G01 X69.4333 Y55.9855
G01 X69.5245 Y56.1377
G01 X69.6004 Y56.2981
G01 X69.6601 Y56.4652
G01 X69.7033 Y56.6373
G01 X69.7293 Y56.8128
G01 X69.7380 Y56.9900
G01 X69.7293 Y57.1672
G01 X69.7033 Y57.3427
G01 X69.6601 Y57.5148
G01 X69.6004 Y57.6819
G01 X69.5245 Y57.8423
G01 X69.4333 Y57.9945
G01 X69.3276 Y58.1370
G01 X69.2084 Y58.2684
G01 X69.0770 Y58.3876
G01 X68.9345 Y58.4933
G01 X68.7823 Y58.5845
G01 X68.6219 Y58.6604
G01 X68.4548 Y58.7201
G01 X68.2827 Y58.7633
G01 X68.1072 Y58.7893
G01 X67.9300 Y58.7980
G01 X67.7528 Y58.7893
G01 X67.5773 Y58.7633
G01 X67.4052 Y58.7201
G01 X67.2381 Y58.6604
G01 X67.0777 Y58.5845
G01 X66.9255 Y58.4933
G01 X66.7830 Y58.3876
G01 X66.6516 Y58.2684
G01 X66.5324 Y58.1370
G01 X66.4267 Y57.9945
G01 X66.3355 Y57.8423
G01 X66.2596 Y57.6819
G01 X66.1999 Y57.5148
G01 X66.1567 Y57.3427
G01 X66.1307 Y57.1672
G01 X66.1221 Y56.9925
G00 Z3.0000
G00 X63.1049 Y56.9925
G01 F60.00
G01 Z0.0000
G01 F60.00
G01 X63.1097 Y56.8905
G01 X63.1243 Y56.7919
G01 X63.1485 Y56.6953
G01 X63.1821 Y56.6015
G01 X63.2247 Y56.5114
G01 X63.2759 Y56.4260
G01 X63.3352 Y56.3460
G01 X63.4021 Y56.2721
G01 X63.4760 Y56.2052
G01 X63.5560 Y56.1459
G01 X63.6414 Y56.0947
G01 X63.7315 Y56.0521
G01 X63.8253 Y56.0185
G01 X63.9219 Y55.9943
G01 X64.0205 Y55.9797
G01 X64.1200 Y55.9748
G01 X64.2195 Y55.9797
G01 X64.3181 Y55.9943
G01 X64.4147 Y56.0185
G01 X64.5085 Y56.0521
G01 X64.5986 Y56.0947
G01 X64.6840 Y56.1459
G01 X64.7640 Y56.2052
G01 X64.8379 Y56.2721
G01 X64.9048 Y56.3460
G01 X64.9641 Y56.4260
G01 X65.0153 Y56.5114
G01 X65.0579 Y56.6015
G01 X65.0915 Y56.6953
G01 X65.1157 Y56.7919
G01 X65.1303 Y56.8905
G01 X65.1352 Y56.9900
G01 X65.1303 Y57.0895
G01 X65.1157 Y57.1881
G01 X65.0915 Y57.2847
G01 X65.0579 Y57.3785
G01 X65.0153 Y57.4686
G01 X64.9641 Y57.5540
G01 X64.9048 Y57.6340
G01 X64.8379 Y57.7079
G01 X64.7640 Y57.7748
G01 X64.6840 Y57.8341
G01 X64.5986 Y57.8853
G01 X64.5085 Y57.9279
G01 X64.4147 Y57.9615
G01 X64.3181 Y57.9857
G01 X64.2195 Y58.0003
G01 X64.1200 Y58.0052
G01 X64.0205 Y58.0003
G01 X63.9219 Y57.9857
G01 X63.8253 Y57.9615
G01 X63.7315 Y57.9279
G01 X63.6414 Y57.8853
G01 X63.5560 Y57.8341
G01 X63.4760 Y57.7748
G01 X63.4021 Y57.7079
G01 X63.3352 Y57.6340
G01 X63.2759 Y57.5540
G01 X63.2247 Y57.4686
G01 X63.1821 Y57.3785
G01 X63.1485 Y57.2847
G01 X63.1243 Y57.1881
G01 X63.1097 Y57.0895
G01 X63.1049 Y56.9925
G00 Z3.0000
G00 X58.0249 Y56.9925
G01 F60.00
G01 Z0.0000
G01 F60.00
G01 X58.0297 Y56.8905
G01 X58.0443 Y56.7919
G01 X58.0685 Y56.6953
G01 X58.1021 Y56.6015
G01 X58.1447 Y56.5114
G01 X58.1959 Y56.4260
G01 X58.2552 Y56.3460
G01 X58.3221 Y56.2721
G01 X58.3960 Y56.2052
G01 X58.4760 Y56.1459
G01 X58.5614 Y56.0947
G01 X58.6515 Y56.0521
G01 X58.7453 Y56.0185
G01 X58.8419 Y55.9943
G01 X58.9405 Y55.9797
G01 X59.0400 Y55.9748
G01 X59.1395 Y55.9797
G01 X59.2381 Y55.9943
G01 X59.3347 Y56.0185
G01 X59.4285 Y56.0521
G01 X59.5186 Y56.0947
G01 X59.6040 Y56.1459
G01 X59.6840 Y56.2052
G01 X59.7579 Y56.2721
G01 X59.8248 Y56.3460
G01 X59.8841 Y56.4260
G01 X59.9353 Y56.5114
G01 X59.9779 Y56.6015
G01 X60.0115 Y56.6953
G01 X60.0357 Y56.7919
G01 X60.0503 Y56.8905
G01 X60.0552 Y56.9900
G01 X60.0503 Y57.0895
G01 X60.0357 Y57.1881
G01 X60.0115 Y57.2847
G01 X59.9779 Y57.3785
G01 X59.9353 Y57.4686
G01 X59.8841 Y57.5540
G01 X59.8248 Y57.6340
G01 X59.7579 Y57.7079
G01 X59.6840 Y57.7748
G01 X59.6040 Y57.8341
G01 X59.5186 Y57.8853
G01 X59.4285 Y57.9279
G01 X59.3347 Y57.9615
G01 X59.2381 Y57.9857
G01 X59.1395 Y58.0003
G01 X59.0400 Y58.0052
G01 X58.9405 Y58.0003
G01 X58.8419 Y57.9857
G01 X58.7453 Y57.9615
G01 X58.6515 Y57.9279
G01 X58.5614 Y57.8853
G01 X58.4760 Y57.8341
G01 X58.3960 Y57.7748
G01 X58.3221 Y57.7079
G01 X58.2552 Y57.6340
G01 X58.1959 Y57.5540
G01 X58.1447 Y57.4686
G01 X58.1021 Y57.3785
G01 X58.0685 Y57.2847
G01 X58.0443 Y57.1881
G01 X58.0297 Y57.0895
G01 X58.0249 Y56.9925
G00 Z3.0000
G00 X55.4849 Y56.9925
G01 F60.00
G01 Z0.0000
G01 F60.00
G01 X55.4897 Y56.8905
G01 X55.5043 Y56.7919
G01 X55.5285 Y56.6953
G01 X55.5621 Y56.6015
G01 X55.6047 Y56.5114
G01 X55.6559 Y56.4260
G01 X55.7152 Y56.3460
G01 X55.7821 Y56.2721
G01 X55.8560 Y56.2052
G01 X55.9360 Y56.1459
G01 X56.0214 Y56.0947
G01 X56.1115 Y56.0521
G01 X56.2053 Y56.0185
G01 X56.3019 Y55.9943
G01 X56.4005 Y55.9797
G01 X56.5000 Y55.9748
G01 X56.5995 Y55.9797
G01 X56.6981 Y55.9943
G01 X56.7947 Y56.0185
G01 X56.8885 Y56.0521
G01 X56.9786 Y56.0947
G01 X57.0640 Y56.1459
G01 X57.1440 Y56.2052
G01 X57.2179 Y56.2721
G01 X57.2848 Y56.3460
G01 X57.3441 Y56.4260
G01 X57.3953 Y56.5114
G01 X57.4379 Y56.6015
G01 X57.4715 Y56.6953
G01 X57.4957 Y56.7919
G01 X57.5103 Y56.8905
G01 X57.5152 Y56.9900
G01 X57.5103 Y57.0895
G01 X57.4957 Y57.1881
G01 X57.4715 Y57.2847
G01 X57.4379 Y57.3785
G01 X57.3953 Y57.4686
G01 X57.3441 Y57.5540
G01 X57.2848 Y57.6340
G01 X57.2179 Y57.7079
G01 X57.1440 Y57.7748
G01 X57.0640 Y57.8341
G01 X56.9786 Y57.8853
G01 X56.8885 Y57.9279
G01 X56.7947 Y57.9615
G01 X56.6981 Y57.9857
G01 X56.5995 Y58.0003
G01 X56.5000 Y58.0052
G01 X56.4005 Y58.0003
G01 X56.3019 Y57.9857
G01 X56.2053 Y57.9615
G01 X56.1115 Y57.9279
G01 X56.0214 Y57.8853
G01 X55.9360 Y57.8341
G01 X55.8560 Y57.7748
G01 X55.7821 Y57.7079
G01 X55.7152 Y57.6340
G01 X55.6559 Y57.5540
G01 X55.6047 Y57.4686
G01 X55.5621 Y57.3785
G01 X55.5285 Y57.2847
G01 X55.5043 Y57.1881
G01 X55.4897 Y57.0895
G01 X55.4849 Y56.9925
G00 Z3.0000
G00 X52.9449 Y56.9925
G01 F60.00
G01 Z0.0000
G01 F60.00
G01 X52.9497 Y56.8905
G01 X52.9643 Y56.7919
G01 X52.9885 Y56.6953
G01 X53.0221 Y56.6015
G01 X53.0647 Y56.5114
G01 X53.1159 Y56.4260
G01 X53.1752 Y56.3460
G01 X53.2421 Y56.2721
G01 X53.3160 Y56.2052
G01 X53.3960 Y56.1459
G01 X53.4814 Y56.0947
G01 X53.5715 Y56.0521
G01 X53.6653 Y56.0185
G01 X53.7619 Y55.9943
G01 X53.8605 Y55.9797
G01 X53.9600 Y55.9748
G01 X54.0595 Y55.9797
G01 X54.1581 Y55.9943
G01 X54.2547 Y56.0185
G01 X54.3485 Y56.0521
G01 X54.4386 Y56.0947
G01 X54.5240 Y56.1459
G01 X54.6040 Y56.2052
G01 X54.6779 Y56.2721
G01 X54.7448 Y56.3460
G01 X54.8041 Y56.4260
G01 X54.8553 Y56.5114
G01 X54.8979 Y56.6015
G01 X54.9315 Y56.6953
G01 X54.9557 Y56.7919
G01 X54.9703 Y56.8905
G01 X54.9752 Y56.9900
G01 X54.9703 Y57.0895
G01 X54.9557 Y57.1881
G01 X54.9315 Y57.2847
G01 X54.8979 Y57.3785
G01 X54.8553 Y57.4686
G01 X54.8041 Y57.5540
G01 X54.7448 Y57.6340
G01 X54.6779 Y57.7079
G01 X54.6040 Y57.7748
G01 X54.5240 Y57.8341
G01 X54.4386 Y57.8853
G01 X54.3485 Y57.9279
G01 X54.2547 Y57.9615
G01 X54.1581 Y57.9857
G01 X54.0595 Y58.0003
G01 X53.9600 Y58.0052
G01 X53.8605 Y58.0003
G01 X53.7619 Y57.9857
G01 X53.6653 Y57.9615
G01 X53.5715 Y57.9279
G01 X53.4814 Y57.8853
G01 X53.3960 Y57.8341
G01 X53.3160 Y57.7748
G01 X53.2421 Y57.7079
G01 X53.1752 Y57.6340
G01 X53.1159 Y57.5540
G01 X53.0647 Y57.4686
G01 X53.0221 Y57.3785
G01 X52.9885 Y57.2847
G01 X52.9643 Y57.1881
G01 X52.9497 Y57.0895
G01 X52.9449 Y56.9925
G00 Z3.0000
G00 X51.6721 Y56.0078
G01 F60.00
G01 Z0.0000
G01 F60.00
G01 X51.6783 Y55.9951
G01 X51.7014 Y55.9567
G01 X51.7274 Y55.9217
G01 X51.7575 Y55.8885
G01 X54.1384 Y53.5077
G01 X54.1384 Y52.2006
G01 X54.0796 Y52.1570
G01 X54.0223 Y52.1051
G01 X53.9686 Y52.0462
G01 X53.9195 Y51.9803
G01 X53.8785 Y51.9120
G01 X53.8445 Y51.8399
G01 X53.8169 Y51.7625
G01 X53.7982 Y51.6875
G01 X53.7868 Y51.6111
G01 X53.7827 Y51.5315
G01 X53.7826 Y50.0050
G01 X53.7864 Y49.9266
G01 X53.7982 Y49.8465
G01 X53.8184 Y49.7668
G01 X53.8455 Y49.6919
G01 X53.8785 Y49.6220
G01 X53.9097 Y49.5700
G01 X53.9097 Y47.6243
G01 X53.8525 Y47.5725
G01 X53.7849 Y47.4980
G01 X53.7234 Y47.4154
G01 X53.6690 Y47.3250
G01 X53.6249 Y47.2318
G01 X53.5896 Y47.1324
G01 X53.5652 Y47.0348
G01 X53.5504 Y46.9354
G01 X53.5450 Y46.8300
G01 X53.5501 Y46.7271
G01 X53.5652 Y46.6252
G01 X53.5910 Y46.5229
G01 X53.6259 Y46.4259
G01 X53.6690 Y46.3350
G01 X53.7206 Y46.2487
G01 X53.7833 Y46.1639
G01 X53.8525 Y46.0875
G01 X53.9289 Y46.0183
G01 X54.0117 Y45.9570
G01 X54.1000 Y45.9040
G01 X54.1955 Y45.8590
G01 X54.2902 Y45.8252
G01 X54.3878 Y45.8007
G01 X54.4896 Y45.7854
G01 X54.5950 Y45.7800
G01 X54.6979 Y45.7851
G01 X54.7998 Y45.8002
G01 X54.9010 Y45.8256
G01 X54.9968 Y45.8599
G01 X55.0878 Y45.9029
G01 X55.1783 Y45.9570
G01 X55.2611 Y46.0183
G01 X55.3357 Y46.0858
G01 X55.4082 Y46.1658
G01 X55.4680 Y46.2467
G01 X55.5210 Y46.3350
G01 X55.5651 Y46.4282
G01 X55.5990 Y46.5229
G01 X55.6252 Y46.6276
G01 X55.6399 Y46.7271
G01 X55.6450 Y46.8288
G01 X55.6399 Y46.9329
G01 X55.6248 Y47.0348
G01 X55.5998 Y47.1348
G01 X55.5641 Y47.2341
G01 X55.5210 Y47.3250
G01 X55.4666 Y47.4154
G01 X55.4051 Y47.4980
G01 X55.3375 Y47.5725
G01 X55.2803 Y47.6243
G01 X55.2803 Y49.5700
G01 X55.3115 Y49.6220
G01 X55.3445 Y49.6919
G01 X55.3716 Y49.7668
G01 X55.3918 Y49.8465
G01 X55.4036 Y49.9266
G01 X55.4074 Y50.0050
G01 X55.4073 Y51.5315
G01 X55.4032 Y51.6111
G01 X55.3918 Y51.6875
G01 X55.3731 Y51.7625
G01 X55.3455 Y51.8399
G01 X55.3115 Y51.9120
G01 X55.2705 Y51.9803
G01 X55.2214 Y52.0462
G01 X55.1677 Y52.1051
G01 X55.1104 Y52.1570
G01 X55.0516 Y52.2006
G01 X55.0516 Y53.6980
G01 X55.0494 Y53.7416
G01 X55.0432 Y53.7835
G01 X55.0316 Y53.8305
G01 X55.0159 Y53.8738
G01 X54.9977 Y53.9120
G01 X54.9760 Y53.9484
G01 X54.9480 Y53.9865
G01 X54.9187 Y54.0188
G01 X52.5299 Y56.4076
G01 X52.5280 Y56.4199
G01 X52.5170 Y56.4633
G01 X52.5022 Y56.5043
G01 X52.4825 Y56.5459
G01 X52.4601 Y56.5833
G01 X52.4341 Y56.6183
G01 X52.4041 Y56.6516
G01 X52.3833 Y56.6724
G01 X52.3918 Y56.6965
G01 X52.4159 Y56.7932
G01 X52.4303 Y56.8905
G01 X52.4352 Y56.9888
G01 X52.4300 Y57.0919
G01 X52.4157 Y57.1881
G01 X52.3915 Y57.2847
G01 X52.3579 Y57.3785
G01 X52.3141 Y57.4707
G01 X52.2641 Y57.5540
G01 X52.2063 Y57.6321
G01 X52.1387 Y57.7070
G01 X52.0621 Y57.7763
G01 X51.9840 Y57.8341
G01 X51.9007 Y57.8841
G01 X51.8085 Y57.9279
G01 X51.7123 Y57.9621
G01 X51.6181 Y57.9857
G01 X51.5219 Y58.0000
G01 X51.4200 Y58.0052
G01 X51.3181 Y58.0000
G01 X51.2219 Y57.9857
G01 X51.1265 Y57.9618
G01 X51.0315 Y57.9279
G01 X50.9414 Y57.8853
G01 X50.8560 Y57.8341
G01 X50.7760 Y57.7748
G01 X50.7021 Y57.7079
G01 X50.6352 Y57.6340
G01 X50.5759 Y57.5540
G01 X50.5247 Y57.4686
G01 X50.4821 Y57.3785
G01 X50.4485 Y57.2847
G01 X50.4243 Y57.1881
G01 X50.4097 Y57.0895
G01 X50.4048 Y56.9900
G01 X50.4097 Y56.8905
G01 X50.4243 Y56.7919
G01 X50.4482 Y56.6965
G01 X50.4821 Y56.6015
G01 X50.5247 Y56.5114
G01 X50.5759 Y56.4260
G01 X50.6352 Y56.3460
G01 X50.7021 Y56.2721
G01 X50.7760 Y56.2052
G01 X50.8560 Y56.1459
G01 X50.9404 Y56.0953
G01 X51.0315 Y56.0521
G01 X51.1253 Y56.0185
G01 X51.2219 Y55.9943
G01 X51.3193 Y55.9798
G01 X51.4200 Y55.9748
G01 X51.5183 Y55.9796
G01 X51.6168 Y55.9941
G01 X51.6721 Y56.0078
G00 Z3.0000
G00 X51.5984 Y52.2006
G01 F60.00
G01 Z0.0000
G01 F60.00
G01 X51.5396 Y52.1570
G01 X51.4823 Y52.1051
G01 X51.4286 Y52.0462
G01 X51.3795 Y51.9803
G01 X51.3398 Y51.9141
G01 X51.3045 Y51.8399
G01 X51.2776 Y51.7648
G01 X51.2582 Y51.6875
G01 X51.2465 Y51.6086
G01 X51.2426 Y51.5290
G01 X51.2426 Y50.0050
G01 X51.2464 Y49.9278
G01 X51.2582 Y49.8465
G01 X51.2784 Y49.7668
G01 X51.3055 Y49.6919
G01 X51.3385 Y49.6220
G01 X51.3697 Y49.5700
G01 X51.3697 Y47.6243
G01 X51.3125 Y47.5725
G01 X51.2449 Y47.4980
G01 X51.1834 Y47.4154
G01 X51.1290 Y47.3250
G01 X51.0849 Y47.2318
G01 X51.0496 Y47.1324
G01 X51.0252 Y47.0348
G01 X51.0104 Y46.9354
G01 X51.0050 Y46.8300
G01 X51.0101 Y46.7271
G01 X51.0252 Y46.6252
G01 X51.0502 Y46.5252
G01 X51.0849 Y46.4282
G01 X51.1290 Y46.3350
G01 X51.1820 Y46.2467
G01 X51.2433 Y46.1639
G01 X51.3125 Y46.0875
G01 X51.3889 Y46.0183
G01 X51.4717 Y45.9570
G01 X51.5600 Y45.9040
G01 X51.6532 Y45.8599
G01 X51.7502 Y45.8252
G01 X51.8502 Y45.8002
G01 X51.9521 Y45.7851
G01 X52.0550 Y45.7800
G01 X52.1579 Y45.7851
G01 X52.2598 Y45.8002
G01 X52.3598 Y45.8252
G01 X52.4568 Y45.8599
G01 X52.5478 Y45.9029
G01 X52.6383 Y45.9570
G01 X52.7192 Y46.0168
G01 X52.7992 Y46.0893
G01 X52.8667 Y46.1639
G01 X52.9280 Y46.2467
G01 X52.9810 Y46.3350
G01 X53.0251 Y46.4282
G01 X53.0598 Y46.5252
G01 X53.0848 Y46.6252
G01 X53.0999 Y46.7271
G01 X53.1049 Y46.8275
G01 X53.0999 Y46.9329
G01 X53.0848 Y47.0348
G01 X53.0598 Y47.1348
G01 X53.0246 Y47.2329
G01 X52.9810 Y47.3250
G01 X52.9266 Y47.4154
G01 X52.8651 Y47.4980
G01 X52.7975 Y47.5725
G01 X52.7403 Y47.6243
G01 X52.7403 Y49.5700
G01 X52.7715 Y49.6220
G01 X52.8045 Y49.6919
G01 X52.8316 Y49.7668
G01 X52.8518 Y49.8465
G01 X52.8636 Y49.9266
G01 X52.8674 Y50.0050
G01 X52.8673 Y51.5315
G01 X52.8632 Y51.6111
G01 X52.8518 Y51.6875
G01 X52.8331 Y51.7625
G01 X52.8055 Y51.8399
G01 X52.7715 Y51.9120
G01 X52.7305 Y51.9803
G01 X52.6814 Y52.0462
G01 X52.6277 Y52.1051
G01 X52.5704 Y52.1570
G01 X52.5116 Y52.2006
G01 X52.5116 Y53.8150
G01 X52.5094 Y53.8598
G01 X52.5032 Y53.9017
G01 X52.4919 Y53.9475
G01 X52.4768 Y53.9897
G01 X52.4565 Y54.0324
G01 X52.4347 Y54.0687
G01 X52.4095 Y54.1027
G01 X52.3787 Y54.1370
G01 X51.1079 Y55.4079
G01 X51.0727 Y55.4395
G01 X51.0387 Y55.4647
G01 X51.0013 Y55.4871
G01 X50.9597 Y55.5068
G01 X50.9152 Y55.5226
G01 X50.8741 Y55.5328
G01 X50.8322 Y55.5391
G01 X50.7875 Y55.5415
G01 X49.7041 Y55.5416
G01 X49.3366 Y55.9091
G01 X49.3366 Y56.0842
G01 X49.3596 Y56.0953
G01 X49.4430 Y56.1452
G01 X49.5231 Y56.2045
G01 X49.5979 Y56.2721
G01 X49.6640 Y56.3450
G01 X49.7241 Y56.4260
G01 X49.7753 Y56.5114
G01 X49.8179 Y56.6015
G01 X49.8515 Y56.6953
G01 X49.8757 Y56.7919
G01 X49.8903 Y56.8905
G01 X49.8952 Y56.9900
G01 X49.8903 Y57.0895
G01 X49.8757 Y57.1881
G01 X49.8515 Y57.2847
G01 X49.8179 Y57.3785
G01 X49.7747 Y57.4696
G01 X49.7241 Y57.5540
G01 X49.6648 Y57.6340
G01 X49.5979 Y57.7079
G01 X49.5240 Y57.7748
G01 X49.4440 Y57.8341
G01 X49.3586 Y57.8853
G01 X49.2685 Y57.9279
G01 X49.1747 Y57.9615
G01 X49.0781 Y57.9857
G01 X48.9795 Y58.0003
G01 X48.8800 Y58.0052
G01 X48.7805 Y58.0003
G01 X48.6819 Y57.9857
G01 X48.5853 Y57.9615
G01 X48.4915 Y57.9279
G01 X48.4004 Y57.8847
G01 X48.3160 Y57.8341
G01 X48.2379 Y57.7763
G01 X48.1621 Y57.7079
G01 X48.0937 Y57.6321
G01 X48.0359 Y57.5540
G01 X47.9859 Y57.4707
G01 X47.9421 Y57.3785
G01 X47.9079 Y57.2823
G01 X47.8843 Y57.1881
G01 X47.8700 Y57.0919
G01 X47.8648 Y56.9888
G01 X47.8697 Y56.8905
G01 X47.8839 Y56.7944
G01 X47.9085 Y56.6953
G01 X47.9431 Y56.5993
G01 X47.9847 Y56.5114
G01 X48.0352 Y56.4270
G01 X48.0968 Y56.3441
G01 X48.1621 Y56.2721
G01 X48.2350 Y56.2060
G01 X48.3170 Y56.1452
G01 X48.4004 Y56.0953
G01 X48.4234 Y56.0842
G01 X48.4234 Y55.7200
G01 X48.4256 Y55.6752
G01 X48.4322 Y55.6309
G01 X48.4431 Y55.5875
G01 X48.4582 Y55.5453
G01 X48.4779 Y55.5037
G01 X48.5003 Y55.4663
G01 X48.5255 Y55.4323
G01 X48.5563 Y55.3980
G01 X49.1930 Y54.7613
G01 X49.2253 Y54.7320
G01 X49.2613 Y54.7053
G01 X49.2998 Y54.6823
G01 X49.3403 Y54.6632
G01 X49.3825 Y54.6481
G01 X49.4259 Y54.6372
G01 X49.4702 Y54.6306
G01 X49.5138 Y54.6284
G01 X50.5959 Y54.6284
G01 X51.5984 Y53.6259
G01 X51.5984 Y52.2006
G00 Z3.0000
G00 X50.3274 Y51.5290
G01 F60.00
G01 Z0.0000
G01 F60.00
G01 X50.3235 Y51.6086
G01 X50.3118 Y51.6875
G01 X50.2924 Y51.7648
G01 X50.2664 Y51.8376
G01 X50.2302 Y51.9141
G01 X50.1905 Y51.9803
G01 X50.1414 Y52.0462
G01 X50.0894 Y52.1034
G01 X50.0304 Y52.1570
G01 X49.9663 Y52.2045
G01 X49.8980 Y52.2455
G01 X49.8259 Y52.2795
G01 X49.7508 Y52.3064
G01 X49.6735 Y52.3258
G01 X49.5946 Y52.3375
G01 X49.5150 Y52.3414
G01 X49.4354 Y52.3375
G01 X49.3565 Y52.3258
G01 X49.2792 Y52.3064
G01 X49.2041 Y52.2795
G01 X49.1320 Y52.2455
G01 X49.0637 Y52.2045
G01 X49.0016 Y52.1585
G01 X48.9389 Y52.1017
G01 X48.8870 Y52.0444
G01 X48.8382 Y51.9783
G01 X48.7985 Y51.9120
G01 X48.7645 Y51.8399
G01 X48.7376 Y51.7648
G01 X48.7180 Y51.6863
G01 X48.7065 Y51.6086
G01 X48.7026 Y51.5290
G01 X48.7026 Y50.0038
G01 X48.7065 Y49.9254
G01 X48.7178 Y49.8489
G01 X48.7376 Y49.7692
G01 X48.7655 Y49.6919
G01 X48.7985 Y49.6220
G01 X48.8297 Y49.5700
G01 X48.8297 Y47.6243
G01 X48.7725 Y47.5725
G01 X48.7049 Y47.4980
G01 X48.6434 Y47.4154
G01 X48.5890 Y47.3250
G01 X48.5449 Y47.2318
G01 X48.5096 Y47.1324
G01 X48.4852 Y47.0348
G01 X48.4704 Y46.9354
G01 X48.4650 Y46.8300
G01 X48.4701 Y46.7271
G01 X48.4852 Y46.6252
G01 X48.5096 Y46.5276
G01 X48.5459 Y46.4259
G01 X48.5890 Y46.3350
G01 X48.6420 Y46.2467
G01 X48.7033 Y46.1639
G01 X48.7708 Y46.0893
G01 X48.8508 Y46.0168
G01 X48.9317 Y45.9570
G01 X49.0200 Y45.9040
G01 X49.1132 Y45.8599
G01 X49.2079 Y45.8260
G01 X49.3114 Y45.8000
G01 X49.4121 Y45.7851
G01 X49.5150 Y45.7800
G01 X49.6179 Y45.7851
G01 X49.7198 Y45.8002
G01 X49.8198 Y45.8252
G01 X49.9168 Y45.8599
G01 X50.0100 Y45.9040
G01 X50.0983 Y45.9570
G01 X50.1811 Y46.0183
G01 X50.2575 Y46.0875
G01 X50.3267 Y46.1639
G01 X50.3880 Y46.2467
G01 X50.4410 Y46.3350
G01 X50.4851 Y46.4282
G01 X50.5198 Y46.5252
G01 X50.5450 Y46.6264
G01 X50.5601 Y46.7295
G01 X50.5650 Y46.8300
G01 X50.5601 Y46.9305
G01 X50.5448 Y47.0348
G01 X50.5190 Y47.1371
G01 X50.4851 Y47.2318
G01 X50.4421 Y47.3228
G01 X50.3880 Y47.4133
G01 X50.3251 Y47.4980
G01 X50.2575 Y47.5725
G01 X50.2003 Y47.6243
G01 X50.2003 Y49.5700
G01 X50.2315 Y49.6220
G01 X50.2645 Y49.6919
G01 X50.2916 Y49.7668
G01 X50.3118 Y49.8465
G01 X50.3236 Y49.9266
G01 X50.3274 Y50.0050
G01 X50.3274 Y51.5290
G00 Z3.0000
G00 X47.6603 Y47.6243
G01 F60.00
G01 Z0.0000
G01 F60.00
G01 X47.6603 Y49.5700
G01 X47.6915 Y49.6220
G01 X47.7245 Y49.6919
G01 X47.7524 Y49.7692
G01 X47.7722 Y49.8489
G01 X47.7835 Y49.9254
G01 X47.7874 Y50.0038
G01 X47.7874 Y51.5290
G01 X47.7835 Y51.6086
G01 X47.7720 Y51.6863
G01 X47.7524 Y51.7648
G01 X47.7255 Y51.8399
G01 X47.6915 Y51.9120
G01 X47.6505 Y51.9803
G01 X47.6030 Y52.0444
G01 X47.5494 Y52.1034
G01 X47.4904 Y52.1570
G01 X47.4263 Y52.2045
G01 X47.3580 Y52.2455
G01 X47.2859 Y52.2795
G01 X47.2108 Y52.3064
G01 X47.1335 Y52.3258
G01 X47.0546 Y52.3375
G01 X46.9750 Y52.3414
G01 X46.8954 Y52.3375
G01 X46.8177 Y52.3260
G01 X46.7392 Y52.3064
G01 X46.6664 Y52.2804
G01 X46.5899 Y52.2442
G01 X46.5237 Y52.2045
G01 X46.4596 Y52.1570
G01 X46.4006 Y52.1034
G01 X46.3486 Y52.0462
G01 X46.2982 Y51.9783
G01 X46.2585 Y51.9120
G01 X46.2245 Y51.8399
G01 X46.1976 Y51.7648
G01 X46.1788 Y51.6899
G01 X46.1664 Y51.6074
G01 X46.1626 Y51.5290
G01 X46.1626 Y50.0050
G01 X46.1664 Y49.9278
G01 X46.1782 Y49.8465
G01 X46.1984 Y49.7668
G01 X46.2255 Y49.6919
G01 X46.2585 Y49.6220
G01 X46.2897 Y49.5700
G01 X46.2897 Y47.6243
G01 X46.2325 Y47.5725
G01 X46.1649 Y47.4980
G01 X46.1034 Y47.4154
G01 X46.0490 Y47.3250
G01 X46.0059 Y47.2341
G01 X45.9702 Y47.1348
G01 X45.9452 Y47.0348
G01 X45.9301 Y46.9329
G01 X45.9250 Y46.8288
G01 X45.9301 Y46.7271
G01 X45.9457 Y46.6228
G01 X45.9702 Y46.5252
G01 X46.0040 Y46.4305
G01 X46.0479 Y46.3372
G01 X46.1020 Y46.2467
G01 X46.1633 Y46.1639
G01 X46.2325 Y46.0875
G01 X46.3079 Y46.0191
G01 X46.3917 Y45.9570
G01 X46.4800 Y45.9040
G01 X46.5732 Y45.8599
G01 X46.6702 Y45.8252
G01 X46.7702 Y45.8002
G01 X46.8721 Y45.7851
G01 X46.9750 Y45.7800
G01 X47.0779 Y45.7851
G01 X47.1798 Y45.8002
G01 X47.2798 Y45.8252
G01 X47.3768 Y45.8599
G01 X47.4700 Y45.9040
G01 X47.5583 Y45.9570
G01 X47.6411 Y46.0183
G01 X47.7175 Y46.0875
G01 X47.7859 Y46.1629
G01 X47.8480 Y46.2467
G01 X47.9010 Y46.3350
G01 X47.9451 Y46.4282
G01 X47.9798 Y46.5252
G01 X48.0048 Y46.6252
G01 X48.0199 Y46.7271
G01 X48.0250 Y46.8300
G01 X48.0200 Y46.9317
G01 X48.0048 Y47.0348
G01 X47.9798 Y47.1348
G01 X47.9451 Y47.2318
G01 X47.9010 Y47.3250
G01 X47.8480 Y47.4133
G01 X47.7867 Y47.4961
G01 X47.7175 Y47.5725
G01 X47.6603 Y47.6243
G00 Z3.0000
G00 X45.2474 Y51.5290
G01 F60.00
G01 Z0.0000
G01 F60.00
G01 X45.2435 Y51.6086
G01 X45.2318 Y51.6875
G01 X45.2124 Y51.7648
G01 X45.1864 Y51.8376
G01 X45.1502 Y51.9141
G01 X45.1105 Y51.9803
G01 X45.0614 Y52.0462
G01 X45.0094 Y52.1034
G01 X44.9504 Y52.1570
G01 X44.8863 Y52.2045
G01 X44.8180 Y52.2455
G01 X44.7459 Y52.2795
G01 X44.6708 Y52.3064
G01 X44.5935 Y52.3258
G01 X44.5146 Y52.3375
G01 X44.4350 Y52.3414
G01 X44.3554 Y52.3375
G01 X44.2765 Y52.3258
G01 X44.1992 Y52.3064
G01 X44.1241 Y52.2795
G01 X44.0520 Y52.2455
G01 X43.9837 Y52.2045
G01 X43.9216 Y52.1585
G01 X43.8589 Y52.1017
G01 X43.8070 Y52.0444
G01 X43.7582 Y51.9783
G01 X43.7185 Y51.9120
G01 X43.6845 Y51.8399
G01 X43.6576 Y51.7648
G01 X43.6380 Y51.6863
G01 X43.6265 Y51.6086
G01 X43.6226 Y51.5290
G01 X43.6226 Y50.0038
G01 X43.6265 Y49.9254
G01 X43.6378 Y49.8489
G01 X43.6576 Y49.7692
G01 X43.6855 Y49.6919
G01 X43.7185 Y49.6220
G01 X43.7497 Y49.5700
G01 X43.7497 Y47.6243
G01 X43.6925 Y47.5725
G01 X43.6249 Y47.4980
G01 X43.5634 Y47.4154
G01 X43.5090 Y47.3250
G01 X43.4649 Y47.2318
G01 X43.4296 Y47.1324
G01 X43.4052 Y47.0348
G01 X43.3904 Y46.9354
G01 X43.3850 Y46.8300
G01 X43.3901 Y46.7271
G01 X43.4052 Y46.6252
G01 X43.4296 Y46.5276
G01 X43.4659 Y46.4259
G01 X43.5090 Y46.3350
G01 X43.5620 Y46.2467
G01 X43.6233 Y46.1639
G01 X43.6908 Y46.0893
G01 X43.7708 Y46.0168
G01 X43.8517 Y45.9570
G01 X43.9400 Y45.9040
G01 X44.0332 Y45.8599
G01 X44.1279 Y45.8260
G01 X44.2314 Y45.8000
G01 X44.3321 Y45.7851
G01 X44.4350 Y45.7800
G01 X44.5379 Y45.7851
G01 X44.6398 Y45.8002
G01 X44.7398 Y45.8252
G01 X44.8368 Y45.8599
G01 X44.9300 Y45.9040
G01 X45.0183 Y45.9570
G01 X45.1011 Y46.0183
G01 X45.1775 Y46.0875
G01 X45.2467 Y46.1639
G01 X45.3080 Y46.2467
G01 X45.3610 Y46.3350
G01 X45.4051 Y46.4282
G01 X45.4398 Y46.5252
G01 X45.4650 Y46.6264
G01 X45.4801 Y46.7295
G01 X45.4850 Y46.8300
G01 X45.4801 Y46.9305
G01 X45.4648 Y47.0348
G01 X45.4390 Y47.1371
G01 X45.4051 Y47.2318
G01 X45.3621 Y47.3228
G01 X45.3080 Y47.4133
G01 X45.2451 Y47.4980
G01 X45.1775 Y47.5725
G01 X45.1203 Y47.6243
G01 X45.1203 Y49.5700
G01 X45.1515 Y49.6220
G01 X45.1845 Y49.6919
G01 X45.2116 Y49.7668
G01 X45.2318 Y49.8465
G01 X45.2436 Y49.9266
G01 X45.2474 Y50.0050
G01 X45.2474 Y51.5290
G00 Z3.0000
G00 X42.5803 Y47.6243
G01 F60.00
G01 Z0.0000
G01 F60.00
G01 X42.5803 Y49.5700
G01 X42.6115 Y49.6220
G01 X42.6445 Y49.6919
G01 X42.6724 Y49.7692
G01 X42.6922 Y49.8489
G01 X42.7035 Y49.9254
G01 X42.7074 Y50.0038
G01 X42.7074 Y51.5290
G01 X42.7035 Y51.6086
G01 X42.6920 Y51.6863
G01 X42.6724 Y51.7648
G01 X42.6455 Y51.8399
G01 X42.6115 Y51.9120
G01 X42.5705 Y51.9803
G01 X42.5230 Y52.0444
G01 X42.4694 Y52.1034
G01 X42.4104 Y52.1570
G01 X42.3463 Y52.2045
G01 X42.2780 Y52.2455
G01 X42.2059 Y52.2795
G01 X42.1308 Y52.3064
G01 X42.0535 Y52.3258
G01 X41.9746 Y52.3375
G01 X41.8950 Y52.3414
G01 X41.8154 Y52.3375
G01 X41.7377 Y52.3260
G01 X41.6592 Y52.3064
G01 X41.5864 Y52.2804
G01 X41.5099 Y52.2442
G01 X41.4437 Y52.2045
G01 X41.3796 Y52.1570
G01 X41.3206 Y52.1034
G01 X41.2686 Y52.0462
G01 X41.2182 Y51.9783
G01 X41.1785 Y51.9120
G01 X41.1445 Y51.8399
G01 X41.1176 Y51.7648
G01 X41.0988 Y51.6899
G01 X41.0864 Y51.6074
G01 X41.0826 Y51.5290
G01 X41.0826 Y50.0050
G01 X41.0864 Y49.9278
G01 X41.0982 Y49.8465
G01 X41.1184 Y49.7668
G01 X41.1455 Y49.6919
G01 X41.1785 Y49.6220
G01 X41.2097 Y49.5700
G01 X41.2097 Y47.6243
G01 X41.1525 Y47.5725
G01 X41.0849 Y47.4980
G01 X41.0234 Y47.4154
G01 X40.9690 Y47.3250
G01 X40.9259 Y47.2341
G01 X40.8902 Y47.1348
G01 X40.8652 Y47.0348
G01 X40.8501 Y46.9329
G01 X40.8450 Y46.8288
G01 X40.8501 Y46.7271
G01 X40.8657 Y46.6228
G01 X40.8902 Y46.5252
G01 X40.9240 Y46.4305
G01 X40.9679 Y46.3372
G01 X41.0220 Y46.2467
G01 X41.0833 Y46.1639
G01 X41.1525 Y46.0875
G01 X41.2279 Y46.0191
G01 X41.3117 Y45.9570
G01 X41.4000 Y45.9040
G01 X41.4932 Y45.8599
G01 X41.5902 Y45.8252
G01 X41.6902 Y45.8002
G01 X41.7921 Y45.7851
G01 X41.8950 Y45.7800
G01 X41.9979 Y45.7851
G01 X42.0998 Y45.8002
G01 X42.1998 Y45.8252
G01 X42.2968 Y45.8599
G01 X42.3900 Y45.9040
G01 X42.4783 Y45.9570
G01 X42.5611 Y46.0183
G01 X42.6375 Y46.0875
G01 X42.7059 Y46.1629
G01 X42.7680 Y46.2467
G01 X42.8210 Y46.3350
G01 X42.8651 Y46.4282
G01 X42.8998 Y46.5252
G01 X42.9248 Y46.6252
G01 X42.9399 Y46.7271
G01 X42.9450 Y46.8300
G01 X42.9400 Y46.9317
G01 X42.9248 Y47.0348
G01 X42.8998 Y47.1348
G01 X42.8651 Y47.2318
G01 X42.8210 Y47.3250
G01 X42.7680 Y47.4133
G01 X42.7067 Y47.4961
G01 X42.6375 Y47.5725
G01 X42.5803 Y47.6243
G00 Z3.0000
G00 X40.1674 Y51.5290
G01 F60.00
G01 Z0.0000
G01 F60.00
G01 X40.1635 Y51.6086
G01 X40.1518 Y51.6875
G01 X40.1324 Y51.7648
G01 X40.1064 Y51.8376
G01 X40.0715 Y51.9120
G01 X40.0318 Y51.9783
G01 X39.9814 Y52.0462
G01 X39.9294 Y52.1034
G01 X39.8704 Y52.1570
G01 X39.8063 Y52.2045
G01 X39.7380 Y52.2455
G01 X39.6659 Y52.2795
G01 X39.5908 Y52.3064
G01 X39.5135 Y52.3258
G01 X39.4346 Y52.3375
G01 X39.3550 Y52.3414
G01 X39.2754 Y52.3375
G01 X39.1965 Y52.3258
G01 X39.1192 Y52.3064
G01 X39.0441 Y52.2795
G01 X38.9720 Y52.2455
G01 X38.9037 Y52.2045
G01 X38.8416 Y52.1585
G01 X38.7789 Y52.1017
G01 X38.7270 Y52.0444
G01 X38.6782 Y51.9783
G01 X38.6385 Y51.9120
G01 X38.6045 Y51.8399
G01 X38.5776 Y51.7648
G01 X38.5580 Y51.6863
G01 X38.5465 Y51.6086
G01 X38.5426 Y51.5290
G01 X38.5426 Y50.0038
G01 X38.5465 Y49.9254
G01 X38.5578 Y49.8489
G01 X38.5776 Y49.7692
G01 X38.6055 Y49.6919
G01 X38.6385 Y49.6220
G01 X38.6697 Y49.5700
G01 X38.6697 Y47.6243
G01 X38.6125 Y47.5725
G01 X38.5449 Y47.4980
G01 X38.4834 Y47.4154
G01 X38.4290 Y47.3250
G01 X38.3849 Y47.2318
G01 X38.3496 Y47.1324
G01 X38.3252 Y47.0348
G01 X38.3104 Y46.9354
G01 X38.3050 Y46.8300
G01 X38.3101 Y46.7271
G01 X38.3252 Y46.6252
G01 X38.3496 Y46.5276
G01 X38.3859 Y46.4259
G01 X38.4290 Y46.3350
G01 X38.4820 Y46.2467
G01 X38.5433 Y46.1639
G01 X38.6108 Y46.0893
G01 X38.6908 Y46.0168
G01 X38.7717 Y45.9570
G01 X38.8600 Y45.9040
G01 X38.9532 Y45.8599
G01 X39.0479 Y45.8260
G01 X39.1514 Y45.8000
G01 X39.2521 Y45.7851
G01 X39.3550 Y45.7800
G01 X39.4579 Y45.7851
G01 X39.5598 Y45.8002
G01 X39.6598 Y45.8252
G01 X39.7568 Y45.8599
G01 X39.8500 Y45.9040
G01 X39.9383 Y45.9570
G01 X40.0211 Y46.0183
G01 X40.0975 Y46.0875
G01 X40.1667 Y46.1639
G01 X40.2280 Y46.2467
G01 X40.2810 Y46.3350
G01 X40.3251 Y46.4282
G01 X40.3598 Y46.5252
G01 X40.3850 Y46.6264
G01 X40.4001 Y46.7295
G01 X40.4050 Y46.8300
G01 X40.4001 Y46.9305
G01 X40.3848 Y47.0348
G01 X40.3590 Y47.1371
G01 X40.3251 Y47.2318
G01 X40.2821 Y47.3228
G01 X40.2280 Y47.4133
G01 X40.1651 Y47.4980
G01 X40.0975 Y47.5725
G01 X40.0403 Y47.6243
G01 X40.0403 Y49.5700
G01 X40.0715 Y49.6220
G01 X40.1045 Y49.6919
G01 X40.1316 Y49.7668
G01 X40.1518 Y49.8465
G01 X40.1636 Y49.9266
G01 X40.1674 Y50.0050
G01 X40.1674 Y51.5290
G00 Z3.0000
G00 X39.0239 Y56.0217
G01 F60.00
G01 Z0.0000
G01 F60.00
G01 X39.0239 Y55.8593
G01 X39.1688 Y55.9063
G01 X39.3328 Y55.9900
G01 X39.4817 Y56.0981
G01 X39.5299 Y56.1461
G01 X39.5635 Y56.1736
G01 X39.5744 Y56.1808
G01 X39.6122 Y56.2015
G01 X39.6223 Y56.2059
G01 X39.6629 Y56.2195
G01 X39.6737 Y56.2219
G01 X39.7160 Y56.2282
G01 X39.7272 Y56.2288
G01 X39.7693 Y56.2275
G01 X39.7810 Y56.2260
G01 X39.8226 Y56.2172
G01 X39.8335 Y56.2138
G01 X39.8514 Y56.2063
G01 X39.8698 Y56.1992
G01 X39.8821 Y56.1930
G01 X39.9193 Y56.1695
G01 X39.9269 Y56.1636
G01 X39.9512 Y56.1421
G01 X40.3962 Y55.6973
G01 X40.9566 Y55.4651
G01 X41.5634 Y55.4651
G01 X42.1238 Y55.6973
G01 X42.5738 Y56.1469
G01 X42.6085 Y56.1751
G01 X42.6175 Y56.1810
G01 X42.6518 Y56.1999
G01 X42.6642 Y56.2055
G01 X42.7024 Y56.2185
G01 X42.7166 Y56.2219
G01 X42.7554 Y56.2278
G01 X42.7675 Y56.2288
G01 X42.8095 Y56.2277
G01 X42.8206 Y56.2265
G01 X42.8658 Y56.2171
G01 X42.8764 Y56.2138
G01 X42.9150 Y56.1982
G01 X42.9259 Y56.1924
G01 X42.9591 Y56.1717
G01 X42.9679 Y56.1651
G01 X42.9953 Y56.1411
G01 X43.0383 Y56.0981
G01 X43.1872 Y55.9900
G01 X43.3512 Y55.9063
G01 X43.4961 Y55.8593
G01 X43.4961 Y56.0217
G01 X43.4115 Y56.0521
G01 X43.3214 Y56.0947
G01 X43.2360 Y56.1459
G01 X43.1579 Y56.2037
G01 X43.0805 Y56.2739
G01 X43.0152 Y56.3460
G01 X42.9552 Y56.4270
G01 X42.9047 Y56.5114
G01 X42.8631 Y56.5993
G01 X42.8285 Y56.6953
G01 X42.8039 Y56.7944
G01 X42.7897 Y56.8905
G01 X42.7848 Y56.9900
G01 X42.7900 Y57.0919
G01 X42.8043 Y57.1881
G01 X42.8285 Y57.2847
G01 X42.8631 Y57.3807
G01 X42.9047 Y57.4686
G01 X42.9552 Y57.5530
G01 X43.0152 Y57.6340
G01 X43.0805 Y57.7061
G01 X43.1579 Y57.7763
G01 X43.2360 Y57.8341
G01 X43.3214 Y57.8853
G01 X43.4115 Y57.9279
G01 X43.4961 Y57.9583
G01 X43.4961 Y58.1207
G01 X43.3512 Y58.0737
G01 X43.1872 Y57.9900
G01 X43.0383 Y57.8819
G01 X42.9901 Y57.8339
G01 X42.9565 Y57.8064
G01 X42.9456 Y57.7992
G01 X42.9089 Y57.7790
G01 X42.8977 Y57.7741
G01 X42.8571 Y57.7605
G01 X42.8463 Y57.7581
G01 X42.8075 Y57.7522
G01 X42.7928 Y57.7512
G01 X42.7534 Y57.7523
G01 X42.7390 Y57.7540
G01 X42.6974 Y57.7628
G01 X42.6865 Y57.7662
G01 X42.6686 Y57.7737
G01 X42.6502 Y57.7808
G01 X42.6369 Y57.7876
G01 X42.6207 Y57.7981
G01 X42.6039 Y57.8083
G01 X42.5931 Y57.8164
G01 X42.5665 Y57.8399
G01 X42.1238 Y58.2827
G01 X41.5634 Y58.5149
G01 X40.9566 Y58.5149
G01 X40.3962 Y58.2827
G01 X39.9462 Y57.8331
G01 X39.9115 Y57.8049
G01 X39.9025 Y57.7990
G01 X39.8682 Y57.7801
G01 X39.8558 Y57.7745
G01 X39.8176 Y57.7615
G01 X39.8034 Y57.7581
G01 X39.7646 Y57.7522
G01 X39.7525 Y57.7512
G01 X39.7105 Y57.7523
G01 X39.6994 Y57.7535
G01 X39.6542 Y57.7629
G01 X39.6436 Y57.7662
G01 X39.6050 Y57.7818
G01 X39.5941 Y57.7876
G01 X39.5609 Y57.8083
G01 X39.5521 Y57.8149
G01 X39.5247 Y57.8389
G01 X39.4817 Y57.8819
G01 X39.3328 Y57.9900
G01 X39.1688 Y58.0737
G01 X39.0239 Y58.1207
G01 X39.0239 Y57.9583
G01 X39.1085 Y57.9279
G01 X39.1986 Y57.8853
G01 X39.2840 Y57.8341
G01 X39.3621 Y57.7763
G01 X39.4395 Y57.7061
G01 X39.5048 Y57.6340
G01 X39.5648 Y57.5530
G01 X39.6153 Y57.4686
G01 X39.6569 Y57.3807
G01 X39.6915 Y57.2847
G01 X39.7157 Y57.1881
G01 X39.7300 Y57.0919
G01 X39.7352 Y56.9900
G01 X39.7303 Y56.8905
G01 X39.7161 Y56.7944
G01 X39.6915 Y56.6953
G01 X39.6579 Y56.6015
G01 X39.6164 Y56.5136
G01 X39.5627 Y56.4240
G01 X39.5048 Y56.3460
G01 X39.4395 Y56.2739
G01 X39.3621 Y56.2037
G01 X39.2840 Y56.1459
G01 X39.1986 Y56.0947
G01 X39.1085 Y56.0521
G01 X39.0239 Y56.0217
G00 Z3.0000
G00 X40.2449 Y56.9925
G01 F60.00
G01 Z0.0000
G01 F60.00
G01 X40.2497 Y56.8905
G01 X40.2643 Y56.7919
G01 X40.2885 Y56.6953
G01 X40.3221 Y56.6015
G01 X40.3647 Y56.5114
G01 X40.4159 Y56.4260
G01 X40.4752 Y56.3460
G01 X40.5421 Y56.2721
G01 X40.6160 Y56.2052
G01 X40.6960 Y56.1459
G01 X40.7814 Y56.0947
G01 X40.8715 Y56.0521
G01 X40.9653 Y56.0185
G01 X41.0619 Y55.9943
G01 X41.1605 Y55.9797
G01 X41.2600 Y55.9748
G01 X41.3595 Y55.9797
G01 X41.4581 Y55.9943
G01 X41.5547 Y56.0185
G01 X41.6485 Y56.0521
G01 X41.7386 Y56.0947
G01 X41.8240 Y56.1459
G01 X41.9040 Y56.2052
G01 X41.9779 Y56.2721
G01 X42.0448 Y56.3460
G01 X42.1041 Y56.4260
G01 X42.1553 Y56.5114
G01 X42.1979 Y56.6015
G01 X42.2315 Y56.6953
G01 X42.2557 Y56.7919
G01 X42.2703 Y56.8905
G01 X42.2752 Y56.9900
G01 X42.2703 Y57.0895
G01 X42.2557 Y57.1881
G01 X42.2315 Y57.2847
G01 X42.1979 Y57.3785
G01 X42.1553 Y57.4686
G01 X42.1041 Y57.5540
G01 X42.0448 Y57.6340
G01 X41.9779 Y57.7079
G01 X41.9040 Y57.7748
G01 X41.8240 Y57.8341
G01 X41.7386 Y57.8853
G01 X41.6485 Y57.9279
G01 X41.5547 Y57.9615
G01 X41.4581 Y57.9857
G01 X41.3595 Y58.0003
G01 X41.2600 Y58.0052
G01 X41.1605 Y58.0003
G01 X41.0619 Y57.9857
G01 X40.9653 Y57.9615
G01 X40.8715 Y57.9279
G01 X40.7814 Y57.8853
G01 X40.6960 Y57.8341
G01 X40.6160 Y57.7748
G01 X40.5421 Y57.7079
G01 X40.4752 Y57.6340
G01 X40.4159 Y57.5540
G01 X40.3647 Y57.4686
G01 X40.3221 Y57.3785
G01 X40.2885 Y57.2847
G01 X40.2643 Y57.1881
G01 X40.2497 Y57.0895
G01 X40.2449 Y56.9925
G00 Z3.0000
G00 X36.0557 Y54.6890
G01 F60.00
G01 Z0.0000
G01 F60.00
G01 X36.8095 Y55.2584
G01 X37.3069 Y56.0614
G01 X37.3095 Y56.0754
G01 X37.3130 Y56.0885
G01 X37.3157 Y56.1018
G01 X37.3202 Y56.1143
G01 X37.3236 Y56.1258
G01 X37.3299 Y56.1394
G01 X37.3351 Y56.1522
G01 X37.3416 Y56.1636
G01 X37.3483 Y56.1764
G01 X37.3557 Y56.1867
G01 X37.3629 Y56.1983
G01 X37.3715 Y56.2084
G01 X37.3779 Y56.2171
G01 X37.3892 Y56.2284
G01 X37.3994 Y56.2397
G01 X37.4088 Y56.2473
G01 X37.4185 Y56.2561
G01 X37.4297 Y56.2639
G01 X37.4398 Y56.2717
G01 X37.4523 Y56.2788
G01 X37.4643 Y56.2863
G01 X37.4758 Y56.2915
G01 X37.4859 Y56.2968
G01 X37.4907 Y56.2990
G01 X37.5007 Y56.3022
G01 X37.5123 Y56.3071
G01 X37.5262 Y56.3105
G01 X37.5377 Y56.3143
G01 X37.5434 Y56.3155
G01 X37.5525 Y56.3167
G01 X37.5652 Y56.3195
G01 X37.5790 Y56.3204
G01 X37.5928 Y56.3221
G01 X37.6058 Y56.3219
G01 X37.6192 Y56.3223
G01 X37.6329 Y56.3208
G01 X37.6441 Y56.3203
G01 X37.6492 Y56.3197
G01 X37.6597 Y56.3174
G01 X37.6726 Y56.3155
G01 X37.6858 Y56.3116
G01 X37.6980 Y56.3088
G01 X37.7115 Y56.3037
G01 X37.7251 Y56.2990
G01 X37.7363 Y56.2933
G01 X37.7490 Y56.2879
G01 X37.7602 Y56.2809
G01 X37.7696 Y56.2760
G01 X37.7739 Y56.2732
G01 X37.7830 Y56.2662
G01 X37.7953 Y56.2578
G01 X37.8068 Y56.2478
G01 X37.8131 Y56.2429
G01 X37.8230 Y56.2335
G01 X37.9583 Y56.0981
G01 X38.1072 Y55.9900
G01 X38.2712 Y55.9063
G01 X38.4161 Y55.8593
G01 X38.4161 Y56.0217
G01 X38.3315 Y56.0521
G01 X38.2414 Y56.0947
G01 X38.1560 Y56.1459
G01 X38.0779 Y56.2037
G01 X38.0005 Y56.2739
G01 X37.9352 Y56.3460
G01 X37.8752 Y56.4270
G01 X37.8247 Y56.5114
G01 X37.7831 Y56.5993
G01 X37.7485 Y56.6953
G01 X37.7239 Y56.7944
G01 X37.7097 Y56.8905
G01 X37.7048 Y56.9900
G01 X37.7100 Y57.0919
G01 X37.7243 Y57.1881
G01 X37.7485 Y57.2847
G01 X37.7831 Y57.3807
G01 X37.8247 Y57.4686
G01 X37.8752 Y57.5530
G01 X37.9352 Y57.6340
G01 X38.0005 Y57.7061
G01 X38.0779 Y57.7763
G01 X38.1560 Y57.8341
G01 X38.2414 Y57.8853
G01 X38.3315 Y57.9279
G01 X38.4161 Y57.9583
G01 X38.4161 Y58.1207
G01 X38.2712 Y58.0737
G01 X38.1072 Y57.9900
G01 X37.9583 Y57.8819
G01 X37.8230 Y57.7465
G01 X37.8120 Y57.7371
G01 X37.8030 Y57.7283
G01 X37.7912 Y57.7197
G01 X37.7799 Y57.7109
G01 X37.7693 Y57.7047
G01 X37.7572 Y57.6966
G01 X37.7457 Y57.6912
G01 X37.7353 Y57.6854
G01 X37.7212 Y57.6802
G01 X37.7085 Y57.6746
G01 X37.6958 Y57.6711
G01 X37.6822 Y57.6668
G01 X37.6700 Y57.6646
G01 X37.6592 Y57.6619
G01 X37.6535 Y57.6609
G01 X37.6431 Y57.6602
G01 X37.6301 Y57.6583
G01 X37.6164 Y57.6584
G01 X37.6042 Y57.6575
G01 X37.5983 Y57.6577
G01 X37.5894 Y57.6587
G01 X37.5765 Y57.6591
G01 X37.5628 Y57.6616
G01 X37.5490 Y57.6633
G01 X37.5361 Y57.6668
G01 X37.5236 Y57.6695
G01 X37.5107 Y57.6743
G01 X37.4997 Y57.6775
G01 X37.4949 Y57.6793
G01 X37.4853 Y57.6841
G01 X37.4732 Y57.6890
G01 X37.4613 Y57.6961
G01 X37.4490 Y57.7024
G01 X37.4383 Y57.7101
G01 X37.4273 Y57.7171
G01 X37.4168 Y57.7261
G01 X37.4070 Y57.7335
G01 X37.4026 Y57.7375
G01 X37.3966 Y57.7440
G01 X37.3898 Y57.7499
G01 X37.3858 Y57.7540
G01 X37.3781 Y57.7637
G01 X37.3689 Y57.7739
G01 X37.3615 Y57.7847
G01 X37.3542 Y57.7942
G01 X37.3469 Y57.8073
G01 X37.3392 Y57.8196
G01 X37.3342 Y57.8311
G01 X37.3299 Y57.8390
G01 X37.3276 Y57.8443
G01 X37.3238 Y57.8559
G01 X37.3194 Y57.8663
G01 X37.3179 Y57.8710
G01 X37.3118 Y57.8931
G01 X37.3069 Y57.9186
G01 X36.8095 Y58.7216
G01 X36.0557 Y59.2910
G01 X35.1472 Y59.5495
G01 X34.2066 Y59.4623
G01 X33.3610 Y59.0412
G01 X32.7245 Y58.3431
G01 X32.3834 Y57.4624
G01 X32.3834 Y56.5176
G01 X32.7245 Y55.6369
G01 X33.3610 Y54.9388
G01 X34.2066 Y54.5177
G01 X35.1472 Y54.4305
G01 X36.0557 Y54.6890
G00 Z3.0000
G00 X35.0874 Y51.5290
G01 F60.00
G01 Z0.0000
G01 F60.00
G01 X35.0835 Y51.6086
G01 X35.0718 Y51.6875
G01 X35.0524 Y51.7648
G01 X35.0264 Y51.8376
G01 X34.9902 Y51.9141
G01 X34.9505 Y51.9803
G01 X34.9014 Y52.0462
G01 X34.8494 Y52.1034
G01 X34.7904 Y52.1570
G01 X34.7263 Y52.2045
G01 X34.6580 Y52.2455
G01 X34.5859 Y52.2795
G01 X34.5108 Y52.3064
G01 X34.4335 Y52.3258
G01 X34.3546 Y52.3375
G01 X34.2750 Y52.3414
G01 X34.1954 Y52.3375
G01 X34.1165 Y52.3258
G01 X34.0392 Y52.3064
G01 X33.9641 Y52.2795
G01 X33.8920 Y52.2455
G01 X33.8237 Y52.2045
G01 X33.7616 Y52.1585
G01 X33.7006 Y52.1034
G01 X33.6486 Y52.0462
G01 X33.5982 Y51.9783
G01 X33.5585 Y51.9120
G01 X33.5245 Y51.8399
G01 X33.4976 Y51.7648
G01 X33.4780 Y51.6863
G01 X33.4665 Y51.6086
G01 X33.4626 Y51.5290
G01 X33.4626 Y50.0038
G01 X33.4665 Y49.9254
G01 X33.4778 Y49.8489
G01 X33.4976 Y49.7692
G01 X33.5255 Y49.6919
G01 X33.5585 Y49.6220
G01 X33.5897 Y49.5700
G01 X33.5897 Y47.6243
G01 X33.5325 Y47.5725
G01 X33.4649 Y47.4980
G01 X33.4034 Y47.4154
G01 X33.3490 Y47.3250
G01 X33.3049 Y47.2318
G01 X33.2696 Y47.1324
G01 X33.2452 Y47.0348
G01 X33.2304 Y46.9354
G01 X33.2250 Y46.8300
G01 X33.2301 Y46.7271
G01 X33.2452 Y46.6252
G01 X33.2696 Y46.5276
G01 X33.3059 Y46.4259
G01 X33.3490 Y46.3350
G01 X33.4020 Y46.2467
G01 X33.4633 Y46.1639
G01 X33.5308 Y46.0893
G01 X33.6108 Y46.0168
G01 X33.6917 Y45.9570
G01 X33.7800 Y45.9040
G01 X33.8732 Y45.8599
G01 X33.9679 Y45.8260
G01 X34.0714 Y45.8000
G01 X34.1721 Y45.7851
G01 X34.2750 Y45.7800
G01 X34.3779 Y45.7851
G01 X34.4798 Y45.8002
G01 X34.5798 Y45.8252
G01 X34.6768 Y45.8599
G01 X34.7700 Y45.9040
G01 X34.8583 Y45.9570
G01 X34.9411 Y46.0183
G01 X35.0175 Y46.0875
G01 X35.0867 Y46.1639
G01 X35.1480 Y46.2467
G01 X35.2010 Y46.3350
G01 X35.2451 Y46.4282
G01 X35.2798 Y46.5252
G01 X35.3050 Y46.6264
G01 X35.3201 Y46.7295
G01 X35.3250 Y46.8300
G01 X35.3201 Y46.9305
G01 X35.3048 Y47.0348
G01 X35.2790 Y47.1371
G01 X35.2451 Y47.2318
G01 X35.2021 Y47.3228
G01 X35.1480 Y47.4133
G01 X35.0851 Y47.4980
G01 X35.0175 Y47.5725
G01 X34.9603 Y47.6243
G01 X34.9603 Y49.5700
G01 X34.9915 Y49.6220
G01 X35.0245 Y49.6919
G01 X35.0516 Y49.7668
G01 X35.0718 Y49.8465
G01 X35.0836 Y49.9266
G01 X35.0874 Y50.0050
G01 X35.0874 Y51.5290
G00 Z3.0000
G00 X37.5003 Y47.6243
G01 F60.00
G01 Z0.0000
G01 F60.00
G01 X37.5003 Y49.5700
G01 X37.5315 Y49.6220
G01 X37.5645 Y49.6919
G01 X37.5924 Y49.7692
G01 X37.6122 Y49.8489
G01 X37.6235 Y49.9254
G01 X37.6274 Y50.0038
G01 X37.6274 Y51.5290
G01 X37.6235 Y51.6086
G01 X37.6120 Y51.6863
G01 X37.5924 Y51.7648
G01 X37.5655 Y51.8399
G01 X37.5315 Y51.9120
G01 X37.4905 Y51.9803
G01 X37.4430 Y52.0444
G01 X37.3894 Y52.1034
G01 X37.3304 Y52.1570
G01 X37.2663 Y52.2045
G01 X37.1980 Y52.2455
G01 X37.1259 Y52.2795
G01 X37.0508 Y52.3064
G01 X36.9735 Y52.3258
G01 X36.8946 Y52.3375
G01 X36.8150 Y52.3414
G01 X36.7354 Y52.3375
G01 X36.6577 Y52.3260
G01 X36.5792 Y52.3064
G01 X36.5064 Y52.2804
G01 X36.4299 Y52.2442
G01 X36.3637 Y52.2045
G01 X36.2996 Y52.1570
G01 X36.2406 Y52.1034
G01 X36.1886 Y52.0462
G01 X36.1382 Y51.9783
G01 X36.0985 Y51.9120
G01 X36.0645 Y51.8399
G01 X36.0376 Y51.7648
G01 X36.0188 Y51.6899
G01 X36.0064 Y51.6074
G01 X36.0026 Y51.5290
G01 X36.0026 Y50.0050
G01 X36.0064 Y49.9278
G01 X36.0182 Y49.8465
G01 X36.0384 Y49.7668
G01 X36.0655 Y49.6919
G01 X36.0985 Y49.6220
G01 X36.1297 Y49.5700
G01 X36.1297 Y47.6243
G01 X36.0725 Y47.5725
G01 X36.0049 Y47.4980
G01 X35.9434 Y47.4154
G01 X35.8890 Y47.3250
G01 X35.8459 Y47.2341
G01 X35.8102 Y47.1348
G01 X35.7852 Y47.0348
G01 X35.7701 Y46.9329
G01 X35.7650 Y46.8288
G01 X35.7701 Y46.7271
G01 X35.7857 Y46.6228
G01 X35.8102 Y46.5252
G01 X35.8440 Y46.4305
G01 X35.8879 Y46.3372
G01 X35.9420 Y46.2467
G01 X36.0033 Y46.1639
G01 X36.0725 Y46.0875
G01 X36.1479 Y46.0191
G01 X36.2317 Y45.9570
G01 X36.3200 Y45.9040
G01 X36.4132 Y45.8599
G01 X36.5102 Y45.8252
G01 X36.6102 Y45.8002
G01 X36.7121 Y45.7851
G01 X36.8150 Y45.7800
G01 X36.9179 Y45.7851
G01 X37.0198 Y45.8002
G01 X37.1198 Y45.8252
G01 X37.2168 Y45.8599
G01 X37.3100 Y45.9040
G01 X37.3983 Y45.9570
G01 X37.4811 Y46.0183
G01 X37.5575 Y46.0875
G01 X37.6259 Y46.1629
G01 X37.6880 Y46.2467
G01 X37.7410 Y46.3350
G01 X37.7851 Y46.4282
G01 X37.8198 Y46.5252
G01 X37.8448 Y46.6252
G01 X37.8599 Y46.7271
G01 X37.8650 Y46.8300
G01 X37.8600 Y46.9317
G01 X37.8448 Y47.0348
G01 X37.8198 Y47.1348
G01 X37.7851 Y47.2318
G01 X37.7410 Y47.3250
G01 X37.6880 Y47.4133
G01 X37.6267 Y47.4961
G01 X37.5575 Y47.5725
G01 X37.5003 Y47.6243
G00 Z3.0000
G00 X29.4133 Y52.3155
G01 F60.00
G01 Z0.0000
G01 F60.00
G01 X29.3878 Y52.3940
G01 X29.3023 Y52.5616
G01 X29.1919 Y52.7136
G01 X29.0588 Y52.8467
G01 X28.9068 Y52.9571
G01 X28.7392 Y53.0426
G01 X28.5604 Y53.1006
G01 X28.3747 Y53.1301
G01 X27.6701 Y53.1301
G01 X27.6701 Y52.9765
G01 X28.2806 Y52.9765
G01 X28.3814 Y52.9716
G01 X28.4837 Y52.9565
G01 X28.5804 Y52.9323
G01 X28.6813 Y52.8963
G01 X28.7714 Y52.8536
G01 X28.8590 Y52.8010
G01 X28.9411 Y52.7402
G01 X29.0168 Y52.6716
G01 X29.0854 Y52.5959
G01 X29.1462 Y52.5138
G01 X29.1993 Y52.4251
G01 X29.2420 Y52.3349
G01 X29.2491 Y52.3155
G01 X29.4133 Y52.3155
G00 Z3.0000
G00 X28.3747 Y50.7407
G01 F60.00
G01 Z0.0000
G01 F60.00
G01 X28.5604 Y50.7702
G01 X28.7392 Y50.8282
G01 X28.9068 Y50.9137
G01 X29.0588 Y51.0241
G01 X29.1919 Y51.1572
G01 X29.3023 Y51.3092
G01 X29.3878 Y51.4768
G01 X29.4133 Y51.5553
G01 X29.2491 Y51.5553
G01 X29.2420 Y51.5359
G01 X29.1993 Y51.4457
G01 X29.1462 Y51.3570
G01 X29.0854 Y51.2749
G01 X29.0168 Y51.1992
G01 X28.9411 Y51.1306
G01 X28.8590 Y51.0698
G01 X28.7714 Y51.0172
G01 X28.6779 Y50.9731
G01 X28.5828 Y50.9391
G01 X28.4861 Y50.9148
G01 X28.3814 Y50.8992
G01 X28.2806 Y50.8943
G01 X27.6701 Y50.8943
G01 X27.6701 Y50.7407
G01 X28.3747 Y50.7407
G00 Z3.0000
G00 X26.9099 Y50.7407
G01 F60.00
G01 Z0.0000
G01 F60.00
G01 X26.9099 Y50.8943
G01 X26.2994 Y50.8943
G01 X26.1986 Y50.8992
G01 X26.0963 Y50.9143
G01 X25.9996 Y50.9385
G01 X25.8987 Y50.9745
G01 X25.8086 Y51.0172
G01 X25.7210 Y51.0698
G01 X25.6389 Y51.1306
G01 X25.5632 Y51.1992
G01 X25.4946 Y51.2749
G01 X25.4338 Y51.3570
G01 X25.3807 Y51.4457
G01 X25.3380 Y51.5359
G01 X25.3309 Y51.5553
G01 X25.1667 Y51.5553
G01 X25.1922 Y51.4768
G01 X25.2777 Y51.3092
G01 X25.3881 Y51.1572
G01 X25.5212 Y51.0241
G01 X25.6732 Y50.9137
G01 X25.8408 Y50.8282
G01 X26.0196 Y50.7702
G01 X26.2053 Y50.7407
