(G-CODE GENERATED BY FLATCAM v8.994 - www.flatcam.org - Version Date: 2020/11/7)

(Name: drill_1_16.xln_cnc)
(Type: G-code from Geometry)
(Units: MM)

(Created on Wednesday, 09 August 2023 at 21:00)

(This preprocessor is the default preprocessor used by FlatCAM.)
(It is made to work with MACH3 compatible motion controllers.)


(TOOLS DIAMETER: )
(Tool: 1 -> Dia: 0.61)
(Tool: 2 -> Dia: 0.813)
(Tool: 3 -> Dia: 1.0)
(Tool: 4 -> Dia: 1.016)
(Tool: 5 -> Dia: 1.02)
(Tool: 6 -> Dia: 1.321)
(Tool: 7 -> Dia: 2.5)

(FEEDRATE Z: )
(Tool: 1 -> Feedrate: 300)
(Tool: 2 -> Feedrate: 300)
(Tool: 3 -> Feedrate: 300)
(Tool: 4 -> Feedrate: 300)
(Tool: 5 -> Feedrate: 300)
(Tool: 6 -> Feedrate: 300)
(Tool: 7 -> Feedrate: 300)

(FEEDRATE RAPIDS: )
(Tool: 1 -> Feedrate Rapids: 1500)
(Tool: 2 -> Feedrate Rapids: 1500)
(Tool: 3 -> Feedrate Rapids: 1500)
(Tool: 4 -> Feedrate Rapids: 1500)
(Tool: 5 -> Feedrate Rapids: 1500)
(Tool: 6 -> Feedrate Rapids: 1500)
(Tool: 7 -> Feedrate Rapids: 1500)

(Z_CUT: )
(Tool: 1 -> Z_Cut: -2.0)
(Tool: 2 -> Z_Cut: -2.0)
(Tool: 3 -> Z_Cut: -2.0)
(Tool: 4 -> Z_Cut: -2.0)
(Tool: 5 -> Z_Cut: -2.0)
(Tool: 6 -> Z_Cut: -2.0)
(Tool: 7 -> Z_Cut: -2.0)

(Tools Offset: )
(Tool: 1 -> Offset Z: 0.0)
(Tool: 2 -> Offset Z: 0.0)
(Tool: 3 -> Offset Z: 0.0)
(Tool: 4 -> Offset Z: 0.0)
(Tool: 5 -> Offset Z: 0.0)
(Tool: 6 -> Offset Z: 0.0)
(Tool: 7 -> Offset Z: 0.0)

(Z_MOVE: )
(Tool: 1 -> Z_Move: 3.0)
(Tool: 2 -> Z_Move: 3.0)
(Tool: 3 -> Z_Move: 3.0)
(Tool: 4 -> Z_Move: 3.0)
(Tool: 5 -> Z_Move: 3.0)
(Tool: 6 -> Z_Move: 3.0)
(Tool: 7 -> Z_Move: 3.0)

(Z Toolchange: 15.0 mm)
(X,Y Toolchange: 0.0000, 0.0000 mm)
(Z Start: None mm)
(Z End: 0.5 mm)
(X,Y End: None mm)
(Steps per circle: 64)
(Preprocessor Excellon: default)

(X range:   23.8050 ...   86.3250  mm)
(Y range:   23.6850 ...   86.8150  mm)

(Spindle Speed: 0 RPM)
G21
G90
G94

G01 F300.00

M5
G00 Z15.0000
T1
G00 X0.0000 Y0.0000                
M6
(MSG, Change to Tool Dia = 0.6100 ||| Total drills for tool T1 = 9)
M0
G00 Z15.0000

G01 F300.00
M03
G00 X76.8200 Y31.5900
G01 Z-2.0000
G01 Z0
G00 Z3.0000
G00 X76.8200 Y37.3050
G01 Z-2.0000
G01 Z0
G00 Z3.0000
G00 X76.8200 Y43.0200
G01 Z-2.0000
G01 Z0
G00 Z3.0000
G00 X68.5650 Y42.1310
G01 Z-2.0000
G01 Z0
G00 Z3.0000
G00 X62.2150 Y43.0200
G01 Z-2.0000
G01 Z0
G00 Z3.0000
G00 X45.0700 Y40.4800
G01 Z-2.0000
G01 Z0
G00 Z3.0000
G00 X45.0700 Y34.7650
G01 Z-2.0000
G01 Z0
G00 Z3.0000
G00 X62.2150 Y34.1300
G01 Z-2.0000
G01 Z0
G00 Z3.0000
G00 X66.0250 Y35.4000
G01 Z-2.0000
G01 Z0
G00 Z3.0000
G01 F300.00

M5
G00 Z15.0000
T2
G00 X0.0000 Y0.0000                
M6
(MSG, Change to Tool Dia = 0.8130 ||| Total drills for tool T2 = 4)
M0
G00 Z15.0000

G01 F300.00
M03
G00 X26.0200 Y65.2450
G01 Z-2.0000
G01 Z0
G00 Z3.0000
G00 X26.0200 Y62.7050
G01 Z-2.0000
G01 Z0
G00 Z3.0000
G00 X74.9150 Y62.0700
G01 Z-2.0000
G01 Z0
G00 Z3.0000
G00 X74.9150 Y64.6100
G01 Z-2.0000
G01 Z0
G00 Z3.0000
G01 F300.00

M5
G00 Z15.0000
T3
G00 X0.0000 Y0.0000                
M6
(MSG, Change to Tool Dia = 1.0000 ||| Total drills for tool T3 = 11)
M0
G00 Z15.0000

G01 F300.00
M03
G00 X48.8800 Y56.9900
G01 Z-2.0000
G01 Z0
G00 Z3.0000
G00 X51.4200 Y56.9900
G01 Z-2.0000
G01 Z0
G00 Z3.0000
G00 X53.9600 Y56.9900
G01 Z-2.0000
G01 Z0
G00 Z3.0000
G00 X56.5000 Y56.9900
G01 Z-2.0000
G01 Z0
G00 Z3.0000
G00 X59.0400 Y56.9900
G01 Z-2.0000
G01 Z0
G00 Z3.0000
G00 X61.5800 Y56.9900
G01 Z-2.0000
G01 Z0
G00 Z3.0000
G00 X64.1200 Y56.9900
G01 Z-2.0000
G01 Z0
G00 Z3.0000
G00 X46.3400 Y56.9900
G01 Z-2.0000
G01 Z0
G00 Z3.0000
G00 X43.8000 Y56.9900
G01 Z-2.0000
G01 Z0
G00 Z3.0000
G00 X41.2600 Y56.9900
G01 Z-2.0000
G01 Z0
G00 Z3.0000
G00 X38.7200 Y56.9900
G01 Z-2.0000
G01 Z0
G00 Z3.0000
G01 F300.00

M5
G00 Z15.0000
T4
G00 X0.0000 Y0.0000                
M6
(MSG, Change to Tool Dia = 1.0160 ||| Total drills for tool T4 = 37)
M0
G00 Z15.0000

G01 F300.00
M03
G00 X52.0550 Y84.9300
G01 Z-2.0000
G01 Z0
G00 Z3.0000
G00 X54.5950 Y84.9300
G01 Z-2.0000
G01 Z0
G00 Z3.0000
G00 X57.1350 Y84.9300
G01 Z-2.0000
G01 Z0
G00 Z3.0000
G00 X54.5950 Y50.7670
G01 Z-2.0000
G01 Z0
G00 Z3.0000
G00 X57.1350 Y50.7670
G01 Z-2.0000
G01 Z0
G00 Z3.0000
G00 X59.6750 Y50.7670
G01 Z-2.0000
G01 Z0
G00 Z3.0000
G00 X62.2150 Y50.7670
G01 Z-2.0000
G01 Z0
G00 Z3.0000
G00 X64.7550 Y50.7670
G01 Z-2.0000
G01 Z0
G00 Z3.0000
G00 X67.2950 Y50.7670
G01 Z-2.0000
G01 Z0
G00 Z3.0000
G00 X74.9150 Y58.2600
G01 Z-2.0000
G01 Z0
G00 Z3.0000
G00 X74.9150 Y55.7200
G01 Z-2.0000
G01 Z0
G00 Z3.0000
G00 X74.9150 Y53.1800
G01 Z-2.0000
G01 Z0
G00 Z3.0000
G00 X74.9150 Y50.6400
G01 Z-2.0000
G01 Z0
G00 Z3.0000
G00 X67.2950 Y24.6300
G01 Z-2.0000
G01 Z0
G00 Z3.0000
G00 X64.7550 Y24.6300
G01 Z-2.0000
G01 Z0
G00 Z3.0000
G00 X62.2150 Y24.6300
G01 Z-2.0000
G01 Z0
G00 Z3.0000
G00 X59.6750 Y24.6300
G01 Z-2.0000
G01 Z0
G00 Z3.0000
G00 X57.1350 Y24.6300
G01 Z-2.0000
G01 Z0
G00 Z3.0000
G00 X54.5950 Y24.6300
G01 Z-2.0000
G01 Z0
G00 Z3.0000
G00 X52.0550 Y24.6300
G01 Z-2.0000
G01 Z0
G00 Z3.0000
G00 X49.5150 Y24.6300
G01 Z-2.0000
G01 Z0
G00 Z3.0000
G00 X46.9750 Y24.6300
G01 Z-2.0000
G01 Z0
G00 Z3.0000
G00 X44.4350 Y24.6300
G01 Z-2.0000
G01 Z0
G00 Z3.0000
G00 X41.8950 Y24.6300
G01 Z-2.0000
G01 Z0
G00 Z3.0000
G00 X39.3550 Y24.6300
G01 Z-2.0000
G01 Z0
G00 Z3.0000
G00 X36.8150 Y24.6300
G01 Z-2.0000
G01 Z0
G00 Z3.0000
G00 X34.2750 Y24.6300
G01 Z-2.0000
G01 Z0
G00 Z3.0000
G00 X34.2750 Y50.7670
G01 Z-2.0000
G01 Z0
G00 Z3.0000
G00 X36.8150 Y50.7670
G01 Z-2.0000
G01 Z0
G00 Z3.0000
G00 X39.3550 Y50.7670
G01 Z-2.0000
G01 Z0
G00 Z3.0000
G00 X41.8950 Y50.7670
G01 Z-2.0000
G01 Z0
G00 Z3.0000
G00 X44.4350 Y50.7670
G01 Z-2.0000
G01 Z0
G00 Z3.0000
G00 X46.9750 Y50.7670
G01 Z-2.0000
G01 Z0
G00 Z3.0000
G00 X49.5150 Y50.7670
G01 Z-2.0000
G01 Z0
G00 Z3.0000
G00 X52.0550 Y50.7670
G01 Z-2.0000
G01 Z0
G00 Z3.0000
G00 X46.9750 Y84.9300
G01 Z-2.0000
G01 Z0
G00 Z3.0000
G00 X49.5150 Y84.9300
G01 Z-2.0000
G01 Z0
G00 Z3.0000
G01 F300.00

M5
G00 Z15.0000
T5
G00 X0.0000 Y0.0000                
M6
(MSG, Change to Tool Dia = 1.0200 ||| Total drills for tool T5 = 28)
M0
G00 Z15.0000

G01 F300.00
M03
G00 X54.5950 Y46.8300
G01 Z-2.0000
G01 Z0
G00 Z3.0000
G00 X57.1350 Y46.8300
G01 Z-2.0000
G01 Z0
G00 Z3.0000
G00 X59.6750 Y46.8300
G01 Z-2.0000
G01 Z0
G00 Z3.0000
G00 X62.2150 Y46.8300
G01 Z-2.0000
G01 Z0
G00 Z3.0000
G00 X64.7550 Y46.8300
G01 Z-2.0000
G01 Z0
G00 Z3.0000
G00 X67.2950 Y46.8300
G01 Z-2.0000
G01 Z0
G00 Z3.0000
G00 X67.2950 Y29.0500
G01 Z-2.0000
G01 Z0
G00 Z3.0000
G00 X64.7550 Y29.0500
G01 Z-2.0000
G01 Z0
G00 Z3.0000
G00 X62.2150 Y29.0500
G01 Z-2.0000
G01 Z0
G00 Z3.0000
G00 X59.6750 Y29.0500
G01 Z-2.0000
G01 Z0
G00 Z3.0000
G00 X57.1350 Y29.0500
G01 Z-2.0000
G01 Z0
G00 Z3.0000
G00 X54.5950 Y29.0500
G01 Z-2.0000
G01 Z0
G00 Z3.0000
G00 X52.0550 Y29.0500
G01 Z-2.0000
G01 Z0
G00 Z3.0000
G00 X49.5150 Y29.0500
G01 Z-2.0000
G01 Z0
G00 Z3.0000
G00 X46.9750 Y29.0500
G01 Z-2.0000
G01 Z0
G00 Z3.0000
G00 X44.4350 Y29.0500
G01 Z-2.0000
G01 Z0
G00 Z3.0000
G00 X41.8950 Y29.0500
G01 Z-2.0000
G01 Z0
G00 Z3.0000
G00 X39.3550 Y29.0500
G01 Z-2.0000
G01 Z0
G00 Z3.0000
G00 X36.8150 Y29.0500
G01 Z-2.0000
G01 Z0
G00 Z3.0000
G00 X34.2750 Y29.0500
G01 Z-2.0000
G01 Z0
G00 Z3.0000
G00 X34.2750 Y46.8300
G01 Z-2.0000
G01 Z0
G00 Z3.0000
G00 X36.8150 Y46.8300
G01 Z-2.0000
G01 Z0
G00 Z3.0000
G00 X39.3550 Y46.8300
G01 Z-2.0000
G01 Z0
G00 Z3.0000
G00 X41.8950 Y46.8300
G01 Z-2.0000
G01 Z0
G00 Z3.0000
G00 X44.4350 Y46.8300
G01 Z-2.0000
G01 Z0
G00 Z3.0000
G00 X46.9750 Y46.8300
G01 Z-2.0000
G01 Z0
G00 Z3.0000
G00 X49.5150 Y46.8300
G01 Z-2.0000
G01 Z0
G00 Z3.0000
G00 X52.0550 Y46.8300
G01 Z-2.0000
G01 Z0
G00 Z3.0000
G01 F300.00

M5
G00 Z15.0000
T6
G00 X0.0000 Y0.0000                
M6
(MSG, Change to Tool Dia = 1.3210 ||| Total drills for tool T6 = 10)
M0
G00 Z15.0000

G01 F300.00
M03
G00 X82.5350 Y31.5140
G01 Z-2.0000
G01 Z0
G00 Z3.0000
G00 X82.5350 Y36.4920
G01 Z-2.0000
G01 Z0
G00 Z3.0000
G00 X82.5350 Y41.5210
G01 Z-2.0000
G01 Z0
G00 Z3.0000
G00 X82.5350 Y48.8370
G01 Z-2.0000
G01 Z0
G00 Z3.0000
G00 X82.5350 Y53.8660
G01 Z-2.0000
G01 Z0
G00 Z3.0000
G00 X82.5350 Y58.8440
G01 Z-2.0000
G01 Z0
G00 Z3.0000
G00 X82.5350 Y63.8730
G01 Z-2.0000
G01 Z0
G00 Z3.0000
G00 X27.2900 Y56.9650
G01 Z-2.0000
G01 Z0
G00 Z3.0000
G00 X27.2900 Y51.9350
G01 Z-2.0000
G01 Z0
G00 Z3.0000
G00 X82.5350 Y26.4850
G01 Z-2.0000
G01 Z0
G00 Z3.0000
G01 F300.00

M5
G00 Z15.0000
T7
G00 X0.0000 Y0.0000                
M6
(MSG, Change to Tool Dia = 2.5000 ||| Total drills for tool T7 = 8)
M0
G00 Z15.0000

G01 F300.00
M03
G00 X73.7210 Y24.9350
G01 Z-2.0000
G01 Z0
G00 Z3.0000
G00 X67.9300 Y56.9900
G01 Z-2.0000
G01 Z0
G00 Z3.0000
G00 X85.0750 Y85.5140
G01 Z-2.0000
G01 Z0
G00 Z3.0000
G00 X67.9300 Y84.9300
G01 Z-2.0000
G01 Z0
G00 Z3.0000
G00 X34.9100 Y84.9300
G01 Z-2.0000
G01 Z0
G00 Z3.0000
G00 X25.0800 Y85.5650
G01 Z-2.0000
G01 Z0
G00 Z3.0000
G00 X34.9100 Y56.9900
G01 Z-2.0000
G01 Z0
G00 Z3.0000
G00 X25.0550 Y25.5450
G01 Z-2.0000
G01 Z0
G00 Z3.0000
M05
G00 Z0.50


